public/avengers.cube
# Created by Benjamin (IWLTBAP): https://luts.iwltbap.com
# Copyright: (C) Copyright 2018 Triune Films and IWLTBAP SAS
# Cannot be resold, shared or otherwise redistributed
TITLE "Triune Films Cinematic LUTs V3 (Sony S-Log2)"
LUT_3D_SIZE 33
0.001434 0.000000 0.000702
0.006104 0.000000 0.001648
0.010803 0.000000 0.002594
0.018250 0.000000 0.004181
0.053131 0.000000 0.010437
0.102936 0.000000 0.017487
0.152924 0.000000 0.029053
0.206635 0.000000 0.043243
0.268341 0.000000 0.057404
0.334656 0.000000 0.073639
0.402130 0.000000 0.090637
0.466949 0.000000 0.107513
0.527435 0.000000 0.123505
0.585968 0.000000 0.138763
0.643433 0.000000 0.155304
0.700623 0.000000 0.171875
0.755951 0.000000 0.187653
0.794373 0.000000 0.203003
0.795532 0.000000 0.216217
0.796906 0.000000 0.225861
0.798401 0.000000 0.234131
0.799866 0.000000 0.242035
0.801483 0.000000 0.248932
0.803345 0.000000 0.254852
0.805328 0.000000 0.259918
0.807404 0.000000 0.264191
0.809601 0.000000 0.267883
0.811890 0.000000 0.271027
0.814148 0.000000 0.273590
0.816528 0.000000 0.275757
0.818970 0.000000 0.277496
0.821533 0.000000 0.278870
0.824127 0.000000 0.279999
0.000977 0.003662 0.000488
0.005249 0.003632 0.000488
0.010468 0.003357 0.002106
0.018036 0.001892 0.003937
0.050629 0.001495 0.010040
0.100739 0.001221 0.016998
0.151031 0.001068 0.028259
0.205322 0.000458 0.042236
0.266754 0.000305 0.056458
0.333069 0.000305 0.072845
0.400543 0.000305 0.089874
0.465576 0.000305 0.106812
0.526093 0.000305 0.123016
0.584778 0.000305 0.138275
0.642212 0.000305 0.154724
0.699585 0.000305 0.171509
0.755157 0.000305 0.187408
0.795135 0.000305 0.202850
0.796295 0.000305 0.216156
0.797607 0.000305 0.226074
0.799133 0.000305 0.234375
0.800629 0.000305 0.242249
0.802246 0.000305 0.249176
0.804108 0.000305 0.255096
0.806091 0.000305 0.260162
0.808167 0.000305 0.264465
0.810333 0.000305 0.268188
0.812622 0.000305 0.271301
0.814941 0.000305 0.273865
0.817352 0.000305 0.276031
0.819794 0.000305 0.277740
0.822357 0.000305 0.279114
0.824951 0.000305 0.280243
0.000580 0.007294 0.000305
0.002716 0.007294 0.000305
0.009064 0.007202 0.000305
0.017365 0.006744 0.003113
0.048309 0.003662 0.009430
0.098602 0.002472 0.016449
0.149353 0.002136 0.027374
0.204315 0.000946 0.041290
0.265564 0.000610 0.055573
0.331726 0.000610 0.072052
0.399261 0.000610 0.089203
0.464630 0.000610 0.106201
0.525146 0.000610 0.122559
0.584015 0.000610 0.137909
0.641846 0.000610 0.154388
0.699127 0.000610 0.171295
0.754486 0.000610 0.187195
0.795929 0.000610 0.202545
0.797150 0.000610 0.215729
0.798340 0.000610 0.226288
0.799896 0.000610 0.234589
0.801392 0.000610 0.242523
0.803040 0.000610 0.249390
0.804901 0.000610 0.255310
0.806885 0.000610 0.260376
0.808899 0.000610 0.264740
0.811096 0.000610 0.268463
0.813385 0.000610 0.271576
0.815735 0.000610 0.274139
0.818146 0.000610 0.276276
0.820618 0.000610 0.278015
0.823181 0.000610 0.279388
0.825775 0.000610 0.280487
0.000000 0.012482 0.000000
0.001801 0.012482 0.000000
0.004211 0.012451 0.000000
0.014374 0.012268 0.000000
0.045380 0.006653 0.008301
0.096191 0.003845 0.015930
0.147736 0.003174 0.026398
0.203247 0.001526 0.040466
0.264832 0.000916 0.054871
0.330933 0.000916 0.071411
0.398621 0.000916 0.088745
0.464294 0.000916 0.105865
0.524719 0.000916 0.122253
0.583191 0.000916 0.137482
0.640442 0.000916 0.153717
0.697632 0.000916 0.170746
0.753235 0.000916 0.186798
0.796661 0.000916 0.202179
0.797913 0.000916 0.215454
0.799042 0.000916 0.226471
0.800598 0.000916 0.234802
0.802185 0.000916 0.242737
0.803802 0.000916 0.249634
0.805634 0.000916 0.255554
0.807617 0.000916 0.260620
0.809692 0.000916 0.264984
0.811890 0.000916 0.268707
0.814148 0.000916 0.271820
0.816467 0.000916 0.274384
0.818909 0.000916 0.276550
0.821381 0.000916 0.278259
0.824005 0.000916 0.279633
0.826599 0.000916 0.280762
0.000000 0.030670 0.000000
0.001495 0.030457 0.000000
0.002991 0.030548 0.000000
0.005585 0.030579 0.000000
0.032898 0.030579 0.000000
0.090790 0.023529 0.011078
0.147186 0.017914 0.023285
0.203186 0.003601 0.038300
0.263702 0.001190 0.053284
0.329529 0.001190 0.069763
0.397003 0.001190 0.087616
0.462097 0.001190 0.104767
0.522766 0.001190 0.121277
0.581482 0.001190 0.136597
0.638885 0.001190 0.152802
0.696350 0.001190 0.170074
0.752197 0.001190 0.186310
0.797455 0.001190 0.201813
0.798676 0.001190 0.215149
0.799805 0.001190 0.226501
0.801361 0.001190 0.234833
0.802979 0.001190 0.242798
0.804596 0.001190 0.249695
0.806458 0.001190 0.255615
0.808441 0.001190 0.260681
0.810486 0.001190 0.265076
0.812683 0.001190 0.268768
0.814941 0.001190 0.271942
0.817261 0.001190 0.274536
0.819702 0.001190 0.276672
0.822205 0.001190 0.278412
0.824768 0.001190 0.279755
0.827393 0.001190 0.280884
0.000000 0.060120 0.000000
0.000916 0.060120 0.000000
0.002075 0.060089 0.000000
0.003357 0.060028 0.000000
0.004669 0.059814 0.000000
0.067047 0.061462 0.000000
0.139587 0.058838 0.011536
0.205811 0.045868 0.031097
0.272247 0.020844 0.046967
0.338348 0.006226 0.064636
0.394806 0.001495 0.085388
0.460297 0.001495 0.103058
0.521667 0.001495 0.119965
0.580872 0.001495 0.135437
0.638489 0.001495 0.151794
0.696320 0.001495 0.169373
0.752258 0.001495 0.185791
0.798279 0.001495 0.201324
0.799469 0.001495 0.214752
0.800598 0.001495 0.226074
0.802155 0.001495 0.234436
0.803802 0.001495 0.242432
0.805481 0.001495 0.249390
0.807312 0.001495 0.255371
0.809296 0.001495 0.260437
0.811340 0.001495 0.264832
0.813507 0.001495 0.268555
0.815796 0.001495 0.271698
0.818085 0.001495 0.274323
0.820557 0.001495 0.276489
0.823059 0.001495 0.278198
0.825623 0.001495 0.279602
0.828247 0.001495 0.280670
0.000000 0.094086 0.000000
0.000793 0.094269 0.000000
0.001617 0.094147 0.000000
0.002441 0.093964 0.000000
0.003235 0.093689 0.000000
0.004059 0.093079 0.000000
0.108521 0.097992 0.000000
0.193970 0.099701 0.008270
0.272339 0.091431 0.038818
0.344635 0.070648 0.062469
0.411499 0.014465 0.080383
0.473297 0.005890 0.099579
0.521729 0.002441 0.117401
0.579315 0.001801 0.133179
0.637146 0.001801 0.149750
0.695251 0.001801 0.167725
0.751343 0.001801 0.184418
0.799194 0.001801 0.200073
0.800323 0.001801 0.213654
0.801453 0.001801 0.225067
0.803070 0.001801 0.233521
0.804688 0.001801 0.241577
0.806396 0.001801 0.248627
0.808258 0.001801 0.254608
0.810242 0.001801 0.259735
0.812256 0.001801 0.264160
0.814453 0.001801 0.267914
0.816681 0.001801 0.271088
0.819031 0.001801 0.273712
0.821472 0.001801 0.275879
0.823944 0.001801 0.277618
0.826538 0.001801 0.279022
0.829163 0.001801 0.280121
0.000000 0.129486 0.000000
0.000641 0.129395 0.000000
0.001282 0.129333 0.000000
0.001923 0.129303 0.000000
0.002594 0.129211 0.000000
0.003204 0.129059 0.000000
0.003845 0.128418 0.000000
0.155304 0.139893 0.000000
0.256165 0.145844 0.002716
0.341461 0.140686 0.048462
0.419342 0.125916 0.076508
0.490143 0.098724 0.096893
0.551270 0.049957 0.112579
0.597656 0.008240 0.127686
0.648010 0.006714 0.145264
0.697418 0.004364 0.164062
0.746887 0.002106 0.181030
0.799316 0.002106 0.197021
0.801331 0.002106 0.211182
0.802460 0.002106 0.223236
0.804077 0.002106 0.231873
0.805664 0.002106 0.240051
0.807434 0.002106 0.247162
0.809296 0.002106 0.253265
0.811279 0.002106 0.258423
0.813293 0.002106 0.262909
0.815460 0.002106 0.266693
0.817719 0.002106 0.269897
0.820068 0.002106 0.272522
0.822510 0.002106 0.274719
0.825012 0.002106 0.276489
0.827576 0.002106 0.277924
0.830200 0.002106 0.279022
0.000000 0.166992 0.000000
0.000641 0.166992 0.000000
0.001282 0.167114 0.000000
0.002014 0.167328 0.000000
0.002747 0.167450 0.000000
0.003479 0.167664 0.000000
0.004211 0.167450 0.000000
0.032166 0.171539 0.000000
0.210815 0.185913 0.000000
0.319916 0.198303 0.002411
0.411133 0.192688 0.055908
0.490051 0.180939 0.086823
0.557098 0.162811 0.108521
0.618134 0.136749 0.125610
0.675995 0.100067 0.141144
0.729370 0.025635 0.154999
0.769226 0.010773 0.174133
0.815369 0.008514 0.193329
0.811829 0.005585 0.208038
0.804321 0.002625 0.219727
0.805298 0.002411 0.228668
0.806885 0.002411 0.237305
0.808594 0.002411 0.244659
0.810486 0.002411 0.250977
0.812439 0.002411 0.256378
0.814453 0.002411 0.260895
0.816620 0.002411 0.264740
0.818878 0.002411 0.267975
0.821198 0.002411 0.270630
0.823639 0.002411 0.272888
0.826141 0.002411 0.274658
0.828735 0.002411 0.276123
0.831329 0.002411 0.277252
0.000000 0.207825 0.000000
0.000397 0.208008 0.000000
0.000763 0.208221 0.000000
0.001160 0.208466 0.000000
0.001526 0.208649 0.000000
0.002167 0.208893 0.000000
0.002838 0.208801 0.000000
0.003632 0.207916 0.000000
0.092468 0.219849 0.000000
0.272308 0.236572 0.000000
0.384521 0.253387 0.002747
0.477509 0.249176 0.053040
0.552734 0.239807 0.092804
0.618744 0.226746 0.119690
0.680237 0.207367 0.139832
0.739807 0.185028 0.156921
0.796967 0.157074 0.172943
0.852966 0.108398 0.191040
0.865814 0.044769 0.204437
0.845490 0.013306 0.216583
0.829926 0.009644 0.226410
0.826569 0.008331 0.235321
0.824524 0.007294 0.242859
0.822906 0.006226 0.249237
0.821564 0.005249 0.254456
0.820831 0.004364 0.258698
0.819824 0.003296 0.261963
0.820312 0.002716 0.264832
0.822632 0.002716 0.267639
0.825073 0.002716 0.269928
0.827545 0.002716 0.271820
0.830109 0.002716 0.273376
0.832764 0.002716 0.274567
0.000000 0.250732 0.000000
0.000305 0.250916 0.000000
0.000610 0.251129 0.000000
0.000916 0.251282 0.000000
0.001190 0.251343 0.000000
0.001495 0.251587 0.000000
0.001801 0.251617 0.000000
0.002106 0.250946 0.000000
0.002411 0.249359 0.000000
0.145233 0.271301 0.000000
0.337158 0.291504 0.000000
0.446533 0.309204 0.001862
0.535919 0.310150 0.029114
0.609894 0.302887 0.092529
0.678040 0.292236 0.125519
0.741882 0.277283 0.151367
0.804016 0.260498 0.171600
0.863251 0.240509 0.189606
0.895538 0.217560 0.207520
0.891327 0.192627 0.223419
0.888397 0.169159 0.233093
0.885193 0.141388 0.240265
0.881897 0.106049 0.245483
0.878479 0.067108 0.249298
0.874298 0.030304 0.252747
0.867126 0.017456 0.256561
0.854523 0.012787 0.260803
0.844177 0.009705 0.263519
0.840027 0.007935 0.265778
0.841309 0.007599 0.268036
0.842468 0.007233 0.269775
0.843964 0.006897 0.271179
0.845581 0.006561 0.272278
0.000000 0.293396 0.002136
0.000305 0.293610 0.001862
0.000610 0.293762 0.001617
0.000916 0.293915 0.001373
0.001190 0.294067 0.001099
0.001495 0.294373 0.000854
0.001801 0.294464 0.000610
0.002106 0.293945 0.000366
0.002411 0.292603 0.000000
0.002747 0.290680 0.000000
0.201660 0.323761 0.000000
0.399811 0.346863 0.000000
0.500763 0.364014 0.000824
0.585449 0.369598 0.008118
0.664551 0.364777 0.086670
0.735168 0.356049 0.127930
0.801880 0.345642 0.158997
0.866150 0.333008 0.185150
0.919342 0.317413 0.206268
0.919678 0.300537 0.224213
0.917480 0.285431 0.236542
0.915497 0.271362 0.245789
0.913940 0.258118 0.254028
0.912842 0.245453 0.260712
0.912292 0.233337 0.266388
0.912140 0.222107 0.271210
0.912079 0.211670 0.274689
0.912445 0.202576 0.277466
0.913513 0.195923 0.279846
0.914703 0.189514 0.281677
0.915955 0.183197 0.282990
0.917450 0.177521 0.284027
0.919128 0.172638 0.284729
0.000000 0.332611 0.003052
0.000305 0.332855 0.002716
0.000610 0.333038 0.002380
0.000916 0.333221 0.002106
0.001190 0.333374 0.001831
0.001495 0.333649 0.001556
0.001801 0.333771 0.001312
0.002106 0.333374 0.001068
0.002411 0.332306 0.000793
0.002716 0.330750 0.000671
0.002991 0.328766 0.000458
0.267426 0.376221 0.000000
0.457825 0.397552 0.000000
0.551788 0.416412 0.000000
0.632263 0.423584 0.002319
0.712341 0.423157 0.063751
0.787170 0.417114 0.127167
0.857391 0.408081 0.165771
0.923523 0.398041 0.195374
0.940552 0.385651 0.220184
0.940979 0.373718 0.237396
0.941254 0.363403 0.248566
0.941376 0.353851 0.257629
0.941315 0.345093 0.265045
0.941376 0.337128 0.271301
0.941437 0.329742 0.276489
0.941895 0.323090 0.280823
0.942719 0.317657 0.284332
0.944183 0.313934 0.287415
0.945770 0.310333 0.289856
0.947479 0.306824 0.291779
0.949371 0.303864 0.293243
0.951385 0.301056 0.294403
0.000000 0.370697 0.004059
0.000305 0.370880 0.003601
0.000610 0.371094 0.003174
0.000916 0.371277 0.002747
0.001190 0.371429 0.002380
0.001495 0.371796 0.002075
0.001801 0.371918 0.001709
0.002106 0.371674 0.001343
0.002411 0.370758 0.000977
0.002716 0.369415 0.000671
0.002991 0.367645 0.000580
0.082306 0.388245 0.000000
0.359741 0.430725 0.000000
0.511780 0.446930 0.000000
0.600067 0.464752 0.000000
0.677094 0.476776 0.000549
0.759735 0.477448 0.019562
0.836975 0.474426 0.120728
0.909576 0.466278 0.166779
0.953705 0.456604 0.201935
0.955658 0.447327 0.226318
0.957031 0.439301 0.242645
0.958618 0.432129 0.254730
0.960236 0.425262 0.264374
0.961792 0.418854 0.272156
0.963318 0.413025 0.278473
0.964813 0.407898 0.283508
0.966522 0.403595 0.287598
0.968567 0.400787 0.290955
0.970703 0.398132 0.293671
0.972778 0.395447 0.295807
0.975006 0.393127 0.297516
0.977234 0.391052 0.298645
0.000000 0.408020 0.004974
0.000305 0.408173 0.004486
0.000610 0.408386 0.003967
0.000916 0.408539 0.003510
0.001190 0.408691 0.003082
0.001495 0.408997 0.002655
0.001801 0.409180 0.002258
0.002106 0.408875 0.001831
0.002411 0.408142 0.001465
0.002716 0.406921 0.001312
0.002991 0.405426 0.001129
0.003296 0.403503 0.000977
0.143982 0.432953 0.000000
0.425293 0.479889 0.000000
0.562347 0.493866 0.000000
0.645782 0.512848 0.000000
0.723358 0.527344 0.000000
0.806488 0.529785 0.010376
0.886902 0.527008 0.111115
0.957153 0.520142 0.167938
0.964661 0.512390 0.200592
0.967010 0.505432 0.223816
0.969543 0.499542 0.239655
0.971954 0.494232 0.252472
0.974396 0.489227 0.262848
0.976715 0.484741 0.271301
0.978973 0.480682 0.278107
0.981293 0.477325 0.283447
0.983826 0.475250 0.287750
0.986420 0.473114 0.291229
0.988983 0.471039 0.293823
0.991638 0.469238 0.295898
0.994293 0.467743 0.297455
0.000000 0.444244 0.005859
0.000305 0.444427 0.005249
0.000610 0.444580 0.004639
0.000916 0.444733 0.004150
0.001190 0.444916 0.003632
0.001495 0.445221 0.003143
0.001801 0.445404 0.002625
0.002106 0.445160 0.002106
0.002411 0.444427 0.001587
0.002716 0.443451 0.001312
0.002991 0.442078 0.001068
0.003296 0.440369 0.000824
0.003601 0.438446 0.000580
0.213440 0.479462 0.000000
0.483459 0.527130 0.000000
0.609436 0.539154 0.000000
0.689972 0.558594 0.000000
0.768494 0.575104 0.000000
0.849426 0.580841 0.005341
0.935699 0.577728 0.092682
0.969910 0.572235 0.159851
0.972809 0.566467 0.193695
0.975342 0.561737 0.213287
0.977936 0.557159 0.228882
0.980408 0.552917 0.241669
0.982513 0.548859 0.252045
0.985077 0.545349 0.260468
0.987305 0.542450 0.267303
0.989624 0.540619 0.272583
0.992004 0.538879 0.276855
0.994354 0.537292 0.280151
0.997101 0.535950 0.282715
0.999756 0.534882 0.284607
0.000000 0.479553 0.007324
0.000305 0.479736 0.006622
0.000610 0.479919 0.006012
0.000916 0.480103 0.005432
0.001190 0.480255 0.004791
0.001495 0.480621 0.004211
0.001801 0.480804 0.003601
0.002106 0.480621 0.002960
0.002411 0.479980 0.002350
0.002716 0.479034 0.001923
0.002991 0.477814 0.001587
0.003296 0.476257 0.001251
0.003601 0.474487 0.000946
0.011963 0.482056 0.000000
0.316650 0.535095 0.000000
0.536774 0.572845 0.000000
0.652771 0.582367 0.000000
0.732330 0.603607 0.000000
0.810486 0.620544 0.000000
0.891693 0.628876 0.000000
0.965363 0.627075 0.050140
0.974487 0.622437 0.141266
0.978455 0.618408 0.173920
0.981903 0.614685 0.195831
0.984528 0.611359 0.212128
0.986267 0.608307 0.224548
0.988129 0.605591 0.234467
0.990112 0.603363 0.242310
0.992096 0.602234 0.248199
0.994080 0.601044 0.252930
0.995941 0.599823 0.256653
0.997864 0.598785 0.259521
1.000000 0.597839 0.261688
0.000000 0.514069 0.009979
0.000305 0.514252 0.009216
0.000610 0.514435 0.008423
0.000916 0.514648 0.007660
0.001190 0.514801 0.006866
0.001495 0.515167 0.006073
0.001801 0.515411 0.005310
0.002106 0.515259 0.004486
0.002411 0.514679 0.003723
0.002716 0.513855 0.003204
0.002991 0.512756 0.002808
0.003296 0.511383 0.002380
0.003601 0.509705 0.001984
0.003906 0.507935 0.001556
0.036346 0.523132 0.000000
0.398743 0.586212 0.000000
0.585571 0.616486 0.000000
0.693909 0.624573 0.004608
0.773041 0.646606 0.000000
0.852936 0.665680 0.000000
0.930847 0.674896 0.000000
0.969604 0.673889 0.007751
0.976990 0.671570 0.087708
0.981079 0.668793 0.135773
0.984436 0.665985 0.162811
0.986816 0.663574 0.182007
0.989136 0.661591 0.195953
0.991211 0.659943 0.206635
0.992920 0.659210 0.214264
0.994720 0.658478 0.220215
0.996490 0.657684 0.224854
0.998230 0.656952 0.228394
1.000000 0.656342 0.230957
0.000000 0.548218 0.011932
0.000305 0.548401 0.010956
0.000610 0.548615 0.010010
0.000916 0.548767 0.009064
0.001190 0.548920 0.008087
0.001495 0.549255 0.007172
0.001801 0.549530 0.006226
0.002106 0.549347 0.005310
0.002411 0.548767 0.004547
0.002716 0.548035 0.004059
0.002991 0.547089 0.003723
0.003296 0.545837 0.003387
0.003601 0.544342 0.002991
0.003906 0.542694 0.002502
0.004211 0.540863 0.001984
0.058563 0.560913 0.000000
0.464386 0.634552 0.000000
0.628937 0.658752 0.000000
0.731628 0.665619 0.016724
0.813446 0.688568 0.000000
0.888550 0.708466 0.000000
0.955933 0.719727 0.000000
0.967255 0.718201 0.000000
0.973724 0.715668 0.004974
0.980438 0.714203 0.040955
0.984283 0.713379 0.097137
0.987274 0.712402 0.127686
0.989746 0.711731 0.147064
0.991821 0.711426 0.159851
0.994019 0.710999 0.169495
0.996002 0.710541 0.176575
0.997986 0.710083 0.181580
0.999908 0.709717 0.185272
0.000000 0.582642 0.013855
0.000305 0.582825 0.012787
0.000610 0.583008 0.011749
0.000916 0.583221 0.010742
0.001190 0.583344 0.009674
0.001495 0.583649 0.008667
0.001801 0.583923 0.007690
0.002106 0.583740 0.006714
0.002411 0.583221 0.005768
0.002716 0.582489 0.005096
0.002991 0.581665 0.004639
0.003296 0.580505 0.004120
0.003601 0.579102 0.003632
0.003906 0.577576 0.003143
0.004211 0.575928 0.002625
0.004517 0.574097 0.002106
0.150574 0.609894 0.000000
0.517334 0.679688 0.000000
0.667145 0.700317 0.001282
0.767975 0.706116 0.031738
0.844849 0.727570 0.000641
0.913208 0.749359 0.000000
0.960724 0.760193 0.000000
0.967316 0.759369 0.000000
0.970398 0.757965 0.000000
0.973083 0.756775 0.000000
0.976807 0.755615 0.001404
0.982239 0.754608 0.004852
0.987152 0.754547 0.029236
0.990631 0.754517 0.050842
0.993591 0.754517 0.070923
0.996368 0.754456 0.086700
0.999084 0.754395 0.098602
0.000000 0.613190 0.012817
0.000305 0.613373 0.011963
0.000610 0.613586 0.011078
0.000916 0.613800 0.010254
0.001190 0.613953 0.009460
0.001495 0.614288 0.008698
0.001801 0.614471 0.007935
0.002106 0.614410 0.007141
0.002411 0.613983 0.006317
0.002716 0.613403 0.005676
0.002991 0.612762 0.005188
0.003296 0.611969 0.004852
0.003601 0.610901 0.004456
0.003906 0.609650 0.004120
0.004211 0.608307 0.003784
0.004517 0.606812 0.003357
0.006134 0.607086 0.001923
0.306122 0.671204 0.000000
0.572632 0.722839 0.000000
0.708588 0.738953 0.013306
0.800507 0.743835 0.044983
0.867432 0.761902 0.001831
0.929352 0.784607 0.000000
0.962250 0.793396 0.000000
0.966339 0.793030 0.000000
0.969147 0.792603 0.000000
0.971985 0.792297 0.000000
0.974701 0.792145 0.000000
0.977386 0.792358 0.000000
0.980072 0.792542 0.000000
0.982758 0.792725 0.000000
0.985413 0.792969 0.000000
0.988068 0.793213 0.000000
0.000000 0.641022 0.016632
0.000305 0.641235 0.015594
0.000610 0.641449 0.014496
0.000916 0.641663 0.013489
0.001190 0.641907 0.012421
0.001495 0.642212 0.011383
0.001801 0.642487 0.010345
0.002106 0.642487 0.009369
0.002411 0.642090 0.008484
0.002716 0.641602 0.007751
0.002991 0.641022 0.007172
0.003296 0.640350 0.006592
0.003601 0.639526 0.005981
0.003906 0.638458 0.005463
0.004211 0.637299 0.004944
0.004517 0.635956 0.004456
0.004822 0.634491 0.003967
0.005585 0.633514 0.003235
0.430664 0.727509 0.000000
0.635925 0.762115 0.000000
0.753937 0.772797 0.034485
0.827637 0.775391 0.052582
0.888367 0.791290 0.006561
0.941376 0.811737 0.000000
0.961700 0.817902 0.000000
0.964783 0.817688 0.000000
0.967773 0.817657 0.000000
0.970734 0.817810 0.000000
0.973572 0.818359 0.000000
0.976471 0.818878 0.000000
0.979340 0.819336 0.000000
0.982056 0.819733 0.000000
0.984741 0.820190 0.000000
0.000000 0.665314 0.018677
0.000305 0.665497 0.018372
0.000610 0.665771 0.017578
0.000916 0.665985 0.016785
0.001190 0.666260 0.015991
0.001495 0.666595 0.015228
0.001801 0.666901 0.014465
0.002106 0.666962 0.013580
0.002411 0.666748 0.012665
0.002716 0.666443 0.011688
0.002991 0.666046 0.010895
0.003296 0.665497 0.010040
0.003601 0.664886 0.009155
0.003906 0.664032 0.008240
0.004211 0.663025 0.007263
0.004517 0.661835 0.006531
0.004822 0.660461 0.005798
0.005096 0.658997 0.005066
0.130737 0.696564 0.000000
0.542969 0.775299 0.000000
0.698456 0.796661 0.014191
0.786407 0.801910 0.046234
0.852356 0.803864 0.056702
0.903839 0.816467 0.013489
0.943817 0.832672 0.000000
0.959106 0.838074 0.000000
0.962128 0.838470 0.000000
0.965118 0.838959 0.000000
0.968018 0.839691 0.000000
0.971008 0.840332 0.000000
0.973907 0.841064 0.000000
0.976868 0.841766 0.000000
0.979767 0.842560 0.000000
0.000000 0.678986 0.019745
0.000305 0.679352 0.019409
0.000610 0.679749 0.019043
0.000916 0.680115 0.018707
0.001190 0.680450 0.018372
0.001495 0.680817 0.018036
0.001801 0.681183 0.017700
0.002106 0.681519 0.017334
0.002411 0.681885 0.016693
0.002716 0.682251 0.015778
0.002991 0.682678 0.014740
0.003296 0.683044 0.013702
0.003601 0.683441 0.012695
0.003906 0.683777 0.011658
0.004211 0.684113 0.010590
0.004517 0.683838 0.009399
0.004822 0.682617 0.008453
0.005096 0.681152 0.007599
0.005402 0.679596 0.006775
0.413879 0.772583 0.000000
0.637665 0.813629 0.000214
0.742218 0.823883 0.033295
0.818604 0.826447 0.054108
0.872742 0.828278 0.059082
0.916473 0.838318 0.022125
0.945831 0.849976 0.001190
0.957184 0.854462 0.000549
0.960052 0.855133 0.000305
0.962830 0.856049 0.000092
0.965698 0.856934 0.000000
0.968567 0.857758 0.000000
0.971466 0.858673 0.000000
0.974304 0.859589 0.000000
0.000000 0.682220 0.020050
0.000305 0.682556 0.019684
0.000610 0.682922 0.019318
0.000916 0.683289 0.018982
0.001190 0.683685 0.018646
0.001495 0.684021 0.018311
0.001801 0.684387 0.017975
0.002106 0.684753 0.017609
0.002411 0.685120 0.017273
0.002716 0.685516 0.016541
0.002991 0.685944 0.015533
0.003296 0.686340 0.014496
0.003601 0.686768 0.013489
0.003906 0.687164 0.012482
0.004211 0.687622 0.011444
0.004517 0.687988 0.010437
0.004822 0.688202 0.009399
0.005096 0.688446 0.008453
0.005402 0.688660 0.007812
0.182037 0.737457 0.000000
0.567200 0.816620 0.000000
0.697662 0.835358 0.016144
0.784637 0.843140 0.045868
0.845398 0.845825 0.058685
0.890045 0.848450 0.060699
0.923645 0.855743 0.036133
0.949005 0.865540 0.009674
0.955902 0.868256 0.005127
0.958740 0.869202 0.003113
0.961487 0.870117 0.001404
0.964264 0.871063 0.001190
0.967041 0.872040 0.000977
0.969818 0.873047 0.000763
0.000000 0.684326 0.020355
0.000305 0.684692 0.019958
0.000610 0.685059 0.019562
0.000916 0.685394 0.019226
0.001190 0.685791 0.018921
0.001495 0.686157 0.018555
0.001801 0.686493 0.018219
0.002106 0.686859 0.017883
0.002411 0.687256 0.017548
0.002716 0.687622 0.016815
0.002991 0.688080 0.015869
0.003296 0.688477 0.014862
0.003601 0.688904 0.013824
0.003906 0.689301 0.012787
0.004211 0.689728 0.011780
0.004517 0.690125 0.010773
0.004822 0.690552 0.009735
0.005096 0.690948 0.008850
0.005402 0.691376 0.008270
0.052216 0.715637 0.000000
0.496124 0.805237 0.000000
0.658478 0.834839 0.002106
0.755188 0.846405 0.037781
0.821320 0.850861 0.053925
0.868713 0.853333 0.061829
0.905212 0.857239 0.059387
0.930176 0.864075 0.037750
0.951019 0.872375 0.012939
0.957092 0.875183 0.009247
0.959778 0.876373 0.007629
0.962372 0.877533 0.006012
0.965027 0.878723 0.004364
0.967621 0.879913 0.002808
0.000000 0.686462 0.020721
0.000305 0.686798 0.020294
0.000610 0.687195 0.019867
0.000916 0.687561 0.019501
0.001190 0.687897 0.019165
0.001495 0.688263 0.018829
0.001801 0.688660 0.018463
0.002106 0.688995 0.018127
0.002411 0.689362 0.017822
0.002716 0.689789 0.017059
0.002991 0.690186 0.016144
0.003296 0.690613 0.015198
0.003601 0.691040 0.014191
0.003906 0.691467 0.013153
0.004211 0.691864 0.012146
0.004517 0.692291 0.011108
0.004822 0.692688 0.010101
0.005096 0.693115 0.009186
0.005402 0.693512 0.008575
0.006409 0.694946 0.006592
0.407379 0.788483 0.000000
