public/avengers.cube
# Created by Benjamin (IWLTBAP): https://luts.iwltbap.com
# Copyright: (C) Copyright 2018 Triune Films and IWLTBAP SAS
# Cannot be resold, shared or otherwise redistributed
TITLE "Triune Films Cinematic LUTs V3 (Sony S-Log2)"
LUT_3D_SIZE 9
0.001434 0.000000 0.000702
0.053131 0.000000 0.010437
0.268341 0.000000 0.057404
0.527435 0.000000 0.123505
0.755951 0.000000 0.187653
0.798401 0.000000 0.234131
0.805328 0.000000 0.259918
0.814148 0.000000 0.273590
0.824127 0.000000 0.279999
0.000000 0.030670 0.000000
0.032898 0.030579 0.000000
0.263702 0.001190 0.053284
0.522766 0.001190 0.121277
0.752197 0.001190 0.186310
0.801361 0.001190 0.234833
0.808441 0.001190 0.260681
0.817261 0.001190 0.274536
0.827393 0.001190 0.280884
0.000000 0.166992 0.000000
0.002747 0.167450 0.000000
0.210815 0.185913 0.000000
0.557098 0.162811 0.108521
0.769226 0.010773 0.174133
0.805298 0.002411 0.228668
0.812439 0.002411 0.256378
0.821198 0.002411 0.270630
0.831329 0.002411 0.277252
0.000000 0.332611 0.003052
0.001190 0.333374 0.001831
0.002411 0.332306 0.000793
0.457825 0.397552 0.000000
0.787170 0.417114 0.127167
0.940979 0.373718 0.237396
0.941376 0.337128 0.271301
0.944183 0.313934 0.287415
0.951385 0.301056 0.294403
0.000000 0.479553 0.007324
0.001190 0.480255 0.004791
0.002411 0.479980 0.002350
0.003601 0.474487 0.000946
0.652771 0.582367 0.000000
0.965363 0.627075 0.050140
0.984528 0.611359 0.212128
0.992096 0.602234 0.248199
1.000000 0.597839 0.261688
0.000000 0.613190 0.012817
0.001190 0.613953 0.009460
0.002411 0.613983 0.006317
0.003601 0.610901 0.004456
0.006134 0.607086 0.001923
0.800507 0.743835 0.044983
0.966339 0.793030 0.000000
0.977386 0.792358 0.000000
0.988068 0.793213 0.000000
0.000000 0.682220 0.020050
0.001190 0.683685 0.018646
0.002411 0.685120 0.017273
0.003601 0.686768 0.013489
0.004822 0.688202 0.009399
0.567200 0.816620 0.000000
0.890045 0.848450 0.060699
0.958740 0.869202 0.003113
0.969818 0.873047 0.000763
0.000000 0.690674 0.021393
0.001190 0.692139 0.019714
0.002411 0.693604 0.018311
0.003601 0.695282 0.014771
0.004822 0.696930 0.010773
0.180298 0.746918 0.000000
0.826355 0.858398 0.054871
0.936646 0.871552 0.039154
0.966370 0.884369 0.007355
0.000000 0.699188 0.022766
0.001190 0.700623 0.021057
0.002411 0.702087 0.019348
0.003601 0.703766 0.015808
0.004822 0.705475 0.012054
0.015472 0.721344 0.000000
0.786835 0.865448 0.046814
0.916046 0.874023 0.060699
0.960724 0.887970 0.018646
0.001038 0.000000 0.039459
0.050659 0.000000 0.039276
0.264252 0.000000 0.072937
0.524261 0.000000 0.133942
0.753571 0.000000 0.197968
0.796509 0.000000 0.244202
0.803619 0.000000 0.269562
0.812012 0.000000 0.283295
0.821960 0.000000 0.289642
0.000000 0.028503 0.030609
0.031952 0.028687 0.032806
0.267548 0.005829 0.066162
0.519653 0.001190 0.129944
0.751251 0.001190 0.195068
0.799866 0.001190 0.243591
0.806915 0.001190 0.269226
0.815613 0.001190 0.282806
0.825867 0.001190 0.287872
0.000000 0.166718 0.004089
0.001434 0.167114 0.001892
0.210999 0.184021 0.002106
0.553772 0.154541 0.122314
0.788605 0.054626 0.183899
0.815765 0.006226 0.237488
0.811462 0.002411 0.261902
0.820282 0.002411 0.275757
0.830383 0.002411 0.282135
0.000000 0.332458 0.009003
0.001190 0.332916 0.005615
0.002411 0.331635 0.004700
0.458862 0.394653 0.002777
0.790436 0.392212 0.155975
0.929504 0.330719 0.250092
0.935608 0.322571 0.282440
0.945312 0.323090 0.299286
0.955536 0.320770 0.306854
0.000000 0.479797 0.010529
0.001190 0.479797 0.010010
0.002411 0.479370 0.007599
0.003601 0.473755 0.005219
0.655151 0.579285 0.015747
0.967316 0.609558 0.128876
0.982452 0.578369 0.246185
0.990387 0.560516 0.280914
0.999908 0.553345 0.293793
0.000000 0.613708 0.017731
0.001190 0.613586 0.017059
0.002411 0.613525 0.013855
0.003601 0.610382 0.010895
0.006470 0.607025 0.005951
0.804779 0.741302 0.059723
0.968109 0.785065 0.001190
0.979431 0.780975 0.001190
0.993866 0.779755 0.014771
0.000000 0.683350 0.024841
0.001190 0.684570 0.024261
0.002411 0.686035 0.022919
0.003601 0.687622 0.019989
0.004822 0.688873 0.015961
0.583160 0.820374 0.009949
0.894836 0.845734 0.076691
0.960480 0.865662 0.015717
0.971741 0.869110 0.011841
0.000000 0.691895 0.024994
0.001190 0.693176 0.025330
0.002411 0.694641 0.023926
0.003601 0.696228 0.020721
0.004822 0.697906 0.016724
0.183594 0.750397 0.001190
0.835114 0.860016 0.074799
0.942017 0.874237 0.054260
0.967010 0.885071 0.033997
0.000000 0.700409 0.026337
0.001190 0.701691 0.026703
0.002411 0.703156 0.024994
0.003601 0.704742 0.021729
0.004822 0.706451 0.018036
0.015411 0.722473 0.001190
0.796234 0.867218 0.068146
0.923859 0.876099 0.076935
0.965454 0.890381 0.039429
0.000000 0.000702 0.188080
0.023743 0.000000 0.189636
0.249786 0.000000 0.182434
0.509094 0.000000 0.205505
0.742920 0.000000 0.252533
0.788300 0.000000 0.286255
0.795380 0.000000 0.304626
0.803864 0.000000 0.315369
0.813843 0.000000 0.320557
0.000000 0.007019 0.181305
0.012329 0.006714 0.182068
0.241455 0.001190 0.179596
0.488831 0.001190 0.197418
0.719147 0.001190 0.234711
0.796936 0.001190 0.260254
0.804932 0.001190 0.279053
0.813965 0.001190 0.290833
0.823944 0.001190 0.296631
0.000000 0.159882 0.152557
0.001190 0.159851 0.153076
0.185730 0.170380 0.173492
0.543121 0.175232 0.203583
0.788483 0.114014 0.241669
0.846039 0.014832 0.278107
0.814819 0.005585 0.294647
0.822571 0.005341 0.307037
0.833038 0.005402 0.312866
0.000000 0.329926 0.045135
0.001190 0.330383 0.043060
0.002411 0.329590 0.045197
0.443970 0.391296 0.140778
0.784332 0.391113 0.241638
0.939148 0.384644 0.302521
0.943207 0.368683 0.329865
0.949127 0.354279 0.344574
0.957703 0.345795 0.350891
0.000000 0.477905 0.013580
0.001190 0.478088 0.013123
0.002411 0.477539 0.012756
0.003601 0.471924 0.010376
0.653625 0.578796 0.059906
0.970276 0.607697 0.252594
0.983490 0.574463 0.317596
0.990723 0.561920 0.340149
0.999847 0.557617 0.348907
0.000000 0.612610 0.023315
0.001190 0.612640 0.022522
0.002411 0.612549 0.021393
0.003601 0.609528 0.018341
0.006409 0.606171 0.011658
0.803894 0.740845 0.077515
0.973419 0.786163 0.099945
0.988983 0.786011 0.209991
0.999268 0.784821 0.232574
0.000000 0.684448 0.029785
0.001190 0.685669 0.029205
0.002411 0.686920 0.028534
0.003601 0.688507 0.025574
0.004822 0.689545 0.022491
0.577118 0.819702 0.014709
0.894073 0.845734 0.094482
0.961090 0.865906 0.032257
0.972229 0.869263 0.018951
0.000000 0.693024 0.029785
0.001190 0.694305 0.030121
0.002411 0.695557 0.029541
0.003601 0.697144 0.026337
0.004822 0.698730 0.023224
0.150177 0.747742 0.002411
0.832581 0.860962 0.092316
0.941589 0.874695 0.079529
0.967468 0.885773 0.052917
0.000000 0.701630 0.029907
0.001190 0.702911 0.030273
0.002411 0.704193 0.030579
0.003601 0.705780 0.027344
0.004822 0.707397 0.023956
0.013672 0.721008 0.005707
0.792419 0.867981 0.086395
0.922638 0.876587 0.095886
0.966095 0.891052 0.066010
0.000000 0.000824 0.336609
0.005554 0.000000 0.340149
0.229126 0.000000 0.348114
0.489594 0.000000 0.345184
0.713593 0.000000 0.373291
0.762268 0.000000 0.394226
0.771729 0.000000 0.403931
0.781250 0.000000 0.410645
0.791504 0.000000 0.414368
0.000000 0.005310 0.339325
0.003571 0.004303 0.340759
0.224426 0.001190 0.349609
0.476868 0.001190 0.342224
0.685638 0.001190 0.359253
0.767212 0.001190 0.387482
0.776306 0.001190 0.398651
0.785553 0.001190 0.405823
0.795868 0.001190 0.409332
0.000000 0.076416 0.334717
0.001190 0.072021 0.338135
0.147339 0.056732 0.353973
0.467987 0.005768 0.342743
0.677704 0.002411 0.355438
0.771057 0.002411 0.385376
0.781586 0.002411 0.389984
0.792511 0.002411 0.390411
0.803802 0.002411 0.390228
0.000000 0.321075 0.305511
0.001190 0.320435 0.305939
0.002411 0.318970 0.307892
0.389282 0.364777 0.360321
0.756836 0.398895 0.405701
0.928680 0.402374 0.440002
0.936066 0.392639 0.451111
0.944580 0.386597 0.458008
0.955780 0.387909 0.462952
0.000000 0.487946 0.275085
0.001190 0.487885 0.273956
0.002411 0.487213 0.274933
0.003601 0.482483 0.285767
0.636902 0.585632 0.368439
0.966797 0.598236 0.438599
0.981689 0.598785 0.458008
0.990509 0.600403 0.467316
0.999908 0.599823 0.471527
0.000000 0.608978 0.080994
0.001190 0.608978 0.076904
0.002411 0.609070 0.077515
0.003601 0.611633 0.145660
0.006287 0.614044 0.205688
0.808136 0.758972 0.352356
0.982086 0.791962 0.395508
0.991760 0.785004 0.415924
1.000000 0.781433 0.424316
0.000000 0.685333 0.042847
0.001190 0.686554 0.040985
0.002411 0.687714 0.040314
0.003601 0.688934 0.038483
0.004822 0.689697 0.035339
0.559814 0.824982 0.197083
0.898743 0.863403 0.333984
0.972900 0.882538 0.354248
0.984924 0.885437 0.363403
0.000000 0.693939 0.043884
0.001190 0.695312 0.041107
0.002411 0.696533 0.040497
0.003601 0.698029 0.038910
0.004822 0.699615 0.035797
0.100067 0.740601 0.003601
0.830170 0.874146 0.256012
0.948120 0.892303 0.308868
0.977264 0.903229 0.319489
0.000000 0.702545 0.043884
0.001190 0.703918 0.041107
0.002411 0.705200 0.041412
0.003601 0.706696 0.039948
0.004822 0.708282 0.036530
0.011536 0.718597 0.016693
0.787903 0.877411 0.226959
0.925842 0.891724 0.273468
0.973450 0.905823 0.292694
0.000000 0.000671 0.464355
0.003998 0.000122 0.466614
0.206299 0.000000 0.495758
0.484863 0.000000 0.494385
0.707886 0.000000 0.505768
0.751831 0.000000 0.516449
0.761047 0.000000 0.521912
0.769501 0.000000 0.525452
0.777985 0.000000 0.526855
0.000000 0.004028 0.468109
0.001190 0.002991 0.469543
0.198853 0.001190 0.498871
0.484283 0.001190 0.494019
0.695618 0.001190 0.503754
0.753418 0.001190 0.511017
0.762787 0.001190 0.509674
0.771271 0.001190 0.511810
0.779663 0.001190 0.513062
0.000000 0.007812 0.470184
0.001190 0.006805 0.472107
0.106201 0.002411 0.501526
0.458130 0.002411 0.491882
0.685181 0.002411 0.498596
0.755951 0.002411 0.504059
0.765381 0.002411 0.507965
0.773834 0.002411 0.512238
0.782043 0.002411 0.513824
0.000000 0.287140 0.458069
0.001190 0.284515 0.459167
0.002411 0.282257 0.461426
0.336700 0.297974 0.516937
0.703461 0.275848 0.538452
0.855164 0.253510 0.552948
0.852997 0.202545 0.551727
0.855530 0.167877 0.549652
0.862579 0.150909 0.548370
0.000000 0.481323 0.459717
0.001190 0.480438 0.459808
0.002411 0.479858 0.460663
0.003601 0.473480 0.463531
0.597626 0.569244 0.556854
0.945526 0.607849 0.606812
0.967499 0.608002 0.615601
0.977783 0.607910 0.620728
0.988739 0.609711 0.624756
0.000000 0.640350 0.440643
0.001190 0.640442 0.440796
0.002411 0.640137 0.441467
0.003601 0.637512 0.445129
0.006134 0.633850 0.457001
0.802734 0.767334 0.563446
0.984680 0.784668 0.601746
0.992645 0.775848 0.609161
1.000000 0.773468 0.611389
0.000000 0.724457 0.390808
0.001190 0.725342 0.392395
0.002411 0.726227 0.393860
0.003601 0.727509 0.397644
0.004822 0.728119 0.410522
0.532837 0.836151 0.479980
0.901642 0.876923 0.535248
0.978882 0.892212 0.548340
0.989929 0.893463 0.551636
0.000000 0.730164 0.356964
0.001190 0.731018 0.356659
0.002411 0.731873 0.356812
0.003601 0.733337 0.360504
0.004822 0.736420 0.373352
0.028687 0.768890 0.388367
0.826202 0.901825 0.497284
0.952698 0.912994 0.518188
0.981720 0.921967 0.524017
0.000000 0.734741 0.335236
0.001190 0.735718 0.332275
0.002411 0.736664 0.330566
0.003601 0.738190 0.333496
0.004822 0.740845 0.344543
0.009369 0.751251 0.374786
0.779266 0.907196 0.484711
0.929718 0.917175 0.509125
0.978027 0.927094 0.516022
0.000000 0.001434 0.570038
0.001190 0.001068 0.570160
0.181519 0.000000 0.609436
0.476562 0.000000 0.614868
0.709717 0.000000 0.622253
0.757538 0.000000 0.631592
0.766785 0.000000 0.638245
0.776001 0.000000 0.642426
0.784943 0.000000 0.644348
0.000000 0.004303 0.578308
0.001190 0.003998 0.578949
0.171448 0.001190 0.615814
0.475220 0.001190 0.618561
0.711060 0.001190 0.625031
0.759552 0.001190 0.635010
0.768860 0.001190 0.639496
0.777893 0.001190 0.641296
0.786438 0.001190 0.642639
0.000000 0.007019 0.584900
0.001190 0.006714 0.585602
0.054962 0.002411 0.617004
0.445618 0.002411 0.620056
0.698425 0.002411 0.625092
0.761780 0.002411 0.635040
0.771118 0.002411 0.639038
0.779846 0.002411 0.641052
0.787903 0.002411 0.640259
0.000000 0.219788 0.592957
0.001190 0.212463 0.596527
0.002411 0.206604 0.602417
0.290924 0.178864 0.641418
0.662811 0.021484 0.656616
0.779572 0.009949 0.638855
0.784668 0.008423 0.636963
0.787994 0.006622 0.631958
0.794281 0.005737 0.629608
0.000000 0.452026 0.593018
0.001190 0.448883 0.593262
0.002411 0.447540 0.594330
0.003601 0.439941 0.596771
0.561096 0.520477 0.706451
0.907776 0.521667 0.737274
0.924957 0.514832 0.738098
0.932617 0.505432 0.739624
0.941620 0.501373 0.740601
0.000000 0.632202 0.602112
0.001190 0.631012 0.602478
0.002411 0.630859 0.603485
0.003601 0.627472 0.605530
0.006042 0.621582 0.612274
0.787415 0.760559 0.742004
0.971252 0.775116 0.767578
0.981506 0.774994 0.769440
0.992249 0.775391 0.770996
0.000000 0.734558 0.586273
0.001190 0.735229 0.587646
0.002411 0.735657 0.588074
0.003601 0.735168 0.589325
0.004822 0.732513 0.593689
0.517639 0.833984 0.672882
0.901001 0.882385 0.730621
0.983948 0.895355 0.748718
0.994385 0.894043 0.751556
0.000000 0.756836 0.572540
0.001190 0.757599 0.573212
0.002411 0.758331 0.572906
0.003601 0.759338 0.573364
0.004822 0.760620 0.577148
0.019043 0.784393 0.592590
0.820251 0.925262 0.701111
0.952972 0.936615 0.711243
0.983551 0.943634 0.713806
0.000000 0.764313 0.562439
0.001190 0.765045 0.562500
0.002411 0.765778 0.561646
0.003601 0.766754 0.561157
0.004822 0.768005 0.562958
0.007111 0.770996 0.570435
0.772339 0.927490 0.676056
0.928680 0.941010 0.691681
0.978943 0.947845 0.694946
0.000000 0.000977 0.632935
0.001190 0.000977 0.632965
0.163788 0.000000 0.675079
0.464966 0.000000 0.681549
0.707611 0.000000 0.689514
0.759308 0.000000 0.696991
0.768005 0.000000 0.699127
0.777313 0.000000 0.700134
0.786621 0.000000 0.700714
0.000000 0.004242 0.639984
0.001190 0.003510 0.640808
0.149292 0.001190 0.684021
0.463684 0.001190 0.686432
0.709778 0.001190 0.692413
0.761536 0.001190 0.699951
0.770172 0.001190 0.701447
0.778870 0.001190 0.702728
0.788208 0.001190 0.702545
0.000000 0.007233 0.645813
0.001190 0.006531 0.646667
0.033997 0.002411 0.674042
0.432617 0.002411 0.688324
0.695679 0.002411 0.693054
0.763550 0.002411 0.701111
0.772400 0.002411 0.703705
0.781067 0.002411 0.704346
0.789795 0.002411 0.703735
0.000000 0.132935 0.673645
0.001190 0.118378 0.675873
0.002411 0.107941 0.679352
0.266998 0.036469 0.705811
0.626495 0.003601 0.691040
0.766510 0.003601 0.697876
0.775177 0.003601 0.703217
0.783234 0.003601 0.705017
0.791962 0.003601 0.704773
0.000000 0.428986 0.668304
0.001190 0.424957 0.670013
0.002411 0.423126 0.672241
0.003601 0.413849 0.676666
0.540527 0.484680 0.789368
0.895569 0.469421 0.819244
0.905060 0.441193 0.819519
0.916016 0.446777 0.823914
0.925232 0.445099 0.823669
0.000000 0.615021 0.681122
0.001190 0.612823 0.681915
0.002411 0.612762 0.683502
0.003601 0.609283 0.686584
0.006042 0.603058 0.693634
0.783539 0.740173 0.854004
0.955750 0.732513 0.868561
0.966064 0.731934 0.871246
0.976227 0.728790 0.871246
0.000000 0.722992 0.686615
0.001190 0.722565 0.687683
0.002411 0.723419 0.689209
0.003601 0.723022 0.692688
0.004822 0.718903 0.697418
0.505188 0.821350 0.795349
0.896027 0.876709 0.860260
0.976929 0.886963 0.874176
0.987244 0.888489 0.876312
0.000000 0.763245 0.684906
0.001190 0.764526 0.686462
0.002411 0.765717 0.687012
0.003601 0.766998 0.688660
0.004822 0.768402 0.692627
0.016388 0.781982 0.708740
0.818329 0.933411 0.844055
0.953369 0.940643 0.857422
0.985718 0.945984 0.866089
0.000000 0.772186 0.680298
0.001190 0.773376 0.681610
0.002411 0.774536 0.681702
0.003601 0.775909 0.682800
0.004822 0.777313 0.685730
0.006012 0.778687 0.692078
0.766388 0.945404 0.825592
0.927673 0.958313 0.844513
0.977844 0.962036 0.850494
0.000000 0.001801 0.663910
0.001190 0.001465 0.663910
0.147980 0.000000 0.711823
0.459839 0.000000 0.708954
0.705933 0.000000 0.710388
0.760315 0.000000 0.709961
0.769043 0.000000 0.709442
0.776978 0.000000 0.708527
0.786285 0.000000 0.708801
0.000000 0.004700 0.670868
0.001190 0.003693 0.671936
0.135773 0.001190 0.716980
0.458832 0.001190 0.713470
0.708649 0.001190 0.712646
0.761780 0.001190 0.711884
0.770508 0.001190 0.711365
0.778320 0.001190 0.710236
0.787628 0.001190 0.710510
0.000000 0.007904 0.677948
0.001190 0.006897 0.678986
0.030334 0.002411 0.700623
0.427460 0.002411 0.717010
0.694733 0.002411 0.715729
0.763733 0.002411 0.714172
0.772675 0.002411 0.713715
0.780426 0.002411 0.712555
0.789215 0.002411 0.712250
0.000000 0.052246 0.717285
0.001190 0.019745 0.698212
0.002411 0.013214 0.693817
0.260315 0.003601 0.726227
0.624512 0.003601 0.721008
0.766083 0.003601 0.716736
0.775116 0.003601 0.716370
0.783173 0.003601 0.715515
0.791840 0.003601 0.715149
0.000000 0.414917 0.710266
0.001190 0.410034 0.711548
0.002411 0.407867 0.713684
0.003601 0.397797 0.718445
0.530426 0.465271 0.828613
0.887939 0.441650 0.849426
0.894989 0.402649 0.839020
0.900574 0.386963 0.834808
0.911285 0.390656 0.835541
0.000000 0.606659 0.717865
0.001190 0.604279 0.718781
0.002411 0.604370 0.720398
0.003601 0.600708 0.723663
0.006042 0.594116 0.731354
0.778412 0.731903 0.902344
0.953247 0.719940 0.914551
0.962769 0.711914 0.914673
0.973419 0.713104 0.915070
0.000000 0.716705 0.724884
0.001190 0.715576 0.725830
0.002411 0.716339 0.727417
0.003601 0.715332 0.730865
0.004822 0.710846 0.736359
0.499176 0.815063 0.846313
0.898041 0.869598 0.919617
0.971802 0.866882 0.925568
0.981842 0.866516 0.926605
0.000000 0.762878 0.727020
0.001190 0.763153 0.727905
0.002411 0.764099 0.729248
0.003601 0.764404 0.732422
0.004822 0.763611 0.737701
0.014832 0.771942 0.756989
0.814301 0.931030 0.908997
0.951172 0.938446 0.924408
0.981598 0.943207 0.929352
0.000000 0.771698 0.725800
0.001190 0.772827 0.727539
0.002411 0.774017 0.728668
0.003601 0.775208 0.731842
0.004822 0.776306 0.736877
0.006012 0.777466 0.745331
0.764771 0.951965 0.896729
0.927948 0.965881 0.917542
0.974854 0.968262 0.924530
0.000000 0.002136 0.671509
0.001190 0.001801 0.671509
0.142517 0.000000 0.720551
0.457245 0.000000 0.717743
0.704468 0.000000 0.718109
0.760956 0.000000 0.718109
0.770142 0.000000 0.718109
0.778046 0.000000 0.717163
0.785950 0.000000 0.716217
0.000000 0.005035 0.678467
0.001190 0.003998 0.679535
0.131836 0.001190 0.725250
0.457123 0.001190 0.722260
0.707275 0.001190 0.720276
0.762390 0.001190 0.720032
0.771576 0.001190 0.719971
0.779388 0.001190 0.718872
0.787323 0.001190 0.717926
0.000000 0.007935 0.685425
0.001190 0.006927 0.686493
0.028259 0.002411 0.707611
0.425171 0.002411 0.723541
0.693542 0.002411 0.723907
0.764130 0.002411 0.722229
0.773071 0.002411 0.721924
0.780853 0.002411 0.720764
0.788635 0.002411 0.719635
0.000000 0.011749 0.692719
0.001190 0.010437 0.693909
0.002411 0.009399 0.694977
0.257416 0.003601 0.735077
0.623322 0.003601 0.729156
0.766479 0.003601 0.724823
0.775421 0.003601 0.724487
0.783508 0.003601 0.723633
0.791290 0.003601 0.722504
0.000000 0.407990 0.732971
0.001190 0.402710 0.732819
0.002411 0.400513 0.734314
0.003601 0.389893 0.735199
0.525757 0.454926 0.837341
0.884155 0.428375 0.855560
0.890930 0.386780 0.844818
0.895508 0.367218 0.839661
0.903442 0.360352 0.837646
0.000000 0.602539 0.738281
0.001190 0.600037 0.739258
0.002411 0.600189 0.740845
0.003601 0.596466 0.744324
0.006042 0.589661 0.752228
0.775146 0.727692 0.921387
0.952087 0.714233 0.925293
0.961639 0.704590 0.923309
0.971710 0.700897 0.922668
0.000000 0.714355 0.745239
0.001190 0.712952 0.746033
0.002411 0.713654 0.747589
0.003601 0.712128 0.750824
0.004822 0.707581 0.756165
0.495239 0.812500 0.871277
0.897095 0.867065 0.947784
0.971649 0.863647 0.949219
0.981598 0.861450 0.948944
0.000000 0.761322 0.747955
0.001190 0.761108 0.748718
0.002411 0.761993 0.750092
0.003601 0.762238 0.753235
0.004822 0.760681 0.758240
0.013580 0.766479 0.776031
0.811523 0.930542 0.936859
0.952942 0.936340 0.950806
0.981384 0.936554 0.953705
0.000000 0.771698 0.747192
0.001190 0.772675 0.748352
0.002411 0.773651 0.749573
0.003601 0.774780 0.752808
0.004822 0.775879 0.757812
0.006012 0.777100 0.766235
0.763458 0.953369 0.927338
0.927399 0.966034 0.948029
0.974609 0.967407 0.955658
