public/avengers.cube
# Created by Benjamin (IWLTBAP): https://luts.iwltbap.com
# Copyright: (C) Copyright 2018 Triune Films and IWLTBAP SAS
# Cannot be resold, shared or otherwise redistributed
TITLE "Triune Films Cinematic LUTs V3 (Sony S-Log2)"
LUT_3D_SIZE 5
0.001434 0.000000 0.000702
0.268341 0.000000 0.057404
0.755951 0.000000 0.187653
0.805328 0.000000 0.259918
0.824127 0.000000 0.279999
0.000000 0.166992 0.000000
0.210815 0.185913 0.000000
0.769226 0.010773 0.174133
0.812439 0.002411 0.256378
0.831329 0.002411 0.277252
0.000000 0.479553 0.007324
0.002411 0.479980 0.002350
0.652771 0.582367 0.000000
0.984528 0.611359 0.212128
1.000000 0.597839 0.261688
0.000000 0.682220 0.020050
0.002411 0.685120 0.017273
0.004822 0.688202 0.009399
0.890045 0.848450 0.060699
0.969818 0.873047 0.000763
0.000000 0.699188 0.022766
0.002411 0.702087 0.019348
0.004822 0.705475 0.012054
0.786835 0.865448 0.046814
0.960724 0.887970 0.018646
0.000000 0.000702 0.188080
0.249786 0.000000 0.182434
0.742920 0.000000 0.252533
0.795380 0.000000 0.304626
0.813843 0.000000 0.320557
0.000000 0.159882 0.152557
0.185730 0.170380 0.173492
0.788483 0.114014 0.241669
0.814819 0.005585 0.294647
0.833038 0.005402 0.312866
0.000000 0.477905 0.013580
0.002411 0.477539 0.012756
0.653625 0.578796 0.059906
0.983490 0.574463 0.317596
0.999847 0.557617 0.348907
0.000000 0.684448 0.029785
0.002411 0.686920 0.028534
0.004822 0.689545 0.022491
0.894073 0.845734 0.094482
0.972229 0.869263 0.018951
0.000000 0.701630 0.029907
0.002411 0.704193 0.030579
0.004822 0.707397 0.023956
0.792419 0.867981 0.086395
0.966095 0.891052 0.066010
0.000000 0.000671 0.464355
0.206299 0.000000 0.495758
0.707886 0.000000 0.505768
0.761047 0.000000 0.521912
0.777985 0.000000 0.526855
0.000000 0.007812 0.470184
0.106201 0.002411 0.501526
0.685181 0.002411 0.498596
0.765381 0.002411 0.507965
0.782043 0.002411 0.513824
0.000000 0.481323 0.459717
0.002411 0.479858 0.460663
0.597626 0.569244 0.556854
0.967499 0.608002 0.615601
0.988739 0.609711 0.624756
0.000000 0.724457 0.390808
0.002411 0.726227 0.393860
0.004822 0.728119 0.410522
0.901642 0.876923 0.535248
0.989929 0.893463 0.551636
0.000000 0.734741 0.335236
0.002411 0.736664 0.330566
0.004822 0.740845 0.344543
0.779266 0.907196 0.484711
0.978027 0.927094 0.516022
0.000000 0.000977 0.632935
0.163788 0.000000 0.675079
0.707611 0.000000 0.689514
0.768005 0.000000 0.699127
0.786621 0.000000 0.700714
0.000000 0.007233 0.645813
0.033997 0.002411 0.674042
0.695679 0.002411 0.693054
0.772400 0.002411 0.703705
0.789795 0.002411 0.703735
0.000000 0.428986 0.668304
0.002411 0.423126 0.672241
0.540527 0.484680 0.789368
0.905060 0.441193 0.819519
0.925232 0.445099 0.823669
0.000000 0.722992 0.686615
0.002411 0.723419 0.689209
0.004822 0.718903 0.697418
0.896027 0.876709 0.860260
0.987244 0.888489 0.876312
0.000000 0.772186 0.680298
0.002411 0.774536 0.681702
0.004822 0.777313 0.685730
0.766388 0.945404 0.825592
0.977844 0.962036 0.850494
0.000000 0.002136 0.671509
0.142517 0.000000 0.720551
0.704468 0.000000 0.718109
0.770142 0.000000 0.718109
0.785950 0.000000 0.716217
0.000000 0.007935 0.685425
0.028259 0.002411 0.707611
0.693542 0.002411 0.723907
0.773071 0.002411 0.721924
0.788635 0.002411 0.719635
0.000000 0.407990 0.732971
0.002411 0.400513 0.734314
0.525757 0.454926 0.837341
0.890930 0.386780 0.844818
0.903442 0.360352 0.837646
0.000000 0.714355 0.745239
0.002411 0.713654 0.747589
0.004822 0.707581 0.756165
0.897095 0.867065 0.947784
0.981598 0.861450 0.948944
0.000000 0.771698 0.747192
0.002411 0.773651 0.749573
0.004822 0.775879 0.757812
0.763458 0.953369 0.927338
0.974609 0.967407 0.955658
