public/LUT_CINEMATIC_NATURAL.cube
#Generated by Presets Store
#https://presetsstore.com
TITLE LUT_PRESETSSTORE_25
LUT_3D_SIZE 9
0.003922 0.027451 0.031373
0.043137 0.043137 0.031373
0.266667 0.113725 0.109804
0.286275 0.003922 0.003922
0.474510 0.003922 0.015686
0.647059 0.000000 0.000000
0.823529 0.078431 0.000000
0.905882 0.090196 0.003922
1.000000 0.325490 0.000000
0.270588 0.098039 0.062745
0.125490 0.164706 0.105882
0.227451 0.164706 0.090196
0.321569 0.105882 0.019608
0.423529 0.074510 0.000000
0.556863 0.082353 0.007843
0.698039 0.066667 0.000000
0.854902 0.168627 0.000000
1.000000 0.439216 0.000000
0.317647 0.172549 0.000000
0.168627 0.227451 0.086275
0.243137 0.235294 0.074510
0.341176 0.180392 0.023529
0.572549 0.239216 0.027451
0.698039 0.247059 0.007843
0.811765 0.258824 0.007843
0.921569 0.298039 0.007843
1.000000 0.533333 0.090196
0.313725 0.294118 0.054902
0.258824 0.415686 0.156863
0.450980 0.501961 0.207843
0.427451 0.380392 0.105882
0.592157 0.388235 0.082353
0.764706 0.419608 0.000000
0.898039 0.443137 0.007843
0.968627 0.439216 0.003922
0.996078 0.454902 0.000000
0.572549 0.600000 0.211765
0.564706 0.764706 0.427451
0.596078 0.741176 0.384314
0.729412 0.749020 0.364706
0.694118 0.607843 0.231373
0.764706 0.533333 0.176471
0.854902 0.545098 0.047059
0.996078 0.600000 0.003922
0.992157 0.737255 0.262745
0.717647 0.917647 0.639216
0.674510 0.898039 0.611765
0.768627 0.921569 0.631373
0.819608 0.894118 0.572549
0.874510 0.866667 0.478431
0.913725 0.811765 0.392157
0.945098 0.729412 0.305882
0.992157 0.725490 0.219608
1.000000 0.835294 0.415686
0.941176 0.945098 0.462745
0.815686 0.968627 0.752941
0.815686 0.933333 0.725490
0.874510 0.945098 0.713725
0.921569 0.949020 0.698039
0.952941 0.925490 0.619608
0.968627 0.866667 0.482353
0.996078 0.847059 0.427451
0.996078 0.945098 0.560784
0.976471 0.964706 0.768627
0.909804 0.988235 0.882353
0.913725 0.976471 0.874510
0.933333 0.976471 0.882353
0.933333 0.952941 0.835294
0.972549 0.968627 0.811765
0.992157 0.964706 0.768627
0.996078 0.925490 0.705882
1.000000 0.968627 0.792157
0.933333 0.949020 0.862745
0.886275 0.956863 0.898039
0.913725 0.960784 0.898039
0.964706 0.980392 0.941176
0.964706 0.984314 0.925490
0.984314 0.980392 0.933333
0.992157 0.964706 0.905882
0.992157 0.941176 0.866667
0.996078 0.925490 0.847059
0.019608 0.113725 0.086275
0.019608 0.101961 0.074510
0.098039 0.145098 0.062745
0.223529 0.137255 0.027451
0.352941 0.113725 0.000000
0.462745 0.141176 0.000000
0.568627 0.172549 0.000000
0.694118 0.200000 0.003922
0.929412 0.505882 0.007843
0.141176 0.172549 0.027451
0.015686 0.227451 0.082353
0.121569 0.258824 0.062745
0.254902 0.278431 0.058824
0.341176 0.235294 0.019608
0.396078 0.188235 0.003922
0.545098 0.231373 0.011765
0.705882 0.286275 0.003922
0.760784 0.490196 0.000000
0.305882 0.176471 0.047059
0.188235 0.262745 0.200000
0.196078 0.207843 0.109804
0.352941 0.215686 0.117647
0.490196 0.215686 0.098039
0.619608 0.223529 0.062745
0.733333 0.239216 0.011765
0.862745 0.274510 0.000000
1.000000 0.513725 0.168627
0.270588 0.254902 0.066667
0.223529 0.364706 0.200000
0.352941 0.423529 0.223529
0.368627 0.333333 0.137255
0.525490 0.364706 0.145098
0.768627 0.458824 0.164706
0.823529 0.419608 0.129412
0.894118 0.419608 0.039216
0.984314 0.431373 0.007843
0.564706 0.588235 0.250980
0.474510 0.682353 0.396078
0.584314 0.713725 0.415686
0.721569 0.749020 0.392157
0.682353 0.603922 0.254902
0.741176 0.560784 0.215686
0.901961 0.580392 0.176471
1.000000 0.666667 0.211765
1.000000 0.741176 0.321569
0.658824 0.874510 0.603922
0.674510 0.878431 0.619608
0.729412 0.886275 0.607843
0.854902 0.913725 0.607843
0.901961 0.894118 0.517647
0.878431 0.772549 0.380392
0.921569 0.705882 0.290196
0.992157 0.705882 0.235294
0.996078 0.792157 0.333333
0.933333 0.933333 0.447059
0.843137 0.976471 0.745098
0.847059 0.956863 0.756863
0.921569 0.996078 0.760784
0.921569 0.952941 0.682353
0.972549 0.956863 0.635294
0.984314 0.882353 0.490196
0.988235 0.800000 0.376471
1.000000 0.921569 0.552941
0.996078 0.976471 0.772549
0.874510 0.964706 0.862745
0.901961 0.972549 0.890196
0.909804 0.960784 0.854902
0.988235 0.976471 0.882353
0.996078 0.976471 0.827451
1.000000 0.941176 0.752941
0.992157 0.913725 0.721569
0.988235 0.917647 0.764706
0.937255 0.960784 0.874510
0.925490 0.964706 0.925490
0.929412 0.964706 0.937255
0.921569 0.941176 0.905882
0.925490 0.956863 0.909804
0.984314 0.972549 0.937255
0.980392 0.956863 0.905882
0.996078 0.956863 0.890196
0.996078 0.901961 0.850980
0.003922 0.098039 0.121569
0.000000 0.094118 0.121569
0.062745 0.082353 0.129412
0.266667 0.145098 0.168627
0.411765 0.149020 0.160784
0.458824 0.101961 0.094118
0.568627 0.149020 0.098039
0.635294 0.101961 0.015686
0.956863 0.541176 0.003922
0.180392 0.164706 0.031373
0.003922 0.172549 0.117647
0.125490 0.223529 0.176471
0.223529 0.188235 0.094118
0.400000 0.231373 0.137255
0.458824 0.196078 0.098039
0.560784 0.203922 0.074510
0.705882 0.243137 0.058824
0.823529 0.556863 0.035294
0.317647 0.184314 0.168627
0.117647 0.223529 0.219608
0.200000 0.254902 0.250980
0.301961 0.196078 0.200000
0.431373 0.192157 0.172549
0.615686 0.250980 0.203922
0.686275 0.215686 0.125490
0.874510 0.317647 0.168627
1.000000 0.521569 0.333333
0.274510 0.258824 0.129412
0.141176 0.305882 0.223529
0.266667 0.376471 0.290196
0.352941 0.337255 0.219608
0.505882 0.345098 0.219608
0.650980 0.388235 0.223529
0.815686 0.435294 0.243137
0.882353 0.411765 0.180392
0.996078 0.466667 0.156863
0.592157 0.603922 0.341176
0.494118 0.701961 0.509804
0.560784 0.733333 0.517647
0.639216 0.686275 0.439216
0.650980 0.584314 0.337255
0.756863 0.556863 0.305882
0.894118 0.603922 0.313725
0.960784 0.584314 0.235294
0.996078 0.709804 0.400000
0.670588 0.870588 0.678431
0.658824 0.870588 0.666667
0.662745 0.827451 0.611765
0.827451 0.917647 0.678431
0.894118 0.894118 0.615686
0.854902 0.768627 0.447059
0.925490 0.721569 0.396078
0.996078 0.737255 0.376471
0.996078 0.796078 0.470588
0.945098 0.964706 0.572549
0.792157 0.941176 0.756863
0.800000 0.945098 0.764706
0.862745 0.960784 0.764706
0.921569 0.952941 0.752941
0.937255 0.909804 0.647059
0.952941 0.847059 0.537255
0.996078 0.819608 0.462745
1.000000 0.905882 0.596078
0.960784 0.964706 0.815686
0.909804 0.984314 0.905882
0.917647 0.984314 0.913725
0.894118 0.964706 0.866667
0.964706 0.976471 0.890196
0.996078 0.976471 0.858824
1.000000 0.925490 0.768627
0.996078 0.921569 0.752941
1.000000 0.941176 0.811765
0.945098 0.960784 0.890196
0.929412 0.972549 0.937255
0.941176 0.976471 0.941176
0.929412 0.956863 0.917647
0.980392 0.980392 0.956863
0.941176 0.952941 0.894118
0.996078 1.000000 0.937255
0.976471 0.937255 0.854902
0.996078 0.952941 0.886275
0.000000 0.101961 0.156863
0.011765 0.121569 0.164706
0.074510 0.192157 0.227451
0.203922 0.160784 0.227451
0.360784 0.164706 0.211765
0.392157 0.145098 0.133333
0.494118 0.145098 0.145098
0.674510 0.215686 0.160784
0.917647 0.490196 0.270588
0.188235 0.172549 0.043137
0.027451 0.223529 0.200000
0.023529 0.223529 0.192157
0.176471 0.250980 0.196078
0.333333 0.274510 0.200000
0.364706 0.188235 0.098039
0.533333 0.254902 0.125490
0.698039 0.298039 0.125490
0.909804 0.603922 0.349020
0.321569 0.141176 0.270588
0.113725 0.219608 0.274510
0.141176 0.215686 0.282353
0.250980 0.137255 0.258824
0.415686 0.207843 0.294118
0.423529 0.121569 0.172549
0.650980 0.223529 0.262745
0.811765 0.286275 0.270588
0.988235 0.431373 0.403922
0.258824 0.282353 0.274510
0.196078 0.333333 0.333333
0.254902 0.360784 0.341176
0.286275 0.294118 0.286275
0.443137 0.333333 0.313725
0.611765 0.376471 0.345098
0.721569 0.384314 0.317647
0.803922 0.360784 0.278431
0.952941 0.423529 0.274510
0.470588 0.529412 0.407843
0.376471 0.584314 0.498039
0.403922 0.588235 0.486275
0.556863 0.643137 0.549020
0.615686 0.572549 0.447059
0.741176 0.584314 0.443137
0.890196 0.607843 0.439216
0.952941 0.584314 0.376471
1.000000 0.694118 0.501961
0.580392 0.835294 0.694118
0.568627 0.815686 0.666667
0.607843 0.815686 0.666667
0.725490 0.843137 0.701961
0.874510 0.905882 0.725490
0.858824 0.803922 0.580392
0.901961 0.741176 0.490196
1.000000 0.796078 0.525490
1.000000 0.854902 0.592157
0.909804 0.941176 0.639216
0.760784 0.925490 0.784314
0.800000 0.949020 0.823529
0.823529 0.929412 0.792157
0.945098 0.988235 0.850980
0.956863 0.949020 0.760784
0.956863 0.882353 0.635294
0.996078 0.847059 0.576471
0.996078 0.921569 0.670588
0.937255 0.933333 0.874510
0.901961 0.980392 0.952941
0.858824 0.952941 0.905882
0.894118 0.960784 0.909804
0.929412 0.952941 0.894118
0.960784 0.933333 0.862745
0.996078 0.945098 0.850980
1.000000 0.960784 0.874510
0.988235 0.976471 0.890196
0.921569 0.941176 0.901961
0.905882 0.964706 0.945098
0.937255 0.972549 0.952941
0.909804 0.956863 0.937255
0.921569 0.937255 0.909804
0.949020 0.956863 0.929412
0.968627 0.960784 0.909804
0.988235 0.960784 0.921569
0.996078 0.905882 0.874510
0.000000 0.203922 0.356863
0.000000 0.196078 0.356863
0.000000 0.207843 0.392157
0.192157 0.133333 0.380392
0.376471 0.078431 0.372549
0.470588 0.082353 0.329412
0.517647 0.027451 0.254902
0.545098 0.003922 0.172549
0.827451 0.443137 0.419608
0.223529 0.188235 0.168627
0.000000 0.247059 0.309804
0.113725 0.274510 0.333333
0.168627 0.227451 0.333333
0.345098 0.203922 0.352941
0.435294 0.188235 0.301961
0.431373 0.086275 0.172549
0.600000 0.192157 0.223529
0.768627 0.529412 0.431373
0.321569 0.133333 0.372549
0.137255 0.270588 0.384314
0.125490 0.235294 0.392157
0.286275 0.235294 0.435294
0.372549 0.133333 0.368627
0.407843 0.086275 0.294118
0.549020 0.086275 0.286275
0.745098 0.129412 0.317647
0.796078 0.235294 0.396078
0.215686 0.247059 0.278431
0.235294 0.411765 0.435294
0.290196 0.427451 0.466667
0.329412 0.376471 0.450980
0.396078 0.258824 0.368627
0.474510 0.254902 0.349020
0.596078 0.254902 0.321569
0.749020 0.333333 0.356863
0.917647 0.376471 0.360784
0.392157 0.458824 0.419608
0.384314 0.584314 0.564706
0.415686 0.580392 0.572549
0.482353 0.580392 0.576471
0.541176 0.545098 0.533333
0.709804 0.576471 0.568627
0.788235 0.533333 0.486275
0.913725 0.549020 0.474510
1.000000 0.690196 0.631373
0.588235 0.776471 0.717647
0.580392 0.756863 0.690196
0.592157 0.737255 0.686275
0.662745 0.803922 0.721569
0.784314 0.835294 0.756863
0.792157 0.772549 0.654902
0.945098 0.788235 0.678431
1.000000 0.776471 0.627451
1.000000 0.866667 0.741176
0.909804 0.964706 0.792157
0.721569 0.913725 0.800000
0.819608 0.996078 0.886275
0.772549 0.925490 0.827451
0.835294 0.901961 0.819608
0.917647 0.933333 0.831373
0.917647 0.854902 0.701961
0.988235 0.850980 0.670588
0.972549 0.878431 0.725490
0.882353 0.929412 0.854902
0.827451 0.917647 0.890196
0.886275 0.984314 0.952941
0.874510 0.964706 0.925490
0.921569 0.960784 0.933333
0.956863 0.964706 0.929412
0.996078 0.980392 0.909804
0.988235 0.992157 0.909804
0.996078 0.952941 0.913725
0.949020 0.956863 0.941176
0.882353 0.952941 0.929412
0.905882 0.964706 0.929412
0.890196 0.945098 0.909804
0.964706 0.984314 0.972549
0.952941 0.960784 0.937255
0.968627 0.964706 0.937255
0.988235 0.984314 0.937255
1.000000 0.976471 0.937255
0.007843 0.239216 0.388235
0.003922 0.250980 0.396078
0.000000 0.254902 0.411765
0.086275 0.223529 0.431373
0.286275 0.164706 0.439216
0.400000 0.074510 0.380392
0.474510 0.039216 0.305882
0.517647 0.003922 0.250980
0.572549 0.164706 0.321569
0.152941 0.184314 0.325490
0.003922 0.305882 0.368627
0.003922 0.247059 0.309804
0.176471 0.298039 0.360784
0.239216 0.262745 0.380392
0.356863 0.172549 0.337255
0.450980 0.164706 0.282353
0.564706 0.168627 0.270588
0.623529 0.360784 0.415686
0.274510 0.141176 0.474510
0.000000 0.223529 0.392157
0.035294 0.231373 0.439216
0.180392 0.203922 0.431373
0.317647 0.137255 0.450980
0.392157 0.035294 0.380392
0.525490 0.019608 0.376471
0.631373 0.003922 0.352941
0.627451 0.074510 0.423529
0.207843 0.215686 0.380392
0.294118 0.470588 0.568627
0.282353 0.435294 0.549020
0.262745 0.352941 0.486275
0.321569 0.250980 0.423529
0.431373 0.200000 0.411765
0.501961 0.164706 0.360784
0.560784 0.090196 0.290196
0.784314 0.149020 0.349020
0.392157 0.470588 0.509804
0.364706 0.576471 0.611765
0.482353 0.670588 0.713725
0.513725 0.639216 0.678431
0.513725 0.552941 0.627451
0.568627 0.427451 0.541176
0.643137 0.384314 0.490196
0.827451 0.443137 0.498039
0.925490 0.486275 0.541176
0.545098 0.768627 0.764706
0.525490 0.760784 0.749020
0.541176 0.741176 0.721569
0.627451 0.760784 0.764706
0.729412 0.819608 0.800000
0.705882 0.725490 0.721569
0.898039 0.780392 0.745098
1.000000 0.780392 0.729412
0.996078 0.843137 0.776471
0.843137 0.933333 0.839216
0.745098 0.898039 0.850980
0.717647 0.854902 0.807843
0.733333 0.854902 0.819608
0.788235 0.898039 0.847059
0.862745 0.925490 0.862745
0.909804 0.882353 0.784314
0.972549 0.854902 0.749020
0.988235 0.945098 0.839216
0.925490 0.980392 0.984314
0.866667 0.968627 0.960784
0.850980 0.941176 0.949020
0.905882 0.964706 0.984314
0.854902 0.890196 0.901961
0.952941 0.956863 0.972549
1.000000 0.952941 0.952941
1.000000 0.909804 0.909804
0.996078 0.929412 0.933333
0.937255 0.968627 0.968627
0.886275 0.952941 0.952941
0.909804 0.960784 0.956863
0.874510 0.933333 0.921569
0.933333 0.956863 0.956863
0.929412 0.949020 0.945098
0.952941 0.952941 0.945098
0.980392 0.949020 0.945098
0.996078 0.968627 0.956863
0.003922 0.278431 0.525490
0.000000 0.294118 0.552941
0.003922 0.262745 0.564706
0.094118 0.235294 0.584314
0.235294 0.125490 0.525490
0.411765 0.000000 0.529412
0.443137 0.003922 0.423529
0.525490 0.000000 0.376471
0.533333 0.094118 0.450980
0.098039 0.172549 0.431373
0.000000 0.301961 0.454902
0.023529 0.290196 0.474510
0.000000 0.235294 0.466667
0.203922 0.192157 0.482353
0.368627 0.149020 0.509804
0.482353 0.015686 0.439216
0.545098 0.003922 0.392157
0.462745 0.211765 0.450980
0.215686 0.133333 0.501961
0.003922 0.294118 0.533333
0.003922 0.211765 0.454902
0.137255 0.227451 0.501961
0.282353 0.176471 0.501961
0.419608 0.098039 0.521569
0.556863 0.003922 0.509804
0.678431 0.003922 0.501961
0.768627 0.003922 0.647059
0.239216 0.309804 0.482353
0.274510 0.478431 0.650980
0.301961 0.478431 0.654902
0.231373 0.352941 0.556863
0.317647 0.278431 0.529412
0.356863 0.160784 0.447059
0.549020 0.141176 0.517647
0.670588 0.086275 0.501961
0.768627 0.003922 0.454902
0.482353 0.596078 0.694118
0.443137 0.650980 0.745098
0.513725 0.701961 0.784314
0.521569 0.666667 0.792157
0.505882 0.564706 0.741176
0.509804 0.427451 0.639216
0.662745 0.345098 0.615686
0.705882 0.278431 0.517647
0.709804 0.266667 0.549020
0.560784 0.788235 0.831373
0.568627 0.803922 0.835294
0.576471 0.784314 0.815686
0.627451 0.800000 0.847059
0.690196 0.811765 0.847059
0.690196 0.752941 0.831373
0.776471 0.600000 0.752941
0.831373 0.513725 0.654902
0.870588 0.525490 0.662745
0.678431 0.784314 0.796078
0.639216 0.835294 0.839216
0.647059 0.835294 0.835294
0.694118 0.866667 0.862745
0.729412 0.854902 0.843137
0.831373 0.913725 0.913725
0.823529 0.827451 0.835294
0.960784 0.839216 0.843137
0.964706 0.886275 0.898039
0.858824 0.909804 0.933333
0.831373 0.956863 0.992157
0.843137 0.941176 0.972549
0.854902 0.952941 0.972549
0.894118 0.964706 0.976471
0.925490 0.972549 0.976471
0.941176 0.913725 0.976471
1.000000 0.886275 0.933333
1.000000 0.921569 0.960784
0.905882 0.960784 0.952941
0.878431 0.956863 0.960784
0.886275 0.960784 0.949020
0.921569 0.968627 0.976471
0.945098 0.980392 0.980392
0.941176 0.968627 0.960784
0.945098 0.956863 0.968627
0.956863 0.933333 0.925490
1.000000 0.960784 0.952941
0.003922 0.325490 0.560784
0.000000 0.309804 0.533333
0.000000 0.286275 0.509804
0.000000 0.223529 0.509804
0.164706 0.196078 0.545098
0.313725 0.125490 0.552941
0.447059 0.000000 0.549020
0.541176 0.000000 0.486275
0.545098 0.003922 0.513725
0.007843 0.231373 0.541176
0.000000 0.349020 0.517647
0.086275 0.376471 0.556863
0.109804 0.333333 0.525490
0.141176 0.266667 0.505882
0.262745 0.203922 0.494118
0.423529 0.074510 0.537255
0.509804 0.000000 0.454902
0.415686 0.141176 0.482353
0.152941 0.168627 0.533333
0.011765 0.349020 0.650980
0.011765 0.321569 0.615686
0.156863 0.286275 0.615686
0.341176 0.286275 0.670588
0.415686 0.152941 0.631373
0.541176 0.000000 0.623529
0.725490 0.003922 0.647059
0.682353 0.011765 0.698039
0.188235 0.266667 0.541176
0.317647 0.533333 0.721569
0.349020 0.525490 0.752941
0.286275 0.419608 0.674510
0.301961 0.321569 0.607843
0.411765 0.247059 0.619608
0.529412 0.098039 0.607843
0.666667 0.003922 0.623529
0.784314 0.003922 0.623529
0.517647 0.670588 0.866667
0.517647 0.749020 0.882353
0.529412 0.741176 0.890196
0.529412 0.698039 0.866667
0.494118 0.592157 0.811765
0.505882 0.466667 0.741176
0.521569 0.223529 0.615686
0.694118 0.149020 0.647059
0.749020 0.258824 0.694118
0.611765 0.823529 0.901961
0.635294 0.831373 0.921569
0.627451 0.819608 0.898039
0.647059 0.807843 0.894118
0.721569 0.839216 0.952941
0.682353 0.745098 0.913725
0.733333 0.596078 0.878431
0.870588 0.478431 0.827451
0.858824 0.490196 0.803922
0.729412 0.862745 0.905882
0.650980 0.850980 0.886275
0.670588 0.858824 0.890196
0.760784 0.929412 0.964706
0.764706 0.913725 0.945098
0.835294 0.945098 0.972549
0.866667 0.901961 0.984314
0.898039 0.694118 0.878431
0.913725 0.831373 0.945098
0.870588 0.921569 0.996078
0.882353 0.968627 0.996078
0.854902 0.956863 0.992157
0.870588 0.960784 1.000000
0.901961 0.972549 0.996078
0.870588 0.909804 1.000000
0.972549 0.878431 0.988235
1.000000 0.811765 0.992157
1.000000 0.870588 0.996078
0.913725 0.964706 0.996078
0.886275 0.964706 0.988235
0.937255 0.988235 0.996078
0.921569 0.980392 0.984314
0.952941 0.992157 0.988235
0.874510 0.929412 0.956863
0.968627 0.964706 0.996078
1.000000 0.945098 0.996078
0.996078 0.882353 0.960784
0.129412 0.400000 0.686275
0.133333 0.392157 0.682353
0.098039 0.337255 0.643137
0.258824 0.360784 0.694118
0.345098 0.313725 0.682353
0.380392 0.188235 0.631373
0.498039 0.000000 0.647059
0.596078 0.003922 0.627451
0.592157 0.101961 0.690196
0.129412 0.250980 0.584314
0.164706 0.411765 0.662745
0.200000 0.415686 0.682353
0.215686 0.360784 0.658824
0.258824 0.305882 0.623529
0.372549 0.250980 0.619608
0.411765 0.027451 0.560784
0.541176 0.000000 0.588235
0.552941 0.376471 0.752941
0.286275 0.298039 0.694118
0.266667 0.482353 0.796078
0.301961 0.490196 0.803922
0.376471 0.490196 0.839216
0.501961 0.474510 0.890196
0.537255 0.321569 0.823529
0.654902 0.027451 0.819608
0.815686 0.003922 0.854902
0.717647 0.003922 0.811765
0.325490 0.454902 0.756863
0.466667 0.643137 0.870588
0.458824 0.615686 0.862745
0.392157 0.533333 0.827451
0.462745 0.486275 0.843137
0.525490 0.415686 0.843137
0.576471 0.172549 0.737255
0.756863 0.000000 0.803922
0.949020 0.003922 0.854902
0.549020 0.741176 0.956863
0.596078 0.800000 0.960784
0.596078 0.768627 0.937255
0.611765 0.768627 0.976471
0.517647 0.619608 0.890196
0.545098 0.541176 0.866667
0.627451 0.380392 0.827451
0.674510 0.000000 0.717647
0.764706 0.160784 0.788235
0.686275 0.854902 0.960784
0.670588 0.843137 0.937255
0.701961 0.866667 0.964706
0.721569 0.874510 0.984314
0.694118 0.823529 0.964706
0.631373 0.709804 0.905882
0.701961 0.611765 0.905882
0.721569 0.325490 0.796078
0.756863 0.376471 0.807843
0.819608 0.925490 1.000000
0.733333 0.882353 0.945098
0.733333 0.882353 0.952941
0.788235 0.925490 0.976471
0.776471 0.901961 0.984314
0.776471 0.898039 1.000000
0.827451 0.882353 1.000000
0.874510 0.721569 0.984314
0.937255 0.850980 0.996078
0.898039 0.992157 0.996078
0.792157 0.945098 0.972549
0.823529 0.956863 0.988235
0.847059 0.960784 0.984314
0.858824 0.952941 0.980392
0.866667 0.952941 0.992157
0.894118 0.960784 0.996078
0.894118 0.905882 0.996078
0.921569 0.925490 1.000000
0.874510 0.964706 0.976471
0.839216 0.956863 0.968627
0.847059 0.960784 0.964706
0.858824 0.956863 0.956863
0.886275 0.972549 0.976471
0.874510 0.956863 0.968627
0.956863 0.988235 1.000000
0.913725 0.941176 0.952941
0.976471 0.972549 0.980392
