public/LUT_CINEMATIC_NATURAL.cube
#Generated by Presets Store
#https://presetsstore.com
TITLE LUT_PRESETSSTORE_25
LUT_3D_SIZE 5
0.003922 0.027451 0.031373
0.266667 0.113725 0.109804
0.474510 0.003922 0.015686
0.823529 0.078431 0.000000
1.000000 0.325490 0.000000
0.317647 0.172549 0.000000
0.243137 0.235294 0.074510
0.572549 0.239216 0.027451
0.811765 0.258824 0.007843
1.000000 0.533333 0.090196
0.572549 0.600000 0.211765
0.596078 0.741176 0.384314
0.694118 0.607843 0.231373
0.854902 0.545098 0.047059
0.992157 0.737255 0.262745
0.941176 0.945098 0.462745
0.815686 0.933333 0.725490
0.921569 0.949020 0.698039
0.968627 0.866667 0.482353
0.996078 0.945098 0.560784
0.933333 0.949020 0.862745
0.913725 0.960784 0.898039
0.964706 0.984314 0.925490
0.992157 0.964706 0.905882
0.996078 0.925490 0.847059
0.003922 0.098039 0.121569
0.062745 0.082353 0.129412
0.411765 0.149020 0.160784
0.568627 0.149020 0.098039
0.956863 0.541176 0.003922
0.317647 0.184314 0.168627
0.200000 0.254902 0.250980
0.431373 0.192157 0.172549
0.686275 0.215686 0.125490
1.000000 0.521569 0.333333
0.592157 0.603922 0.341176
0.560784 0.733333 0.517647
0.650980 0.584314 0.337255
0.894118 0.603922 0.313725
0.996078 0.709804 0.400000
0.945098 0.964706 0.572549
0.800000 0.945098 0.764706
0.921569 0.952941 0.752941
0.952941 0.847059 0.537255
1.000000 0.905882 0.596078
0.945098 0.960784 0.890196
0.941176 0.976471 0.941176
0.980392 0.980392 0.956863
0.996078 1.000000 0.937255
0.996078 0.952941 0.886275
0.000000 0.203922 0.356863
0.000000 0.207843 0.392157
0.376471 0.078431 0.372549
0.517647 0.027451 0.254902
0.827451 0.443137 0.419608
0.321569 0.133333 0.372549
0.125490 0.235294 0.392157
0.372549 0.133333 0.368627
0.549020 0.086275 0.286275
0.796078 0.235294 0.396078
0.392157 0.458824 0.419608
0.415686 0.580392 0.572549
0.541176 0.545098 0.533333
0.788235 0.533333 0.486275
1.000000 0.690196 0.631373
0.909804 0.964706 0.792157
0.819608 0.996078 0.886275
0.835294 0.901961 0.819608
0.917647 0.854902 0.701961
0.972549 0.878431 0.725490
0.949020 0.956863 0.941176
0.905882 0.964706 0.929412
0.964706 0.984314 0.972549
0.968627 0.964706 0.937255
1.000000 0.976471 0.937255
0.003922 0.278431 0.525490
0.003922 0.262745 0.564706
0.235294 0.125490 0.525490
0.443137 0.003922 0.423529
0.533333 0.094118 0.450980
0.215686 0.133333 0.501961
0.003922 0.211765 0.454902
0.282353 0.176471 0.501961
0.556863 0.003922 0.509804
0.768627 0.003922 0.647059
0.482353 0.596078 0.694118
0.513725 0.701961 0.784314
0.505882 0.564706 0.741176
0.662745 0.345098 0.615686
0.709804 0.266667 0.549020
0.678431 0.784314 0.796078
0.647059 0.835294 0.835294
0.729412 0.854902 0.843137
0.823529 0.827451 0.835294
0.964706 0.886275 0.898039
0.905882 0.960784 0.952941
0.886275 0.960784 0.949020
0.945098 0.980392 0.980392
0.945098 0.956863 0.968627
1.000000 0.960784 0.952941
0.129412 0.400000 0.686275
0.098039 0.337255 0.643137
0.345098 0.313725 0.682353
0.498039 0.000000 0.647059
0.592157 0.101961 0.690196
0.286275 0.298039 0.694118
0.301961 0.490196 0.803922
0.501961 0.474510 0.890196
0.654902 0.027451 0.819608
0.717647 0.003922 0.811765
0.549020 0.741176 0.956863
0.596078 0.768627 0.937255
0.517647 0.619608 0.890196
0.627451 0.380392 0.827451
0.764706 0.160784 0.788235
0.819608 0.925490 1.000000
0.733333 0.882353 0.952941
0.776471 0.901961 0.984314
0.827451 0.882353 1.000000
0.937255 0.850980 0.996078
0.874510 0.964706 0.976471
0.847059 0.960784 0.964706
0.886275 0.972549 0.976471
0.956863 0.988235 1.000000
0.976471 0.972549 0.980392
