public/LUT_CINEMATIC_NATURAL.cube
#Generated by Presets Store
#https://presetsstore.com
TITLE LUT_PRESETSSTORE_25
LUT_3D_SIZE 25
0.003922 0.027451 0.031373
0.019608 0.031373 0.047059
0.043137 0.070588 0.070588
0.043137 0.043137 0.031373
0.133333 0.082353 0.070588
0.113725 0.019608 0.007843
0.266667 0.113725 0.109804
0.207843 0.003922 0.007843
0.321569 0.082353 0.078431
0.286275 0.003922 0.003922
0.368627 0.000000 0.019608
0.415686 0.000000 0.027451
0.474510 0.003922 0.015686
0.490196 0.003922 0.003922
0.603922 0.000000 0.035294
0.647059 0.000000 0.000000
0.725490 0.003922 0.000000
0.733333 0.007843 0.000000
0.823529 0.078431 0.000000
0.815686 0.003922 0.000000
0.878431 0.113725 0.003922
0.905882 0.090196 0.003922
0.886275 0.019608 0.000000
1.000000 0.215686 0.000000
1.000000 0.325490 0.000000
0.168627 0.047059 0.078431
0.054902 0.078431 0.070588
0.035294 0.058824 0.043137
0.105882 0.090196 0.066667
0.105882 0.062745 0.039216
0.152941 0.086275 0.062745
0.200000 0.062745 0.031373
0.231373 0.039216 0.023529
0.329412 0.098039 0.074510
0.345098 0.066667 0.050980
0.392157 0.066667 0.043137
0.419608 0.007843 0.007843
0.458824 0.000000 0.000000
0.537255 0.050980 0.050980
0.529412 0.000000 0.003922
0.623529 0.000000 0.003922
0.635294 0.003922 0.000000
0.733333 0.003922 0.003922
0.717647 0.000000 0.000000
0.847059 0.109804 0.000000
0.811765 0.003922 0.003922
0.901961 0.137255 0.000000
0.933333 0.141176 0.000000
0.996078 0.196078 0.000000
1.000000 0.400000 0.007843
0.105882 0.043137 0.019608
0.031373 0.078431 0.050980
0.066667 0.098039 0.054902
0.066667 0.074510 0.050980
0.098039 0.090196 0.039216
0.176471 0.101961 0.074510
0.274510 0.156863 0.117647
0.266667 0.109804 0.062745
0.313725 0.109804 0.058824
0.356863 0.109804 0.058824
0.345098 0.058824 0.019608
0.415686 0.074510 0.015686
0.427451 0.031373 0.003922
0.517647 0.094118 0.058824
0.560784 0.086275 0.035294
0.549020 0.003922 0.003922
0.658824 0.090196 0.007843
0.686275 0.003922 0.003922
0.760784 0.098039 0.003922
0.796078 0.078431 0.003922
0.847059 0.156863 0.003922
0.878431 0.137255 0.011765
0.905882 0.141176 0.000000
0.984314 0.200000 0.007843
0.996078 0.356863 0.011765
0.270588 0.098039 0.062745
0.074510 0.149020 0.094118
0.050980 0.101961 0.035294
0.125490 0.164706 0.105882
0.125490 0.137255 0.070588
0.145098 0.117647 0.047059
0.227451 0.164706 0.090196
0.301961 0.176471 0.094118
0.301961 0.125490 0.043137
0.321569 0.105882 0.019608
0.372549 0.109804 0.027451
0.411765 0.113725 0.023529
0.423529 0.074510 0.000000
0.454902 0.070588 0.000000
0.521569 0.078431 0.007843
0.556863 0.082353 0.007843
0.627451 0.105882 0.003922
0.670588 0.094118 0.000000
0.698039 0.066667 0.000000
0.800000 0.149020 0.003922
0.831373 0.160784 0.003922
0.854902 0.168627 0.000000
0.917647 0.215686 0.003922
0.988235 0.266667 0.000000
1.000000 0.439216 0.000000
0.160784 0.094118 0.011765
0.113725 0.207843 0.117647
0.129412 0.207843 0.098039
0.117647 0.192157 0.090196
0.141176 0.196078 0.082353
0.207843 0.215686 0.121569
0.180392 0.137255 0.031373
0.258824 0.184314 0.078431
0.286275 0.149020 0.031373
0.352941 0.168627 0.058824
0.396078 0.192157 0.047059
0.360784 0.105882 0.000000
0.423529 0.129412 0.000000
0.454902 0.109804 0.000000
0.501961 0.121569 0.000000
0.576471 0.152941 0.007843
0.650980 0.184314 0.003922
0.607843 0.054902 0.003922
0.713725 0.172549 0.000000
0.784314 0.200000 0.003922
0.811765 0.196078 0.000000
0.823529 0.176471 0.000000
0.898039 0.227451 0.003922
0.956863 0.274510 0.000000
0.996078 0.282353 0.000000
0.007843 0.180392 0.086275
0.062745 0.211765 0.117647
0.101961 0.231373 0.137255
0.137255 0.231373 0.121569
0.141176 0.207843 0.082353
0.172549 0.192157 0.054902
0.235294 0.180392 0.054902
0.282353 0.168627 0.050980
0.325490 0.164706 0.047059
0.415686 0.180392 0.078431
0.407843 0.152941 0.007843
0.462745 0.152941 0.007843
0.541176 0.180392 0.035294
0.631373 0.207843 0.058824
0.623529 0.172549 0.000000
0.654902 0.160784 0.003922
0.694118 0.149020 0.003922
0.713725 0.164706 0.003922
0.784314 0.200000 0.000000
0.847059 0.243137 0.003922
0.847059 0.227451 0.000000
0.913725 0.266667 0.000000
0.976471 0.298039 0.011765
0.941176 0.243137 0.000000
1.000000 0.427451 0.011765
0.317647 0.172549 0.000000
0.098039 0.219608 0.101961
0.145098 0.250980 0.125490
0.168627 0.227451 0.086275
0.203922 0.258824 0.121569
0.207843 0.219608 0.078431
0.243137 0.235294 0.074510
0.258824 0.203922 0.070588
0.294118 0.200000 0.031373
0.341176 0.180392 0.023529
0.435294 0.219608 0.050980
0.509804 0.227451 0.043137
0.572549 0.239216 0.027451
0.607843 0.211765 0.007843
0.662745 0.219608 0.003922
0.698039 0.247059 0.007843
0.725490 0.215686 0.011765
0.756863 0.227451 0.000000
0.811765 0.258824 0.007843
0.827451 0.239216 0.000000
0.905882 0.290196 0.003922
0.921569 0.298039 0.007843
0.941176 0.305882 0.000000
0.905882 0.239216 0.000000
1.000000 0.533333 0.090196
0.274510 0.235294 0.074510
0.137255 0.254902 0.129412
0.156863 0.270588 0.117647
0.180392 0.274510 0.129412
0.207843 0.270588 0.094118
0.231373 0.278431 0.094118
0.243137 0.250980 0.062745
0.286275 0.270588 0.082353
0.274510 0.211765 0.039216
0.329412 0.203922 0.023529
0.392157 0.219608 0.039216
0.529412 0.294118 0.082353
0.615686 0.305882 0.054902
0.631373 0.266667 0.000000
0.666667 0.266667 0.000000
0.729412 0.282353 0.000000
0.776471 0.313725 0.000000
0.807843 0.305882 0.003922
0.788235 0.270588 0.000000
0.835294 0.278431 0.011765
0.890196 0.329412 0.003922
0.933333 0.345098 0.003922
0.972549 0.345098 0.011765
0.960784 0.329412 0.003922
0.996078 0.525490 0.011765
0.313725 0.203922 0.011765
0.207843 0.368627 0.196078
0.243137 0.380392 0.180392
0.247059 0.360784 0.152941
0.309804 0.400000 0.164706
0.337255 0.415686 0.180392
0.341176 0.384314 0.137255
0.360784 0.380392 0.121569
0.364706 0.341176 0.101961
0.341176 0.258824 0.054902
0.443137 0.313725 0.101961
0.470588 0.274510 0.015686
0.619608 0.372549 0.086275
0.709804 0.384314 0.094118
0.694118 0.325490 0.003922
0.756863 0.345098 0.000000
0.800000 0.356863 0.000000
0.827451 0.356863 0.000000
0.886275 0.396078 0.007843
0.850980 0.333333 0.000000
0.886275 0.349020 0.003922
0.937255 0.380392 0.003922
0.905882 0.325490 0.000000
0.968627 0.380392 0.000000
0.996078 0.556863 0.035294
0.313725 0.294118 0.054902
0.239216 0.431373 0.207843
0.298039 0.466667 0.227451
0.258824 0.415686 0.156863
0.352941 0.482353 0.200000
0.396078 0.498039 0.192157
0.450980 0.501961 0.207843
0.470588 0.490196 0.192157
0.478431 0.482353 0.164706
0.427451 0.380392 0.105882
0.462745 0.368627 0.117647
0.462745 0.325490 0.015686
0.592157 0.388235 0.082353
0.619608 0.364706 0.000000
0.749020 0.439216 0.078431
0.764706 0.419608 0.000000
0.819608 0.415686 0.000000
0.886275 0.466667 0.058824
0.898039 0.443137 0.007843
0.929412 0.439216 0.000000
0.917647 0.419608 0.003922
0.968627 0.439216 0.003922
1.000000 0.458824 0.003922
0.984314 0.423529 0.003922
0.996078 0.454902 0.000000
0.294118 0.549020 0.274510
0.321569 0.564706 0.290196
0.317647 0.549020 0.282353
0.356863 0.588235 0.317647
0.380392 0.572549 0.282353
0.470588 0.627451 0.317647
0.513725 0.619608 0.282353
0.568627 0.603922 0.270588
0.549020 0.564706 0.203922
0.572549 0.533333 0.196078
0.568627 0.494118 0.196078
0.498039 0.384314 0.098039
0.603922 0.431373 0.125490
0.662745 0.431373 0.094118
0.717647 0.462745 0.109804
0.811765 0.513725 0.152941
0.870588 0.501961 0.113725
0.874510 0.501961 0.047059
0.901961 0.490196 0.007843
0.882353 0.443137 0.007843
0.964706 0.505882 0.000000
0.960784 0.490196 0.007843
0.976471 0.466667 0.003922
0.992157 0.458824 0.011765
0.992157 0.686275 0.172549
0.396078 0.337255 0.003922
0.466667 0.694118 0.368627
0.415686 0.686275 0.376471
0.470588 0.678431 0.313725
0.501961 0.678431 0.329412
0.537255 0.674510 0.345098
0.596078 0.717647 0.364706
0.647059 0.725490 0.356863
0.631373 0.678431 0.309804
0.666667 0.670588 0.294118
0.670588 0.631373 0.247059
0.580392 0.498039 0.156863
0.584314 0.447059 0.141176
0.666667 0.486275 0.168627
0.682353 0.470588 0.094118
0.776471 0.525490 0.160784
0.811765 0.521569 0.113725
0.862745 0.509804 0.066667
0.941176 0.552941 0.082353
0.941176 0.545098 0.007843
0.984314 0.552941 0.027451
0.984314 0.541176 0.000000
1.000000 0.588235 0.000000
1.000000 0.537255 0.000000
0.996078 0.713725 0.266667
0.572549 0.600000 0.211765
0.486275 0.709804 0.407843
0.494118 0.745098 0.415686
0.564706 0.764706 0.427451
0.592157 0.772549 0.423529
0.576471 0.733333 0.396078
0.596078 0.741176 0.384314
0.639216 0.733333 0.368627
0.698039 0.745098 0.372549
0.729412 0.749020 0.364706
0.721569 0.709804 0.313725
0.705882 0.662745 0.247059
0.694118 0.607843 0.231373
0.635294 0.537255 0.184314
0.733333 0.549020 0.211765
0.764706 0.533333 0.176471
0.788235 0.533333 0.133333
0.905882 0.611765 0.188235
0.854902 0.545098 0.047059
1.000000 0.631373 0.180392
1.000000 0.619608 0.109804
0.996078 0.600000 0.003922
1.000000 0.584314 0.003922
1.000000 0.568627 0.003922
0.992157 0.737255 0.262745
0.631373 0.576471 0.141176
0.560784 0.764706 0.454902
0.486275 0.737255 0.423529
0.576471 0.745098 0.400000
0.623529 0.788235 0.462745
0.588235 0.745098 0.415686
0.662745 0.784314 0.458824
0.678431 0.772549 0.439216
0.709804 0.772549 0.427451
0.752941 0.788235 0.407843
0.768627 0.772549 0.376471
0.737255 0.709804 0.301961
0.760784 0.701961 0.282353
0.674510 0.584314 0.215686
0.721569 0.584314 0.231373
0.737255 0.560784 0.192157
0.792157 0.576471 0.180392
0.874510 0.619608 0.200000
0.882353 0.588235 0.141176
0.968627 0.654902 0.192157
0.988235 0.639216 0.152941
0.996078 0.643137 0.129412
1.000000 0.717647 0.164706
1.000000 0.670588 0.149020
1.000000 0.772549 0.341176
0.674510 0.705882 0.313725
0.631373 0.807843 0.529412
0.572549 0.800000 0.494118
0.603922 0.792157 0.494118
0.666667 0.823529 0.517647
0.631373 0.800000 0.490196
0.678431 0.800000 0.494118
0.713725 0.811765 0.505882
0.749020 0.815686 0.482353
0.796078 0.831373 0.474510
0.768627 0.784314 0.411765
0.827451 0.811765 0.419608
0.839216 0.788235 0.376471
0.803922 0.729412 0.309804
0.784314 0.682353 0.301961
0.694118 0.572549 0.188235
0.784314 0.623529 0.223529
0.776471 0.592157 0.168627
0.835294 0.592157 0.149020
0.921569 0.643137 0.188235
0.984314 0.678431 0.196078
0.992157 0.658824 0.145098
1.000000 0.662745 0.133333
0.996078 0.662745 0.031373
0.996078 0.756863 0.215686
0.717647 0.917647 0.639216
0.690196 0.913725 0.619608
0.674510 0.890196 0.611765
0.674510 0.898039 0.611765
0.694118 0.898039 0.619608
0.678431 0.839216 0.564706
0.768627 0.921569 0.631373
0.733333 0.866667 0.556863
0.854902 0.952941 0.635294
0.819608 0.894118 0.572549
0.874510 0.921569 0.580392
0.917647 0.937255 0.584314
0.874510 0.866667 0.478431
0.917647 0.870588 0.486275
0.909804 0.866667 0.423529
0.913725 0.811765 0.392157
0.847059 0.721569 0.313725
0.858824 0.698039 0.258824
0.945098 0.729412 0.305882
0.968627 0.737255 0.282353
0.992157 0.741176 0.286275
0.992157 0.725490 0.219608
1.000000 0.768627 0.250980
1.000000 0.721569 0.113725
1.000000 0.835294 0.415686
0.890196 0.874510 0.372549
0.690196 0.933333 0.666667
0.772549 0.945098 0.694118
0.709804 0.878431 0.611765
0.741176 0.894118 0.631373
0.756863 0.894118 0.635294
0.772549 0.925490 0.654902
0.756863 0.886275 0.615686
0.788235 0.898039 0.603922
0.847059 0.917647 0.647059
0.835294 0.882353 0.580392
0.898039 0.933333 0.607843
0.909804 0.929412 0.572549
0.909804 0.894118 0.533333
0.925490 0.886275 0.501961
0.952941 0.878431 0.474510
0.925490 0.823529 0.435294
0.866667 0.737255 0.317647
0.925490 0.760784 0.345098
0.980392 0.756863 0.321569
0.952941 0.733333 0.266667
1.000000 0.807843 0.345098
0.984314 0.713725 0.215686
1.000000 0.776471 0.133333
0.992157 0.839216 0.435294
0.874510 0.917647 0.466667
0.709804 0.925490 0.701961
0.784314 0.960784 0.737255
0.760784 0.921569 0.662745
0.780392 0.929412 0.686275
0.792157 0.929412 0.701961
0.811765 0.941176 0.709804
0.823529 0.949020 0.705882
0.839216 0.945098 0.701961
0.886275 0.960784 0.701961
0.870588 0.917647 0.658824
0.909804 0.945098 0.662745
0.901961 0.917647 0.615686
0.909804 0.921569 0.603922
0.937255 0.925490 0.576471
0.952941 0.905882 0.541176
0.988235 0.925490 0.541176
0.952941 0.850980 0.470588
0.909804 0.784314 0.380392
0.996078 0.831373 0.415686
0.941176 0.768627 0.333333
0.996078 0.807843 0.349020
1.000000 0.784314 0.301961
0.996078 0.815686 0.301961
1.000000 0.858824 0.443137
0.941176 0.945098 0.462745
0.737255 0.956863 0.764706
0.823529 0.972549 0.764706
0.815686 0.968627 0.752941
0.811765 0.941176 0.725490
0.807843 0.937255 0.709804
0.815686 0.933333 0.725490
0.835294 0.949020 0.729412
0.850980 0.956863 0.725490
0.874510 0.945098 0.713725
0.890196 0.949020 0.717647
0.945098 0.992157 0.745098
0.921569 0.949020 0.698039
0.929412 0.933333 0.666667
0.949020 0.945098 0.650980
0.952941 0.925490 0.619608
0.992157 0.960784 0.623529
0.968627 0.898039 0.541176
0.968627 0.866667 0.482353
0.945098 0.811765 0.431373
0.949020 0.796078 0.376471
0.996078 0.847059 0.427451
1.000000 0.819608 0.388235
1.000000 0.792157 0.223529
0.996078 0.945098 0.560784
0.929412 0.968627 0.564706
0.827451 0.988235 0.811765
0.835294 0.964706 0.772549
0.874510 1.000000 0.811765
0.827451 0.956863 0.752941
0.819608 0.960784 0.764706
0.878431 0.988235 0.800000
0.882353 0.980392 0.796078
0.870588 0.968627 0.780392
0.921569 0.988235 0.796078
0.925490 0.984314 0.768627
0.925490 0.984314 0.772549
0.960784 0.980392 0.780392
0.945098 0.964706 0.737255
0.988235 0.980392 0.752941
0.968627 0.968627 0.698039
0.996078 0.984314 0.698039
0.996078 0.964706 0.658824
0.996078 0.937255 0.588235
0.996078 0.909804 0.560784
0.952941 0.831373 0.466667
1.000000 0.878431 0.494118
0.992157 0.866667 0.454902
0.996078 0.847059 0.427451
0.988235 0.894118 0.466667
0.835294 0.949020 0.831373
0.886275 0.984314 0.870588
0.925490 1.000000 0.905882
0.894118 0.980392 0.878431
0.925490 1.000000 0.901961
0.929412 1.000000 0.894118
0.874510 0.968627 0.839216
0.901961 0.972549 0.850980
0.901961 0.972549 0.850980
0.858824 0.941176 0.796078
0.933333 0.976471 0.839216
0.905882 0.949020 0.784314
0.960784 0.956863 0.819608
0.968627 0.976471 0.811765
0.988235 0.956863 0.780392
0.968627 0.921569 0.725490
0.996078 0.972549 0.788235
0.996078 0.960784 0.737255
0.992157 0.909804 0.678431
0.988235 0.917647 0.654902
0.996078 0.866667 0.611765
0.996078 0.925490 0.666667
1.000000 0.898039 0.639216
0.996078 0.913725 0.615686
0.996078 0.925490 0.721569
0.976471 0.964706 0.768627
0.878431 0.988235 0.890196
0.905882 0.984314 0.882353
0.909804 0.988235 0.882353
0.937255 0.992157 0.890196
0.905882 0.984314 0.882353
0.913725 0.976471 0.874510
0.882353 0.964706 0.858824
0.882353 0.952941 0.831373
0.933333 0.976471 0.882353
0.956863 0.984314 0.894118
0.945098 0.964706 0.874510
0.933333 0.952941 0.835294
1.000000 0.996078 0.878431
0.960784 0.956863 0.819608
0.972549 0.968627 0.811765
0.964706 0.905882 0.745098
1.000000 0.929412 0.752941
0.992157 0.964706 0.768627
1.000000 0.960784 0.749020
1.000000 0.929412 0.701961
0.996078 0.925490 0.705882
0.996078 0.945098 0.701961
0.992157 0.894118 0.611765
1.000000 0.968627 0.792157
0.980392 0.976471 0.835294
0.941176 0.996078 0.929412
0.898039 0.964706 0.874510
0.937255 0.980392 0.925490
0.878431 0.968627 0.874510
0.886275 0.949020 0.870588
0.909804 0.980392 0.913725
0.870588 0.929412 0.847059
0.921569 0.976471 0.898039
0.929412 0.972549 0.878431
0.929412 0.968627 0.886275
0.917647 0.945098 0.866667
0.956863 0.976471 0.890196
0.933333 0.952941 0.858824
0.917647 0.933333 0.831373
0.937255 0.933333 0.823529
0.992157 0.976471 0.858824
0.984314 0.956863 0.827451
0.972549 0.909804 0.788235
0.996078 0.976471 0.827451
0.988235 0.960784 0.796078
0.996078 0.968627 0.803922
1.000000 0.933333 0.752941
1.000000 0.909804 0.729412
0.996078 0.960784 0.800000
0.952941 0.956863 0.831373
0.882353 0.956863 0.882353
0.933333 0.980392 0.921569
0.909804 0.956863 0.901961
0.898039 0.956863 0.898039
0.921569 0.976471 0.905882
0.905882 0.956863 0.901961
0.913725 0.960784 0.898039
0.901961 0.949020 0.890196
0.925490 0.956863 0.909804
0.945098 0.976471 0.913725
0.949020 0.976471 0.921569
0.952941 0.956863 0.901961
0.941176 0.964706 0.890196
0.984314 0.984314 0.913725
0.960784 0.956863 0.874510
0.960784 0.956863 0.866667
0.976471 0.960784 0.862745
0.992157 0.964706 0.874510
0.992157 0.968627 0.843137
0.996078 0.960784 0.839216
1.000000 0.886275 0.752941
1.000000 0.972549 0.827451
0.988235 0.909804 0.780392
0.992157 0.952941 0.854902
0.933333 0.949020 0.862745
0.901961 0.968627 0.909804
0.901961 0.956863 0.917647
0.886275 0.956863 0.898039
0.984314 0.992157 0.972549
0.933333 0.972549 0.929412
0.913725 0.960784 0.898039
0.945098 0.980392 0.941176
0.898039 0.945098 0.886275
0.964706 0.980392 0.941176
0.933333 0.952941 0.925490
0.925490 0.960784 0.901961
0.964706 0.984314 0.925490
0.972549 0.980392 0.929412
0.905882 0.921569 0.862745
0.984314 0.980392 0.933333
0.968627 0.972549 0.909804
0.972549 0.964706 0.894118
0.992157 0.964706 0.905882
0.976471 0.949020 0.874510
0.980392 0.941176 0.870588
0.992157 0.941176 0.866667
1.000000 0.968627 0.882353
0.996078 0.956863 0.878431
0.996078 0.925490 0.847059
0.011765 0.078431 0.074510
0.007843 0.086275 0.082353
0.019608 0.094118 0.078431
0.000000 0.090196 0.058824
0.007843 0.101961 0.054902
0.054902 0.129412 0.062745
0.101961 0.137255 0.054902
0.117647 0.121569 0.035294
0.200000 0.152941 0.058824
0.282353 0.184314 0.070588
0.329412 0.184314 0.058824
0.352941 0.156863 0.027451
0.392157 0.164706 0.003922
0.423529 0.145098 0.003922
0.443137 0.137255 0.000000
0.486275 0.160784 0.003922
0.486275 0.133333 0.000000
0.521569 0.160784 0.000000
0.521569 0.113725 0.003922
0.650980 0.211765 0.003922
0.619608 0.152941 0.000000
0.705882 0.211765 0.003922
0.717647 0.192157 0.000000
0.784314 0.247059 0.003922
0.941176 0.509804 0.003922
0.070588 0.094118 0.062745
0.000000 0.137255 0.082353
0.023529 0.145098 0.101961
0.003922 0.121569 0.058824
0.027451 0.141176 0.062745
0.062745 0.156863 0.058824
0.086275 0.164706 0.058824
0.168627 0.203922 0.074510
0.172549 0.172549 0.047059
0.239216 0.188235 0.054902
0.286275 0.180392 0.023529
0.333333 0.180392 0.011765
0.384314 0.184314 0.007843
0.384314 0.145098 0.003922
0.431373 0.156863 0.011765
0.454902 0.149020 0.000000
0.482353 0.156863 0.011765
0.498039 0.160784 0.003922
0.549020 0.164706 0.003922
0.549020 0.137255 0.007843
0.639216 0.196078 0.000000
0.686275 0.203922 0.000000
0.725490 0.215686 0.003922
0.764706 0.262745 0.007843
0.839216 0.474510 0.003922
0.035294 0.133333 0.031373
0.000000 0.188235 0.113725
0.000000 0.117647 0.047059
0.003922 0.152941 0.047059
0.019608 0.180392 0.062745
0.054902 0.203922 0.062745
0.066667 0.164706 0.007843
0.196078 0.266667 0.098039
0.180392 0.188235 0.011765
0.223529 0.207843 0.019608
0.227451 0.176471 0.003922
0.329412 0.219608 0.035294
0.317647 0.164706 0.000000
0.337255 0.152941 0.003922
0.415686 0.180392 0.003922
0.439216 0.192157 0.000000
0.443137 0.168627 0.003922
0.509804 0.203922 0.000000
0.556863 0.207843 0.003922
0.596078 0.231373 0.000000
0.611765 0.200000 0.000000
0.670588 0.215686 0.003922
0.741176 0.258824 0.000000
0.827451 0.305882 0.007843
0.858824 0.525490 0.003922
0.149020 0.215686 0.062745
0.000000 0.196078 0.050980
0.003922 0.215686 0.078431
0.003922 0.207843 0.031373
0.023529 0.239216 0.043137
0.062745 0.250980 0.054902
0.066667 0.211765 0.003922
0.156863 0.254902 0.027451
0.176471 0.227451 0.003922
0.235294 0.254902 0.019608
0.262745 0.247059 0.000000
0.266667 0.207843 0.003922
0.282353 0.172549 0.003922
0.333333 0.188235 0.000000
0.360784 0.184314 0.007843
0.400000 0.192157 0.000000
0.423529 0.176471 0.003922
0.513725 0.243137 0.011765
0.533333 0.223529 0.003922
0.596078 0.235294 0.007843
0.654902 0.258824 0.003922
0.682353 0.266667 0.003922
0.756863 0.301961 0.000000
0.768627 0.290196 0.003922
0.745098 0.470588 0.000000
0.129412 0.262745 0.031373
0.003922 0.250980 0.054902
0.000000 0.266667 0.050980
0.011765 0.235294 0.011765
0.000000 0.250980 0.027451
0.000000 0.258824 0.003922
0.082353 0.250980 0.000000
0.121569 0.250980 0.000000
0.219608 0.301961 0.019608
0.180392 0.235294 0.000000
0.282353 0.301961 0.007843
0.266667 0.250980 0.003922
0.309804 0.243137 0.000000
0.317647 0.215686 0.000000
0.360784 0.227451 0.011765
0.435294 0.250980 0.011765
0.419608 0.219608 0.011765
0.482353 0.239216 0.000000
0.537255 0.258824 0.000000
0.615686 0.294118 0.000000
0.658824 0.301961 0.011765
0.701961 0.309804 0.003922
0.717647 0.294118 0.003922
0.807843 0.352941 0.003922
0.776471 0.294118 0.000000
0.007843 0.211765 0.133333
0.054902 0.219608 0.160784
0.054902 0.215686 0.137255
0.129412 0.239216 0.156863
0.168627 0.215686 0.133333
0.188235 0.188235 0.101961
0.247059 0.192157 0.086275
0.278431 0.176471 0.074510
0.329412 0.188235 0.101961
0.364706 0.168627 0.074510
0.388235 0.152941 0.054902
0.427451 0.149020 0.050980
0.458824 0.137255 0.027451
0.525490 0.160784 0.031373
0.556863 0.152941 0.023529
0.635294 0.184314 0.031373
0.666667 0.176471 0.019608
0.701961 0.164706 0.000000
0.721569 0.184314 0.003922
0.788235 0.203922 0.000000
0.870588 0.278431 0.000000
0.874510 0.247059 0.003922
0.917647 0.266667 0.003922
0.945098 0.270588 0.003922
1.000000 0.415686 0.003922
0.282353 0.145098 0.011765
0.050980 0.203922 0.176471
0.129412 0.223529 0.121569
0.172549 0.254902 0.145098
0.149020 0.200000 0.082353
0.184314 0.227451 0.101961
0.243137 0.235294 0.109804
0.266667 0.211765 0.109804
0.317647 0.219608 0.078431
0.349020 0.188235 0.070588
0.403922 0.203922 0.070588
0.396078 0.145098 0.003922
0.450980 0.160784 0.003922
0.611765 0.278431 0.105882
0.572549 0.188235 0.003922
0.658824 0.227451 0.031373
0.713725 0.262745 0.047059
0.713725 0.227451 0.000000
0.772549 0.254902 0.003922
0.835294 0.282353 0.000000
0.862745 0.282353 0.000000
0.870588 0.274510 0.003922
0.909804 0.301961 0.000000
0.933333 0.286275 0.003922
0.996078 0.505882 0.101961
0.298039 0.266667 0.125490
0.058824 0.227451 0.149020
0.156863 0.274510 0.176471
0.141176 0.239216 0.113725
0.219608 0.290196 0.172549
0.215686 0.270588 0.133333
0.223529 0.231373 0.082353
0.243137 0.231373 0.082353
0.274510 0.215686 0.070588
0.333333 0.223529 0.066667
0.364706 0.211765 0.050980
0.435294 0.235294 0.058824
0.537255 0.278431 0.074510
0.600000 0.278431 0.066667
0.662745 0.294118 0.050980
0.713725 0.305882 0.066667
0.709804 0.286275 0.000000
0.756863 0.290196 0.019608
0.737255 0.250980 0.003922
0.839216 0.329412 0.000000
0.854902 0.341176 0.000000
0.866667 0.309804 0.003922
0.929412 0.329412 0.000000
0.901961 0.274510 0.000000
0.996078 0.560784 0.125490
0.333333 0.207843 0.027451
0.078431 0.270588 0.196078
0.188235 0.321569 0.184314
0.196078 0.309804 0.152941
0.219608 0.305882 0.141176
0.254902 0.313725 0.145098
0.294118 0.337255 0.149020
0.317647 0.329412 0.137255
0.309804 0.294118 0.109804
0.333333 0.262745 0.101961
0.392157 0.286275 0.109804
0.447059 0.286275 0.066667
0.584314 0.356863 0.133333
0.643137 0.372549 0.117647
0.690196 0.368627 0.086275
0.764706 0.392157 0.101961
0.713725 0.321569 0.003922
0.803922 0.376471 0.047059
0.811765 0.356863 0.011765
0.827451 0.352941 0.000000
0.839216 0.329412 0.000000
0.901961 0.388235 0.003922
0.886275 0.341176 0.003922
0.952941 0.349020 0.000000
1.000000 0.588235 0.156863
0.286275 0.286275 0.074510
0.149020 0.321569 0.207843
0.227451 0.396078 0.215686
0.290196 0.415686 0.227451
0.294118 0.396078 0.192157
0.356863 0.447059 0.235294
0.356863 0.443137 0.200000
0.411765 0.443137 0.200000
0.368627 0.376471 0.121569
0.403922 0.356863 0.117647
0.392157 0.313725 0.109804
0.474510 0.345098 0.101961
0.533333 0.345098 0.070588
0.611765 0.392157 0.098039
0.694118 0.415686 0.101961
0.737255 0.423529 0.082353
0.760784 0.411765 0.027451
0.831373 0.423529 0.066667
0.835294 0.423529 0.062745
0.854902 0.407843 0.000000
0.882353 0.419608 0.000000
0.870588 0.388235 0.011765
0.941176 0.431373 0.003922
0.925490 0.400000 0.003922
0.976471 0.431373 0.000000
0.313725 0.572549 0.321569
0.349020 0.603922 0.356863
0.305882 0.564706 0.313725
0.360784 0.584314 0.321569
0.400000 0.588235 0.325490
0.447059 0.603922 0.321569
0.552941 0.643137 0.337255
0.537255 0.576471 0.270588
0.537255 0.525490 0.203922
0.572549 0.545098 0.223529
