public/quiet.cube
# Created by Benjamin (IWLTBAP): https://luts.iwltbap.com
# Copyright: (C) Copyright 2018 Triune Films and IWLTBAP SAS
# Cannot be resold, shared or otherwise redistributed
TITLE "Triune Films Cinematic LUTs V3 (RED REDlogFilm)"
LUT_3D_SIZE 9
0.005524 0.007904 0.008667
0.057831 0.006195 0.005310
0.164948 0.005463 0.003937
0.332031 0.007111 0.003937
0.507263 0.002258 0.000702
0.679199 0.000000 0.000000
0.811035 0.000000 0.000000
0.896271 0.000000 0.000000
0.948486 0.000000 0.000000
0.002258 0.030731 0.021545
0.045380 0.032013 0.015411
0.146545 0.038452 0.005951
0.322083 0.049103 0.002899
0.510315 0.047516 0.000000
0.691895 0.039185 0.000092
0.827606 0.034546 0.000000
0.912415 0.032410 0.000000
0.963593 0.031525 0.000000
0.000061 0.082550 0.058960
0.025330 0.088257 0.048767
0.106232 0.100586 0.023590
0.304108 0.131226 0.000854
0.511841 0.136322 0.000000
0.707947 0.127075 0.000793
0.848755 0.118500 0.000793
0.932800 0.112640 0.000793
0.982269 0.109253 0.000000
0.000000 0.196442 0.130829
0.004059 0.205048 0.122986
0.038086 0.222107 0.087006
0.235046 0.249237 0.010590
0.508148 0.297577 0.000000
0.713409 0.299133 0.001251
0.857880 0.295929 0.002197
0.943359 0.291718 0.000885
0.993286 0.288574 0.000000
0.000000 0.355408 0.186340
0.000000 0.364777 0.180908
0.002136 0.383728 0.160400
0.088593 0.417358 0.060791
0.437622 0.439270 0.000702
0.708527 0.505951 0.000000
0.855347 0.512390 0.000000
0.945038 0.512177 0.000000
0.998779 0.511597 0.000000
0.000000 0.510590 0.199677
0.000000 0.517365 0.187897
0.000000 0.531586 0.161255
0.030273 0.566315 0.073090
0.367126 0.591125 0.000977
0.668427 0.611359 0.000000
0.847748 0.683258 0.000000
0.944458 0.707123 0.000000
0.999786 0.711182 0.000000
0.000000 0.616455 0.184174
0.000000 0.622314 0.163544
0.001007 0.634338 0.118225
0.048584 0.665680 0.031158
0.367920 0.701569 0.000000
0.668884 0.712891 0.000000
0.830994 0.740173 0.000000
0.931519 0.786804 0.000702
0.991364 0.820831 0.000793
0.000000 0.683838 0.160492
0.000000 0.689117 0.132477
0.004395 0.699524 0.075562
0.091736 0.727020 0.010223
0.399689 0.765320 0.000000
0.680664 0.785950 0.000000
0.837555 0.797974 0.000000
0.923981 0.818909 0.000000
0.974274 0.840729 0.000793
0.000000 0.724854 0.142303
0.000092 0.729858 0.109711
0.008301 0.739166 0.047424
0.126678 0.764099 0.000641
0.426758 0.802338 0.000000
0.689636 0.829681 0.000000
0.845856 0.837219 0.000000
0.923737 0.845337 0.000000
0.965973 0.856445 0.000000
0.003845 0.010345 0.028870
0.052490 0.006989 0.028381
0.156311 0.003937 0.026184
0.322723 0.005280 0.026001
0.496338 0.001465 0.026215
0.668732 0.000000 0.028503
0.800201 0.000000 0.030365
0.885498 0.000000 0.031036
0.937592 0.000000 0.031250
0.001465 0.034271 0.039001
0.042267 0.034546 0.035706
0.141907 0.037659 0.029602
0.317505 0.044952 0.026123
0.503845 0.043427 0.026337
0.685181 0.037384 0.029663
0.819916 0.034454 0.032104
0.904572 0.032410 0.032776
0.955750 0.031433 0.032990
0.000000 0.087830 0.070496
0.026062 0.093231 0.062622
0.109772 0.103485 0.041504
0.305481 0.128815 0.030914
0.511414 0.132751 0.031006
0.707275 0.125275 0.033539
0.846588 0.117798 0.035522
0.929962 0.112183 0.035950
0.979248 0.108459 0.036011
0.000000 0.200714 0.138000
0.005829 0.210266 0.130188
0.046295 0.228638 0.094604
0.248016 0.254547 0.026917
0.510132 0.298981 0.043243
0.715271 0.300964 0.044800
0.859161 0.298004 0.044708
0.944092 0.293427 0.043854
0.993744 0.290039 0.042389
0.000000 0.357819 0.194641
0.000000 0.369141 0.189484
0.003662 0.390717 0.167297
0.102722 0.424988 0.066101
0.446716 0.448517 0.015259
0.709412 0.507874 0.049438
0.855560 0.513153 0.052979
0.945160 0.512939 0.052460
0.998840 0.512451 0.052307
0.000000 0.510529 0.210907
0.000000 0.520386 0.200226
0.000000 0.538208 0.174225
0.031219 0.574554 0.083191
0.371185 0.604492 0.004944
0.673737 0.626282 0.012756
0.849030 0.688324 0.042664
0.944580 0.708160 0.052460
0.999786 0.711395 0.054352
0.000000 0.615509 0.199249
0.000000 0.625092 0.181335
0.000732 0.641754 0.138519
0.044434 0.674744 0.043304
0.365112 0.714233 0.001404
0.672302 0.731567 0.002014
0.835114 0.757416 0.010803
0.933350 0.797760 0.027405
0.992096 0.827026 0.039581
0.000000 0.681763 0.181458
0.000000 0.691467 0.155731
0.003571 0.707520 0.099609
0.083130 0.736938 0.018280
0.393158 0.777283 0.000214
0.681793 0.803864 0.000092
0.842438 0.818665 0.003052
0.927002 0.837555 0.007935
0.976074 0.856873 0.013031
0.000000 0.722046 0.167603
0.000092 0.731812 0.136749
0.005951 0.747467 0.072449
0.114929 0.774506 0.006012
0.418762 0.814056 0.000000
0.689728 0.847137 0.000000
0.850861 0.859344 0.000092
0.927063 0.867249 0.001007
0.968079 0.877045 0.002686
0.001587 0.016418 0.066986
0.040253 0.011383 0.077515
0.136505 0.003998 0.082947
0.301605 0.001648 0.076538
0.473419 0.000702 0.080780
0.645996 0.000000 0.086365
0.777252 0.000000 0.089996
0.863190 0.000000 0.091217
0.915833 0.000000 0.092133
0.000702 0.044006 0.076965
0.034821 0.041901 0.083771
0.129028 0.037018 0.084534
0.304169 0.035767 0.076111
0.487335 0.035004 0.080536
0.667572 0.033295 0.087433
0.801331 0.032257 0.092163
0.886383 0.030823 0.093933
0.938080 0.030457 0.094818
0.000000 0.098846 0.100861
0.025208 0.102875 0.101013
0.110199 0.107666 0.091736
0.303711 0.118378 0.085999
0.507294 0.122192 0.089783
0.701660 0.117706 0.095001
0.838684 0.112671 0.099060
0.921356 0.108124 0.100342
0.970612 0.105072 0.100769
0.000000 0.208618 0.155670
0.007538 0.218323 0.151459
0.056946 0.236938 0.127075
0.264587 0.261444 0.079620
0.512939 0.300568 0.123718
0.718414 0.302307 0.122345
0.861298 0.299042 0.120728
0.944916 0.293762 0.119019
0.993500 0.289734 0.117828
0.000000 0.362366 0.213104
0.000000 0.375092 0.210327
0.005768 0.399719 0.193085
0.117859 0.436340 0.105164
0.454834 0.463348 0.061218
0.710541 0.510956 0.140839
0.855957 0.514343 0.146240
0.945404 0.514313 0.145325
0.998871 0.513916 0.144257
0.000000 0.509827 0.232849
0.000000 0.523010 0.225861
0.000000 0.546661 0.205902
0.029816 0.586914 0.123413
0.363129 0.624451 0.031525
0.676514 0.650391 0.048950
0.850494 0.696838 0.124329
0.944824 0.709839 0.147400
0.999817 0.711761 0.150970
0.000000 0.612976 0.226624
0.000000 0.626709 0.214691
0.000275 0.650879 0.182495
0.032501 0.689148 0.083649
0.346069 0.733673 0.015503
0.670319 0.760529 0.014984
0.839630 0.784760 0.043304
0.935974 0.815125 0.086914
0.993286 0.836212 0.118530
0.000000 0.677795 0.215698
0.000000 0.692108 0.197327
0.001465 0.716949 0.151062
0.059113 0.753082 0.049652
0.368988 0.796173 0.006958
0.675354 0.831879 0.006195
0.847107 0.851532 0.017426
0.931152 0.867218 0.035217
0.978760 0.881836 0.052979
0.000000 0.717072 0.207062
0.000000 0.731598 0.184082
0.003021 0.756958 0.127014
0.082214 0.791840 0.028351
0.391907 0.833313 0.002228
0.680023 0.874847 0.003021
0.855072 0.894897 0.007141
0.931641 0.903015 0.013519
0.971252 0.910309 0.020660
0.000793 0.029327 0.177063
0.027130 0.019257 0.200012
0.109894 0.005707 0.215057
0.266602 0.000000 0.195404
0.427704 0.000000 0.189880
0.590057 0.000000 0.195984
0.719788 0.000000 0.206390
0.808044 0.000000 0.210052
0.863037 0.000000 0.211578
0.000000 0.062408 0.183441
0.022552 0.056641 0.204102
0.103729 0.042480 0.220062
0.276184 0.024292 0.199097
0.445587 0.017456 0.188873
0.614471 0.016632 0.198914
0.747925 0.018250 0.210510
0.836334 0.019684 0.213837
0.890747 0.020569 0.214874
0.000000 0.121887 0.197968
0.016266 0.123322 0.212708
0.088898 0.119293 0.227051
0.284363 0.098053 0.207916
0.476685 0.086548 0.195984
0.662201 0.083771 0.211395
0.800323 0.081787 0.222595
0.886353 0.080017 0.224243
0.938049 0.079651 0.223938
0.000000 0.226746 0.221130
0.007538 0.234100 0.227112
0.052246 0.249664 0.234894
0.254578 0.266449 0.226471
0.506104 0.288422 0.247437
0.714874 0.293457 0.258789
0.857941 0.286713 0.260132
0.940613 0.277069 0.257690
0.988037 0.270142 0.255432
0.000000 0.374939 0.262360
0.000793 0.383728 0.265717
0.007507 0.405457 0.269196
0.109985 0.449371 0.249847
0.439667 0.483917 0.225952
0.711334 0.514618 0.302460
0.857391 0.515961 0.302917
0.946411 0.515717 0.300629
0.998810 0.515015 0.298920
0.000000 0.515228 0.284485
0.000000 0.526031 0.285614
0.000000 0.549316 0.283417
0.025421 0.598267 0.253296
0.317200 0.646606 0.190948
0.661621 0.679199 0.194641
0.851532 0.706970 0.285553
0.945129 0.711670 0.309265
0.999939 0.712036 0.312134
0.000000 0.613495 0.281708
0.000000 0.625763 0.281067
0.000000 0.650604 0.273376
0.015533 0.700806 0.220795
0.290619 0.754059 0.150818
0.642090 0.792664 0.135437
0.838226 0.817505 0.167328
0.939117 0.836700 0.229675
0.995819 0.847809 0.273468
0.000000 0.675598 0.273132
0.000000 0.688324 0.270447
0.000000 0.714355 0.255981
0.019958 0.766174 0.182068
0.307037 0.817932 0.111725
0.643372 0.862579 0.104553
0.842163 0.890320 0.119812
0.934082 0.903870 0.148041
0.982971 0.913239 0.176666
0.000000 0.713409 0.266052
0.000000 0.726227 0.261719
0.000000 0.753021 0.241547
0.024506 0.806610 0.153320
0.324677 0.856964 0.085052
0.645874 0.904755 0.085938
0.846588 0.935608 0.096252
0.932831 0.946106 0.110870
0.975006 0.951385 0.124481
0.000000 0.033997 0.378235
0.015564 0.021454 0.389404
0.083374 0.005066 0.388458
0.245483 0.000000 0.348969
0.387512 0.000000 0.323181
0.514771 0.000000 0.320404
0.612885 0.000000 0.328400
0.687866 0.000000 0.336029
0.739288 0.000000 0.342102
0.000000 0.079224 0.366272
0.010803 0.071106 0.383606
0.068451 0.053375 0.398743
0.246735 0.026001 0.370605
0.403503 0.008759 0.334229
0.534241 0.004456 0.329315
0.639557 0.002686 0.337372
0.718811 0.002502 0.344482
0.771973 0.003296 0.349823
0.000000 0.151367 0.363281
0.004486 0.151093 0.382904
0.043152 0.144440 0.413757
0.234589 0.106934 0.405914
0.430145 0.062378 0.358826
0.577698 0.044983 0.351868
0.698853 0.033905 0.358368
0.784943 0.027008 0.363403
0.840088 0.024567 0.366821
0.000000 0.261749 0.388977
0.003479 0.267853 0.400879
0.026489 0.279938 0.425415
0.181000 0.287354 0.446564
0.452576 0.263519 0.408356
0.653809 0.253967 0.400940
0.802856 0.239288 0.405518
0.896118 0.220490 0.407745
0.951080 0.207092 0.408020
0.000000 0.403046 0.382874
0.002686 0.409698 0.389130
0.021362 0.425385 0.402435
0.115173 0.462708 0.428589
0.400116 0.500458 0.442963
0.700958 0.518768 0.468079
0.860229 0.520294 0.477417
0.947510 0.515808 0.478302
0.996887 0.511871 0.477844
0.000000 0.538544 0.388977
0.000092 0.545502 0.392426
0.002777 0.560669 0.398438
0.044556 0.601318 0.407684
0.293152 0.666504 0.418060
0.650848 0.705536 0.439636
0.854187 0.713593 0.505066
0.945496 0.712860 0.513397
0.999908 0.712830 0.513947
0.000000 0.632294 0.386627
0.000000 0.639832 0.388641
0.000000 0.655426 0.391327
0.019623 0.696838 0.386200
0.270599 0.768677 0.376587
0.626129 0.817993 0.390198
0.841339 0.844940 0.416412
0.943451 0.853790 0.466980
0.998169 0.855713 0.497162
0.000000 0.687042 0.374664
0.000000 0.695038 0.376160
0.000000 0.712006 0.377441
0.013977 0.757019 0.362854
0.276978 0.832367 0.339844
0.630859 0.883911 0.357056
0.844574 0.916534 0.370819
0.940247 0.929108 0.390686
0.988800 0.934631 0.414734
0.000000 0.719696 0.365112
0.000000 0.727875 0.366425
0.000000 0.745972 0.366791
0.013092 0.794434 0.345856
0.286407 0.871918 0.314850
0.638092 0.922150 0.335785
0.849182 0.956482 0.344543
0.939270 0.970154 0.352295
0.982391 0.975555 0.360840
0.000000 0.049896 0.557404
0.006531 0.034180 0.566437
0.053741 0.011230 0.567505
0.231995 0.000000 0.524109
0.376648 0.000000 0.471466
0.478027 0.000000 0.450500
0.553650 0.000000 0.453491
0.609253 0.000000 0.457977
0.644928 0.000000 0.460114
0.000000 0.098267 0.544556
0.003662 0.087769 0.558167
0.038147 0.066254 0.573853
0.212524 0.033051 0.553345
0.385651 0.010406 0.495026
0.491882 0.002960 0.465332
0.572479 0.001007 0.464844
0.631989 0.000397 0.467865
0.670227 0.000092 0.469269
0.000000 0.177338 0.533051
0.000946 0.176147 0.549774
0.015228 0.167847 0.580353
0.160065 0.127960 0.596924
0.396057 0.069641 0.540955
0.521912 0.034973 0.501160
0.616638 0.021423 0.494293
0.686035 0.013306 0.492767
0.730286 0.007690 0.491516
0.000000 0.294006 0.566498
0.000336 0.299133 0.577942
0.005798 0.308502 0.601044
0.079712 0.314667 0.638641
0.365479 0.280945 0.610535
0.574707 0.234894 0.563751
0.710297 0.205719 0.551575
0.803528 0.177277 0.545105
0.861267 0.155823 0.540314
0.000000 0.445953 0.578552
0.002686 0.451385 0.584473
0.022736 0.462280 0.596680
0.122406 0.484833 0.624023
0.322754 0.511353 0.642181
0.618805 0.513855 0.615875
0.806335 0.507812 0.604462
0.908295 0.496399 0.601501
0.966553 0.486176 0.599579
0.000000 0.572021 0.532410
0.001770 0.578217 0.536316
0.014862 0.590332 0.543823
0.095703 0.618103 0.561890
0.293610 0.672333 0.596619
0.632874 0.723358 0.635376
0.851959 0.735168 0.666321
0.947845 0.732544 0.675293
0.998322 0.729462 0.678070
0.000000 0.654541 0.506653
0.000000 0.660614 0.508606
0.003082 0.672302 0.512634
0.041931 0.700439 0.522949
0.243469 0.765717 0.547516
0.617523 0.833282 0.603729
0.848602 0.867004 0.640869
0.946167 0.864441 0.685211
0.998169 0.860413 0.700745
0.000000 0.705505 0.493164
0.000000 0.711884 0.494080
0.000641 0.724457 0.496582
0.020294 0.754333 0.502777
0.223694 0.822845 0.514099
0.610474 0.889648 0.568359
0.842621 0.928802 0.602539
0.938782 0.942139 0.621338
0.985321 0.945374 0.644409
0.000000 0.736145 0.483673
0.000000 0.742981 0.484344
0.000000 0.756470 0.486328
0.011749 0.788147 0.490326
0.216370 0.857422 0.492737
0.609222 0.919983 0.544281
0.838623 0.960449 0.575104
0.932373 0.977875 0.587616
0.974152 0.984894 0.595917
0.000000 0.057861 0.692780
0.002289 0.043884 0.700287
0.027313 0.019135 0.703827
0.197510 0.000793 0.666473
0.366882 0.000000 0.605072
0.461792 0.000000 0.568451
0.524017 0.000000 0.559845
0.568512 0.000000 0.561066
0.596863 0.000000 0.562439
0.000000 0.108704 0.682587
0.000885 0.099457 0.693024
0.017395 0.077057 0.707245
0.163788 0.039368 0.695862
0.367920 0.013184 0.635529
0.470276 0.003845 0.589020
0.536499 0.001007 0.573853
0.584320 0.000214 0.572479
0.614990 0.000000 0.572998
0.000000 0.193542 0.671204
0.000000 0.192719 0.684265
0.004852 0.184326 0.709564
0.096710 0.144104 0.735962
0.353394 0.083069 0.692963
0.489258 0.040131 0.636780
0.566681 0.020172 0.611359
0.622894 0.011597 0.604095
0.659454 0.006775 0.601654
0.000000 0.316010 0.698639
0.000000 0.320831 0.709015
0.000946 0.329102 0.729340
0.029388 0.334045 0.767334
0.254517 0.304565 0.769806
0.509552 0.247894 0.715027
0.635620 0.199677 0.686432
0.717987 0.166626 0.676147
0.770752 0.145111 0.671112
0.000000 0.470245 0.733032
0.001007 0.474304 0.737122
0.014221 0.482513 0.746002
0.102509 0.499542 0.769714
0.250458 0.521454 0.797699
0.519714 0.520966 0.775391
0.718323 0.500031 0.748108
0.826660 0.482849 0.738617
0.890045 0.471527 0.734802
0.000000 0.609467 0.692719
0.001770 0.614258 0.696747
0.020203 0.623444 0.704590
0.129364 0.643036 0.724213
0.314148 0.679443 0.758728
0.589935 0.722778 0.782227
0.804138 0.744568 0.786591
0.918152 0.745239 0.783691
0.977814 0.742828 0.780945
0.000000 0.679382 0.630035
0.000610 0.684937 0.633545
0.007080 0.695282 0.640808
0.071167 0.718140 0.659149
0.260468 0.770294 0.697754
0.604401 0.833954 0.752686
0.840454 0.877655 0.788330
0.944916 0.885010 0.806274
0.994202 0.884613 0.812561
0.000000 0.718750 0.596161
0.000000 0.725067 0.599182
0.001617 0.737000 0.605621
0.033173 0.762756 0.622742
0.215393 0.819824 0.656952
0.585327 0.884216 0.717377
0.833130 0.931610 0.764587
0.936493 0.949097 0.786072
0.985870 0.950958 0.810638
0.000000 0.744171 0.578949
0.000000 0.750854 0.581726
0.000000 0.763885 0.587677
0.014740 0.791534 0.603821
0.190979 0.848724 0.633942
0.570892 0.909485 0.693237
0.821442 0.956909 0.742706
0.925568 0.977570 0.766449
0.969604 0.985352 0.777954
0.000000 0.063721 0.794250
0.000885 0.051270 0.797760
0.012543 0.026245 0.798370
0.158112 0.001953 0.767883
0.360229 0.000000 0.705658
0.454041 0.000000 0.665161
0.509613 0.000000 0.648010
0.544952 0.000000 0.639221
0.567627 0.000000 0.634857
0.000000 0.113403 0.784973
0.000000 0.105255 0.791595
0.007507 0.083191 0.801666
0.123444 0.042206 0.795471
0.352936 0.014587 0.739014
0.458160 0.003967 0.688721
0.517975 0.001007 0.664246
0.556854 0.000214 0.652496
0.581573 0.000000 0.647064
0.000000 0.201050 0.771301
0.000000 0.200378 0.780945
0.001617 0.191833 0.800934
0.061951 0.151764 0.828857
0.312500 0.089294 0.800690
0.467133 0.043640 0.742462
0.539368 0.021667 0.707001
0.585510 0.011597 0.688812
0.615112 0.006042 0.680115
0.000000 0.328796 0.787079
0.000000 0.333405 0.795502
0.000183 0.340973 0.812073
0.012695 0.345276 0.845184
0.164978 0.319336 0.868530
0.452271 0.263580 0.825287
0.590149 0.208038 0.788818
0.661377 0.167511 0.770508
0.705139 0.141876 0.761139
0.000000 0.482086 0.827332
0.000305 0.485535 0.829956
0.008789 0.492462 0.836212
0.082764 0.507904 0.854919
0.200989 0.529846 0.884430
0.447662 0.533905 0.874329
0.655121 0.511017 0.844940
0.762573 0.485565 0.828827
0.821442 0.469055 0.821106
0.000000 0.631744 0.803253
0.001770 0.635681 0.806976
0.020660 0.643036 0.814178
0.140411 0.658691 0.831085
0.323212 0.687836 0.859497
0.569122 0.724609 0.870483
0.761932 0.747986 0.867401
0.878998 0.747009 0.857605
0.942719 0.742035 0.850006
0.000000 0.704926 0.737091
0.000885 0.709930 0.741089
0.010468 0.719177 0.749207
0.095978 0.739502 0.768219
0.292908 0.783173 0.804749
0.606476 0.836334 0.844482
0.826202 0.880188 0.867401
0.936157 0.894745 0.868744
0.988922 0.897766 0.866760
0.000000 0.733734 0.683868
0.000000 0.739899 0.687866
0.003143 0.751587 0.696106
0.048584 0.776367 0.715515
0.240326 0.828003 0.753571
0.591278 0.885651 0.805969
0.829437 0.932373 0.848785
0.935547 0.952179 0.867767
0.983704 0.957977 0.880768
0.000000 0.750336 0.653198
0.000000 0.757202 0.657196
0.000000 0.770508 0.665466
0.020996 0.798065 0.684998
0.206665 0.852112 0.722656
0.574677 0.909119 0.778290
0.820221 0.955353 0.830139
0.926025 0.976654 0.859802
0.970551 0.985077 0.874176
0.000000 0.066772 0.861359
0.000000 0.055420 0.861847
0.005280 0.031250 0.859283
0.129730 0.002838 0.833771
0.355438 0.000000 0.772217
0.449005 0.000000 0.730774
0.501373 0.000000 0.708679
0.532257 0.000000 0.692627
0.551086 0.000000 0.682617
0.000000 0.115662 0.851379
0.000000 0.108154 0.855377
0.002930 0.086609 0.862152
0.097015 0.043762 0.859711
0.343018 0.014587 0.806488
0.451111 0.003967 0.755798
0.508118 0.001007 0.726501
0.542389 0.000214 0.707367
0.562988 0.000000 0.696136
0.000000 0.204651 0.833557
0.000000 0.204193 0.841248
0.000793 0.195465 0.857849
0.043365 0.155060 0.886688
0.284424 0.091919 0.868835
0.453552 0.045166 0.811859
0.524689 0.022919 0.772156
0.565552 0.011688 0.746552
0.589996 0.005981 0.731628
0.000000 0.336212 0.840271
0.000000 0.340607 0.847412
0.000000 0.347687 0.861206
0.005493 0.351807 0.890350
0.108337 0.328308 0.925446
0.410583 0.273956 0.893982
0.562683 0.216370 0.854858
0.628021 0.170837 0.830811
0.664398 0.141174 0.816345
0.000000 0.488617 0.882202
0.000092 0.491791 0.884033
0.005615 0.498077 0.888702
0.069244 0.512878 0.904083
0.172028 0.535492 0.932526
0.401855 0.543335 0.930756
0.616486 0.522430 0.902161
0.723511 0.492004 0.882019
0.777527 0.470490 0.870667
0.000000 0.644012 0.869354
0.001770 0.647491 0.872650
0.019836 0.653870 0.879028
0.144226 0.667603 0.893402
0.326843 0.693542 0.917419
0.560394 0.727020 0.921814
0.737335 0.752075 0.915619
0.851746 0.749817 0.902649
0.914734 0.741913 0.891663
0.000000 0.722809 0.807617
0.000885 0.727325 0.811554
0.012604 0.736053 0.819580
0.112854 0.755096 0.837524
0.316528 0.793701 0.870789
0.611145 0.838928 0.901764
0.816833 0.881073 0.915741
0.928711 0.896454 0.909637
0.984650 0.899475 0.902374
0.000000 0.746613 0.745575
0.000092 0.752625 0.749634
0.003998 0.764069 0.758026
0.061615 0.788452 0.776947
0.264740 0.837189 0.814148
0.601837 0.889130 0.861389
0.828064 0.933319 0.897797
0.934784 0.953766 0.911743
0.983246 0.961151 0.916077
0.000000 0.757019 0.705811
0.000000 0.763794 0.709869
0.000732 0.777191 0.718475
0.027832 0.805115 0.737793
0.227203 0.858551 0.776764
0.586945 0.912323 0.830109
0.823059 0.955780 0.879913
0.927704 0.976807 0.909393
0.972412 0.985596 0.923889
