public/quiet.cube
# Created by Benjamin (IWLTBAP): https://luts.iwltbap.com
# Copyright: (C) Copyright 2018 Triune Films and IWLTBAP SAS
# Cannot be resold, shared or otherwise redistributed
TITLE "Triune Films Cinematic LUTs V3 (RED REDlogFilm)"
LUT_3D_SIZE 33
0.005524 0.007904 0.008667
0.014862 0.007568 0.008057
0.027496 0.007141 0.007202
0.040771 0.006744 0.006378
0.057831 0.006195 0.005310
0.075775 0.005676 0.004242
0.102020 0.004913 0.003937
0.133026 0.004730 0.003937
0.164948 0.005463 0.003937
0.204651 0.005737 0.003937
0.246521 0.006927 0.004547
0.289246 0.007111 0.004730
0.332031 0.007111 0.003937
0.375610 0.006226 0.003174
0.420837 0.004608 0.002228
0.465576 0.002991 0.000793
0.507263 0.002258 0.000702
0.555237 0.001343 0.000000
0.597900 0.000793 0.000000
0.638306 0.000793 0.000000
0.679199 0.000000 0.000000
0.714233 0.000000 0.000000
0.749512 0.000000 0.000000
0.781830 0.000000 0.000000
0.811035 0.000000 0.000000
0.833801 0.000000 0.000000
0.856750 0.000000 0.000000
0.876434 0.000000 0.000000
0.896271 0.000000 0.000000
0.909515 0.000000 0.000000
0.926208 0.000000 0.000000
0.938995 0.000000 0.000000
0.948486 0.000000 0.000000
0.004883 0.011932 0.010864
0.013306 0.011932 0.009918
0.025940 0.011505 0.009064
0.038666 0.011414 0.007935
0.055542 0.010986 0.006866
0.073059 0.010651 0.005798
0.098907 0.010223 0.004883
0.129730 0.010345 0.004578
0.161591 0.011078 0.004242
0.201508 0.011902 0.004028
0.243652 0.013458 0.004242
0.287018 0.014252 0.004425
0.330383 0.014557 0.003632
0.374481 0.014099 0.002838
0.420380 0.012817 0.002045
0.465729 0.011414 0.000793
0.507904 0.010376 0.000488
0.556580 0.009125 0.000000
0.599640 0.008087 0.000000
0.640320 0.007660 0.000000
0.681641 0.006866 0.000000
0.716949 0.006531 0.000000
0.752441 0.006226 0.000000
0.784851 0.006134 0.000000
0.814148 0.005920 0.000000
0.836945 0.005920 0.000000
0.859833 0.005737 0.000000
0.879486 0.005615 0.000000
0.899292 0.005615 0.000000
0.912476 0.005615 0.000000
0.929138 0.005554 0.000000
0.941864 0.005310 0.000000
0.951324 0.005310 0.000000
0.004059 0.017426 0.013794
0.012451 0.017426 0.012878
0.023834 0.017426 0.011597
0.036469 0.017365 0.010406
0.052704 0.017303 0.008972
0.069611 0.017303 0.007904
0.094879 0.017242 0.006409
0.125275 0.017853 0.005493
0.157043 0.018646 0.004669
0.197021 0.019897 0.004456
0.239746 0.022186 0.003937
0.283539 0.023560 0.003998
0.327942 0.024689 0.003204
0.372864 0.024628 0.002411
0.419586 0.023804 0.001617
0.465729 0.022766 0.000793
0.508636 0.021332 0.000061
0.558075 0.019653 0.000000
0.601837 0.018188 0.000000
0.643066 0.016907 0.000000
0.684845 0.016235 0.000000
0.720520 0.015381 0.000000
0.756317 0.014801 0.000000
0.788910 0.014557 0.000000
0.818329 0.013916 0.000000
0.841187 0.013916 0.000000
0.864105 0.013733 0.000000
0.883636 0.013184 0.000000
0.903351 0.013184 0.000000
0.916534 0.013184 0.000000
0.933136 0.013123 0.000000
0.945801 0.012726 0.000000
0.955200 0.012451 0.000000
0.003204 0.023224 0.017090
0.010681 0.023560 0.016174
0.021912 0.023590 0.014893
0.033539 0.023590 0.013275
0.049438 0.023804 0.011597
0.065796 0.024323 0.010010
0.090668 0.025055 0.008148
0.120758 0.026062 0.006378
0.152374 0.027283 0.005157
0.192535 0.028961 0.004517
0.235687 0.031677 0.003937
0.280273 0.033752 0.003571
0.325409 0.035461 0.002991
0.371216 0.035980 0.002014
0.418793 0.035431 0.001221
0.465820 0.034332 0.000793
0.509399 0.032776 0.000000
0.559692 0.030609 0.000000
0.604065 0.028992 0.000000
0.645752 0.027588 0.000000
0.688049 0.026245 0.000000
0.724091 0.025085 0.000000
0.760162 0.024323 0.000000
0.792938 0.023682 0.000000
0.822479 0.022705 0.000000
0.845367 0.022614 0.000000
0.868225 0.022430 0.000000
0.887756 0.021790 0.000000
0.907410 0.021454 0.000000
0.920441 0.021454 0.000000
0.937012 0.021423 0.000000
0.949585 0.020996 0.000000
0.958954 0.020691 0.000000
0.002258 0.030731 0.021545
0.009521 0.031036 0.020508
0.019623 0.031464 0.019257
0.030701 0.031738 0.017639
0.045380 0.032013 0.015411
0.061157 0.033081 0.013275
0.085327 0.034637 0.010681
0.115021 0.036591 0.007996
0.146545 0.038452 0.005951
0.186890 0.040771 0.004608
0.230438 0.043732 0.003845
0.275879 0.046570 0.003052
0.322083 0.049103 0.002899
0.369080 0.050476 0.001495
0.417694 0.050415 0.000793
0.465790 0.048981 0.000793
0.510315 0.047516 0.000000
0.561462 0.045013 0.000000
0.606720 0.042847 0.000000
0.649078 0.041382 0.000000
0.691895 0.039185 0.000092
0.728394 0.037872 0.000000
0.764862 0.036713 0.000000
0.797913 0.035492 0.000000
0.827606 0.034546 0.000000
0.850494 0.033936 0.000000
0.873352 0.033752 0.000000
0.892822 0.033081 0.000000
0.912415 0.032410 0.000000
0.925385 0.032196 0.000000
0.941742 0.032196 0.000000
0.954285 0.031830 0.000000
0.963593 0.031525 0.000000
0.001740 0.038696 0.026825
0.008575 0.038971 0.025604
0.018036 0.039398 0.024017
0.028107 0.040131 0.022400
0.041748 0.040955 0.020172
0.056122 0.042419 0.017517
0.079498 0.044342 0.013947
0.109070 0.047577 0.010651
0.140839 0.050110 0.007538
0.181335 0.053131 0.005157
0.225464 0.056305 0.003357
0.271667 0.059937 0.002838
0.318726 0.062927 0.002380
0.366791 0.064819 0.001495
0.416412 0.065094 0.000793
0.465424 0.063934 0.000793
0.510925 0.062317 0.000000
0.563019 0.059845 0.000000
0.609039 0.057526 0.000000
0.652069 0.055237 0.000000
0.695496 0.052979 0.000641
0.732330 0.051300 0.000427
0.769226 0.049957 0.000000
0.802521 0.048401 0.000000
0.832275 0.047119 0.000000
0.855194 0.046448 0.000000
0.878052 0.045929 0.000000
0.897461 0.045319 0.000000
0.916901 0.044250 0.000000
0.929810 0.043854 0.000000
0.946106 0.043579 0.000000
0.958527 0.043579 0.000000
0.967773 0.043427 0.000000
0.000977 0.050507 0.035492
0.006897 0.050995 0.033936
0.015320 0.051605 0.031982
0.024200 0.052795 0.029938
0.036255 0.054138 0.027374
0.049377 0.055389 0.024231
0.070831 0.058044 0.019928
0.099854 0.061859 0.015106
0.132355 0.066528 0.010498
0.173615 0.071045 0.006622
0.218536 0.075378 0.004089
0.265778 0.079193 0.002228
0.314117 0.082611 0.001770
0.363617 0.085205 0.000977
0.414612 0.086212 0.000793
0.464905 0.085541 0.000641
0.511566 0.084076 0.000000
0.564941 0.081299 0.000000
0.611908 0.078827 0.000000
0.655823 0.076324 0.000610
0.700012 0.073486 0.000793
0.737366 0.071747 0.000793
0.774689 0.069580 0.000610
0.808350 0.068146 0.000610
0.838257 0.066498 0.000610
0.861237 0.065582 0.000610
0.884033 0.064697 0.000610
0.903351 0.063904 0.000549
0.922668 0.062988 0.000000
0.935455 0.062164 0.000000
0.951599 0.061371 0.000000
0.963867 0.061066 0.000000
0.973022 0.060974 0.000000
0.000793 0.065521 0.046600
0.005463 0.066376 0.044891
0.012085 0.067444 0.042633
0.020050 0.068756 0.040253
0.030731 0.070465 0.037140
0.042725 0.072174 0.033447
0.061646 0.074432 0.028351
0.088257 0.077942 0.022491
0.120270 0.083984 0.016022
0.164032 0.091522 0.009399
0.210815 0.097778 0.004974
0.259247 0.102478 0.002350
0.308990 0.106171 0.001434
0.359833 0.109344 0.000793
0.412476 0.111206 0.000793
0.464020 0.110992 0.000122
0.511932 0.109680 0.000000
0.566650 0.107239 0.000244
0.614655 0.104675 0.000671
0.659454 0.102112 0.000793
0.704468 0.099365 0.000793
0.742340 0.097168 0.000793
0.780121 0.094818 0.000793
0.814056 0.093079 0.000793
0.844086 0.091217 0.000793
0.867126 0.090088 0.000793
0.889893 0.088837 0.000793
0.909119 0.087585 0.000793
0.928314 0.086548 0.000763
0.941010 0.085693 0.000336
0.957001 0.084595 0.000000
0.969116 0.083862 0.000000
0.978149 0.083466 0.000000
0.000061 0.082550 0.058960
0.004120 0.083649 0.057281
0.009613 0.085083 0.054962
0.016266 0.086456 0.052277
0.025330 0.088257 0.048767
0.035919 0.090302 0.044983
0.053284 0.093048 0.038727
0.077393 0.096771 0.031158
0.106232 0.100586 0.023590
0.150970 0.109619 0.014343
0.202026 0.120178 0.006927
0.252899 0.126617 0.002502
0.304108 0.131226 0.000854
0.356323 0.134583 0.000793
0.410217 0.136627 0.000671
0.462952 0.137238 0.000000
0.511841 0.136322 0.000000
0.567749 0.134521 0.000732
0.616699 0.132263 0.000793
0.662323 0.129791 0.000793
0.707947 0.127075 0.000793
0.746307 0.124756 0.000793
0.784393 0.122620 0.000793
0.818573 0.120514 0.000793
0.848755 0.118500 0.000793
0.871796 0.117065 0.000793
0.894501 0.115631 0.000793
0.913727 0.114014 0.000793
0.932800 0.112640 0.000793
0.945374 0.111725 0.000793
0.961212 0.110565 0.000671
0.973297 0.109833 0.000244
0.982269 0.109253 0.000000
0.000000 0.105347 0.075684
0.002655 0.106628 0.074005
0.006866 0.108307 0.071747
0.011505 0.110138 0.068787
0.018494 0.112396 0.064850
0.027130 0.114624 0.060699
0.042145 0.117981 0.054047
0.063690 0.121857 0.044708
0.090973 0.125916 0.034912
0.131439 0.131592 0.023193
0.184265 0.142334 0.012177
0.242950 0.155182 0.004181
0.298309 0.162933 0.001434
0.352325 0.167267 0.000153
0.407562 0.169800 0.000000
0.461517 0.170837 0.000000
0.511414 0.170593 0.000000
0.568481 0.169434 0.000793
0.618378 0.167786 0.000793
0.664673 0.165894 0.000793
0.710907 0.163727 0.001404
0.749725 0.161865 0.001587
0.788147 0.159729 0.001587
0.822540 0.157715 0.001587
0.852875 0.155670 0.001587
0.875946 0.153900 0.001556
0.898651 0.152283 0.000824
0.917816 0.150940 0.000793
0.936829 0.149353 0.000793
0.949341 0.148254 0.000793
0.965118 0.146942 0.000732
0.977112 0.145874 0.000305
0.985992 0.145081 0.000000
0.000000 0.132294 0.094116
0.001862 0.133667 0.092468
0.004639 0.135498 0.090271
0.007996 0.137421 0.087585
0.012878 0.139893 0.083710
0.018738 0.142487 0.079102
0.031006 0.145966 0.071442
0.049225 0.150360 0.061340
0.073334 0.154724 0.049103
0.111816 0.160278 0.034393
0.160797 0.166962 0.020233
0.222473 0.179474 0.008667
0.287811 0.194244 0.002502
0.347504 0.202972 0.000702
0.404694 0.206848 0.000000
0.459778 0.208649 0.000000
0.510559 0.208984 0.000000
0.568542 0.208588 0.000793
0.619171 0.207733 0.000793
0.666168 0.206635 0.000793
0.712891 0.205170 0.001587
0.751984 0.203613 0.001587
0.790710 0.201904 0.001587
0.825287 0.200073 0.001587
0.855774 0.198212 0.001587
0.878906 0.196625 0.001587
0.901672 0.194977 0.001587
0.920868 0.193512 0.001373
0.939911 0.191925 0.000793
0.952423 0.190887 0.000793
0.968170 0.189514 0.000732
0.980164 0.188446 0.000305
0.989044 0.187653 0.000000
0.000000 0.162720 0.112793
0.000946 0.164215 0.111450
0.002594 0.166138 0.109467
0.004364 0.168213 0.106934
0.007629 0.170746 0.103424
0.012238 0.173523 0.098938
0.020844 0.177399 0.091064
0.034912 0.182037 0.080139
0.055023 0.186890 0.066864
0.090118 0.192688 0.048676
0.136963 0.199036 0.030609
0.195160 0.206085 0.015228
0.265778 0.220520 0.005280
0.337433 0.237457 0.001038
0.400970 0.246765 0.000000
0.457916 0.250244 0.000000
0.509521 0.251526 0.000000
0.568176 0.251862 0.000793
0.619263 0.251648 0.000793
0.666595 0.251129 0.000793
0.713654 0.250336 0.001587
0.753052 0.249359 0.001587
0.791931 0.248138 0.001587
0.826721 0.246765 0.001892
0.857361 0.245392 0.001617
0.880707 0.244110 0.001587
0.903595 0.242554 0.001587
0.922882 0.241211 0.001526
0.941986 0.239807 0.000885
0.954590 0.238831 0.000793
0.970428 0.237610 0.000732
0.982483 0.236664 0.000305
0.991394 0.235931 0.000000
0.000000 0.196442 0.130829
0.000458 0.197998 0.129700
0.001312 0.200073 0.128021
0.002350 0.202271 0.125946
0.004059 0.205048 0.122986
0.007141 0.207886 0.118988
0.012665 0.212036 0.111725
0.022491 0.217010 0.100983
0.038086 0.222107 0.087006
0.066895 0.228546 0.067139
0.109558 0.235138 0.044983
0.166718 0.241882 0.025146
0.235046 0.249237 0.010590
0.312927 0.264343 0.003204
0.391388 0.284210 0.000031
0.455017 0.294373 0.000000
0.508148 0.297577 0.000000
0.567474 0.299011 0.000000
0.618835 0.299500 0.000793
0.666290 0.299500 0.000793
0.713409 0.299133 0.001251
0.752991 0.298737 0.001587
0.791992 0.297882 0.001587
0.826965 0.297028 0.002319
0.857880 0.295929 0.002197
0.881378 0.294983 0.002136
0.904541 0.293854 0.001587
0.924011 0.292847 0.001526
0.943359 0.291718 0.000885
0.956085 0.290955 0.000793
0.972076 0.289917 0.000732
0.984283 0.289154 0.000305
0.993286 0.288574 0.000000
0.000000 0.233765 0.147827
0.000214 0.235352 0.146912
0.000641 0.237549 0.145599
0.001068 0.239807 0.143921
0.001709 0.242676 0.141479
0.003296 0.245728 0.138184
0.006561 0.250153 0.131897
0.012726 0.255493 0.122070
0.022980 0.260956 0.108582
0.044830 0.267853 0.087769
0.080444 0.274872 0.063171
0.133423 0.281677 0.038452
0.202026 0.288391 0.018616
0.279602 0.295868 0.006134
0.364868 0.312164 0.001434
0.443909 0.333069 0.000000
0.504822 0.344360 0.000000
0.566315 0.348999 0.000000
0.618073 0.350647 0.000000
0.665588 0.351196 0.000702
0.712646 0.351318 0.000793
0.752136 0.351196 0.000916
0.791260 0.350830 0.001587
0.826416 0.350281 0.001587
0.857513 0.349518 0.001587
0.881317 0.348877 0.001587
0.904785 0.348083 0.001495
0.924561 0.347351 0.001495
0.944214 0.346497 0.000885
0.957123 0.345947 0.000702
0.973389 0.345245 0.000702
0.985809 0.344696 0.000305
0.994965 0.344269 0.000000
0.000000 0.274597 0.163513
0.000000 0.276276 0.162750
0.000000 0.278534 0.161713
0.000244 0.280853 0.160339
0.000763 0.283813 0.158325
0.001282 0.286835 0.155579
0.002625 0.291412 0.150299
0.006073 0.297028 0.141846
0.011688 0.302948 0.129913
0.025970 0.310425 0.109955
0.053314 0.318146 0.084595
0.097382 0.325500 0.056274
0.162415 0.331940 0.030273
0.242920 0.338196 0.012482
0.330048 0.345764 0.003021
0.416016 0.361877 0.000763
0.491455 0.382874 0.000000
0.562408 0.397919 0.000000
0.616577 0.403564 0.000000
0.664581 0.405579 0.000000
0.711639 0.406464 0.000488
0.751068 0.406708 0.000793
0.790192 0.406708 0.000793
0.825439 0.406433 0.000793
0.856720 0.405975 0.000793
0.880768 0.405579 0.000793
0.904541 0.405090 0.000793
0.924622 0.404602 0.000793
0.944611 0.404053 0.000793
0.957855 0.403687 0.000488
0.974457 0.403229 0.000000
0.987152 0.402802 0.000000
0.996521 0.402496 0.000000
0.000000 0.316193 0.176727
0.000000 0.317871 0.175903
0.000000 0.320099 0.174805
0.000000 0.322510 0.173462
0.000000 0.325623 0.171692
0.000458 0.328705 0.169342
0.001221 0.333282 0.164948
0.002563 0.338959 0.157776
0.005554 0.345001 0.147858
0.013428 0.352875 0.130341
0.031830 0.361298 0.106079
0.065582 0.369446 0.076202
0.121887 0.376434 0.045563
0.201080 0.381927 0.021271
0.294342 0.387512 0.006836
0.383850 0.394623 0.001404
0.462982 0.408936 0.000000
0.549225 0.434479 0.000000
0.611877 0.449921 0.000000
0.662689 0.456848 0.000000
0.710602 0.459961 0.000000
0.750092 0.461182 0.000000
0.789185 0.461578 0.000458
0.824463 0.461670 0.000641
0.855927 0.461517 0.000793
0.880157 0.461365 0.000641
0.904205 0.461090 0.000641
0.924561 0.460785 0.000641
0.944946 0.460510 0.000641
0.958405 0.460266 0.000488
0.975281 0.459869 0.000000
0.988281 0.459656 0.000000
0.997864 0.459473 0.000000
0.000000 0.355408 0.186340
0.000000 0.357086 0.185425
0.000000 0.359314 0.184174
0.000000 0.361725 0.182770
0.000000 0.364777 0.180908
0.000000 0.367859 0.178680
0.000488 0.372375 0.174805
0.000793 0.377838 0.168762
0.002136 0.383728 0.160400
0.006714 0.391754 0.145386
0.017883 0.400543 0.123474
0.042603 0.409454 0.094055
0.088593 0.417358 0.060791
0.162506 0.423248 0.030762
0.258270 0.427673 0.011139
0.355316 0.432495 0.002838
0.437622 0.439270 0.000702
0.526031 0.457336 0.000000
0.599030 0.481049 0.000000
0.657379 0.497223 0.000000
0.708527 0.505951 0.000000
0.749115 0.509827 0.000000
0.788483 0.511505 0.000000
0.823853 0.512177 0.000000
0.855347 0.512390 0.000000
0.879700 0.512421 0.000000
0.903900 0.512360 0.000000
0.924438 0.512268 0.000000
0.945038 0.512177 0.000000
0.958710 0.512054 0.000000
0.975891 0.511902 0.000000
0.989044 0.511719 0.000000
0.998779 0.511597 0.000000
0.000000 0.400757 0.194214
0.000000 0.402283 0.192993
0.000000 0.404419 0.191559
0.000000 0.406586 0.189819
0.000000 0.409454 0.187622
0.000000 0.412354 0.185181
0.000000 0.416656 0.181213
0.000000 0.421814 0.175659
0.000732 0.427399 0.168457
0.002777 0.435089 0.155853
0.009247 0.443970 0.136627
0.024567 0.453583 0.109222
0.059906 0.462585 0.074432
0.124756 0.469635 0.040588
0.218964 0.474121 0.015808
0.322327 0.477081 0.004333
0.412231 0.481140 0.000702
0.502960 0.489227 0.000000
0.575714 0.504730 0.000000
0.642090 0.528076 0.000000
0.701355 0.548218 0.000000
0.745941 0.559143 0.000000
0.787140 0.565033 0.000000
0.823242 0.568024 0.000000
0.855011 0.569336 0.000000
0.879425 0.569733 0.000000
0.903748 0.570007 0.000000
0.924408 0.570099 0.000000
0.945129 0.570160 0.000000
0.958893 0.570190 0.000000
0.976227 0.570160 0.000000
0.989594 0.570129 0.000000
0.999451 0.570129 0.000000
0.000000 0.439972 0.198425
0.000000 0.441406 0.196899
0.000000 0.443359 0.194977
0.000000 0.445343 0.192871
0.000000 0.447937 0.190155
0.000000 0.450562 0.187317
0.000000 0.454529 0.182892
0.000000 0.459381 0.177216
0.000000 0.464691 0.170197
0.001068 0.471924 0.158234
0.005096 0.480560 0.140442
0.016022 0.490326 0.114502
0.043396 0.500183 0.080688
0.100769 0.508545 0.045593
0.191254 0.514008 0.018524
0.297516 0.516602 0.005646
0.392731 0.518677 0.000885
0.488586 0.523590 0.000000
0.561096 0.531769 0.000000
0.625092 0.546814 0.000000
0.688568 0.571167 0.000000
0.738586 0.591064 0.000000
0.783539 0.604462 0.000000
0.821625 0.612213 0.000000
0.854309 0.616180 0.000000
0.879089 0.618042 0.000000
0.903595 0.619110 0.000000
0.924377 0.619598 0.000000
0.945190 0.619873 0.000000
0.958984 0.619995 0.000000
0.976410 0.620087 0.000000
0.989838 0.620178 0.000000
0.999786 0.620239 0.000000
0.000000 0.475739 0.200134
0.000000 0.477081 0.198395
0.000000 0.478851 0.196075
0.000000 0.480713 0.193512
0.000000 0.483093 0.190186
0.000000 0.485504 0.186676
0.000000 0.489105 0.181610
0.000000 0.493500 0.175232
0.000000 0.498413 0.167603
0.001007 0.505371 0.155182
0.003418 0.513763 0.137573
0.011963 0.523499 0.112427
0.034790 0.533722 0.080200
0.085571 0.543152 0.045959
0.172150 0.549957 0.019135
0.278961 0.553345 0.005646
0.377869 0.554718 0.001465
0.477905 0.557159 0.000000
0.552704 0.562683 0.000000
0.615295 0.571350 0.000000
0.675629 0.587402 0.000000
0.727203 0.608887 0.000000
0.776489 0.630493 0.000000
0.817841 0.645447 0.000000
0.852264 0.654236 0.000000
0.877960 0.658875 0.000000
0.903015 0.661987 0.000000
0.924133 0.663849 0.000000
0.945038 0.664948 0.000000
0.958923 0.665405 0.000000
0.976440 0.665833 0.000000
0.989899 0.666016 0.000000
0.999878 0.666138 0.000000
0.000000 0.510590 0.199677
0.000000 0.511780 0.197449
0.000000 0.513428 0.194580
0.000000 0.515137 0.191650
0.000000 0.517365 0.187897
0.000000 0.519592 0.183777
0.000000 0.522858 0.177734
0.000000 0.526978 0.170074
0.000000 0.531586 0.161255
0.000214 0.538147 0.147369
0.002655 0.546326 0.128845
0.009735 0.555878 0.103699
0.030273 0.566315 0.073090
0.077637 0.576416 0.041687
0.160248 0.584595 0.017242
0.266174 0.589264 0.005035
0.367126 0.591125 0.000977
0.470673 0.592346 0.000000
0.547272 0.595306 0.000000
0.610291 0.601318 0.000000
0.668427 0.611359 0.000000
0.716919 0.624969 0.000000
0.766357 0.645874 0.000000
0.810516 0.667175 0.000000
0.847748 0.683258 0.000000
0.875031 0.692657 0.000000
0.901245 0.699554 0.000000
0.922974 0.703888 0.000000
0.944458 0.707123 0.000000
0.958496 0.708496 0.000000
0.976166 0.709930 0.000000
0.989746 0.710754 0.000000
0.999786 0.711182 0.000000
0.000000 0.539337 0.197601
0.000000 0.540436 0.195099
0.000000 0.541992 0.191864
0.000000 0.543610 0.188263
0.000000 0.545685 0.183777
0.000000 0.547760 0.179169
0.000000 0.550934 0.171997
0.000000 0.554871 0.162994
0.000000 0.559265 0.152802
0.000427 0.565613 0.137360
0.002655 0.573456 0.117615
0.009949 0.582886 0.092346
0.030029 0.593414 0.063477
0.075562 0.603851 0.035400
0.156189 0.612976 0.014282
0.260620 0.618958 0.004181
0.361755 0.621735 0.000702
0.466980 0.623077 0.000000
0.544922 0.624664 0.000000
0.608276 0.628479 0.000000
0.665802 0.635895 0.000000
0.712463 0.645355 0.000000
0.759521 0.659760 0.000000
0.803040 0.678711 0.000000
0.841888 0.698822 0.000000
0.870728 0.713104 0.000000
0.898224 0.724762 0.000000
0.920776 0.732208 0.000000
0.942871 0.738190 0.000000
0.957367 0.741516 0.000000
0.975372 0.744507 0.000000
0.989136 0.746368 0.000000
0.999298 0.747467 0.000000
0.000000 0.567688 0.194153
0.000000 0.568756 0.191376
0.000000 0.570221 0.187683
0.000000 0.571777 0.183533
0.000000 0.573792 0.178253
0.000000 0.575806 0.172485
0.000000 0.578827 0.164154
0.000000 0.582611 0.153778
0.000000 0.586853 0.142059
0.001251 0.592926 0.124878
0.004028 0.600494 0.103699
0.011780 0.609711 0.078613
0.033234 0.620148 0.051575
0.078979 0.630829 0.027863
0.158112 0.640594 0.010834
0.260376 0.647736 0.003021
0.360107 0.651794 0.000702
0.465515 0.654053 0.000000
0.544312 0.655304 0.000000
0.608124 0.657501 0.000000
0.665253 0.662384 0.000000
0.711121 0.669739 0.000000
0.756226 0.679718 0.000000
0.797791 0.693115 0.000000
0.835602 0.709991 0.000000
0.864868 0.725525 0.000000
0.893372 0.740936 0.000000
0.916962 0.752777 0.000000
0.939972 0.763031 0.000000
0.954865 0.768372 0.000000
0.973419 0.774200 0.000061
0.987518 0.778015 0.000488
0.997833 0.780243 0.000610
0.000000 0.593292 0.189728
0.000000 0.594391 0.186432
0.000000 0.595856 0.182129
0.000000 0.597382 0.177429
0.000000 0.599304 0.171417
0.000000 0.601257 0.165100
0.000000 0.604187 0.155609
0.000000 0.607819 0.143768
0.000732 0.611847 0.130310
0.002228 0.617737 0.111542
0.005920 0.625092 0.089600
0.016083 0.633972 0.064972
0.039551 0.644226 0.040771
0.086761 0.654968 0.020691
0.165070 0.665192 0.007843
0.264923 0.673187 0.002106
0.362305 0.678375 0.000702
0.466400 0.681885 0.000000
0.545197 0.683563 0.000000
0.609436 0.685089 0.000000
0.666473 0.688446 0.000000
0.711700 0.693542 0.000000
0.755859 0.701721 0.000000
0.795776 0.711517 0.000000
0.831909 0.723419 0.000000
0.860168 0.735718 0.000000
0.888428 0.751038 0.000000
0.912354 0.764893 0.000031
0.935852 0.778076 0.000092
0.951172 0.786072 0.000305
0.970276 0.795227 0.000793
0.984650 0.800873 0.000793
0.995239 0.804871 0.000793
0.000000 0.616455 0.184174
0.000000 0.617493 0.180450
0.000000 0.618958 0.175690
0.000000 0.620422 0.170227
0.000000 0.622314 0.163544
0.000000 0.624207 0.156586
0.000000 0.626984 0.145996
0.000275 0.630493 0.132721
0.001007 0.634338 0.118225
0.003540 0.639984 0.098389
0.008911 0.647064 0.075867
0.021515 0.655670 0.052612
0.048584 0.665680 0.031158
0.098358 0.676392 0.015076
0.176819 0.686920 0.005219
0.273499 0.695465 0.001282
0.367920 0.701569 0.000000
0.469330 0.706421 0.000000
0.547424 0.708832 0.000000
0.611694 0.710571 0.000000
0.668884 0.712891 0.000000
0.713745 0.716492 0.000000
0.757172 0.722748 0.000000
0.796173 0.730804 0.000000
0.830994 0.740173 0.000000
0.857941 0.749023 0.000000
0.885040 0.760651 0.000000
0.908356 0.773193 0.000031
0.931519 0.786804 0.000702
0.946808 0.796234 0.000793
0.966095 0.807373 0.000793
0.980621 0.815430 0.000793
0.991364 0.820831 0.000793
0.000000 0.634552 0.178833
0.000000 0.635559 0.174744
0.000000 0.636963 0.169708
0.000000 0.638397 0.163818
0.000000 0.640228 0.156372
0.000000 0.642059 0.148743
0.000244 0.644745 0.137329
0.000671 0.648132 0.123138
0.001740 0.651855 0.107666
0.004974 0.657288 0.087311
0.012054 0.664124 0.065094
0.027283 0.672485 0.043243
0.057861 0.682220 0.024872
0.110291 0.692871 0.011261
0.188690 0.703491 0.003326
0.282806 0.712463 0.000641
0.374298 0.719177 0.000000
0.473114 0.724915 0.000000
0.550079 0.728210 0.000000
0.614166 0.730347 0.000000
0.671478 0.732452 0.000000
0.716187 0.735168 0.000000
0.759216 0.740112 0.000000
0.797546 0.746674 0.000000
0.831482 0.754669 0.000000
0.857697 0.762238 0.000000
0.883728 0.771301 0.000000
0.906097 0.781219 0.000000
0.928467 0.793121 0.000458
0.943207 0.801666 0.000793
0.962280 0.813629 0.000793
0.976624 0.822540 0.000793
0.987335 0.828979 0.000793
0.000000 0.652618 0.172668
0.000000 0.653625 0.168243
0.000000 0.654999 0.162598
0.000000 0.656403 0.156281
0.000000 0.658203 0.148285
0.000000 0.659973 0.139954
0.000610 0.662598 0.127625
0.000977 0.665771 0.112518
0.002441 0.669373 0.096344
0.007629 0.674591 0.076233
0.016388 0.681183 0.054810
0.035095 0.689209 0.034637
0.069031 0.698761 0.018860
0.124390 0.709229 0.008331
0.202881 0.719879 0.002045
0.294250 0.729187 0.000610
0.382416 0.736450 0.000000
0.478088 0.742950 0.000000
0.553619 0.747162 0.000000
0.617188 0.749878 0.000000
0.674530 0.752197 0.000000
