public/quiet.cube
# Created by Benjamin (IWLTBAP): https://luts.iwltbap.com
# Copyright: (C) Copyright 2018 Triune Films and IWLTBAP SAS
# Cannot be resold, shared or otherwise redistributed
TITLE "Triune Films Cinematic LUTs V3 (RED REDlogFilm)"
LUT_3D_SIZE 5
0.005524 0.007904 0.008667
0.164948 0.005463 0.003937
0.507263 0.002258 0.000702
0.811035 0.000000 0.000000
0.948486 0.000000 0.000000
0.000061 0.082550 0.058960
0.106232 0.100586 0.023590
0.511841 0.136322 0.000000
0.848755 0.118500 0.000793
0.982269 0.109253 0.000000
0.000000 0.355408 0.186340
0.002136 0.383728 0.160400
0.437622 0.439270 0.000702
0.855347 0.512390 0.000000
0.998779 0.511597 0.000000
0.000000 0.616455 0.184174
0.001007 0.634338 0.118225
0.367920 0.701569 0.000000
0.830994 0.740173 0.000000
0.991364 0.820831 0.000793
0.000000 0.724854 0.142303
0.008301 0.739166 0.047424
0.426758 0.802338 0.000000
0.845856 0.837219 0.000000
0.965973 0.856445 0.000000
0.001587 0.016418 0.066986
0.136505 0.003998 0.082947
0.473419 0.000702 0.080780
0.777252 0.000000 0.089996
0.915833 0.000000 0.092133
0.000000 0.098846 0.100861
0.110199 0.107666 0.091736
0.507294 0.122192 0.089783
0.838684 0.112671 0.099060
0.970612 0.105072 0.100769
0.000000 0.362366 0.213104
0.005768 0.399719 0.193085
0.454834 0.463348 0.061218
0.855957 0.514343 0.146240
0.998871 0.513916 0.144257
0.000000 0.612976 0.226624
0.000275 0.650879 0.182495
0.346069 0.733673 0.015503
0.839630 0.784760 0.043304
0.993286 0.836212 0.118530
0.000000 0.717072 0.207062
0.003021 0.756958 0.127014
0.391907 0.833313 0.002228
0.855072 0.894897 0.007141
0.971252 0.910309 0.020660
0.000000 0.033997 0.378235
0.083374 0.005066 0.388458
0.387512 0.000000 0.323181
0.612885 0.000000 0.328400
0.739288 0.000000 0.342102
0.000000 0.151367 0.363281
0.043152 0.144440 0.413757
0.430145 0.062378 0.358826
0.698853 0.033905 0.358368
0.840088 0.024567 0.366821
0.000000 0.403046 0.382874
0.021362 0.425385 0.402435
0.400116 0.500458 0.442963
0.860229 0.520294 0.477417
0.996887 0.511871 0.477844
0.000000 0.632294 0.386627
0.000000 0.655426 0.391327
0.270599 0.768677 0.376587
0.841339 0.844940 0.416412
0.998169 0.855713 0.497162
0.000000 0.719696 0.365112
0.000000 0.745972 0.366791
0.286407 0.871918 0.314850
0.849182 0.956482 0.344543
0.982391 0.975555 0.360840
0.000000 0.057861 0.692780
0.027313 0.019135 0.703827
0.366882 0.000000 0.605072
0.524017 0.000000 0.559845
0.596863 0.000000 0.562439
0.000000 0.193542 0.671204
0.004852 0.184326 0.709564
0.353394 0.083069 0.692963
0.566681 0.020172 0.611359
0.659454 0.006775 0.601654
0.000000 0.470245 0.733032
0.014221 0.482513 0.746002
0.250458 0.521454 0.797699
0.718323 0.500031 0.748108
0.890045 0.471527 0.734802
0.000000 0.679382 0.630035
0.007080 0.695282 0.640808
0.260468 0.770294 0.697754
0.840454 0.877655 0.788330
0.994202 0.884613 0.812561
0.000000 0.744171 0.578949
0.000000 0.763885 0.587677
0.190979 0.848724 0.633942
0.821442 0.956909 0.742706
0.969604 0.985352 0.777954
0.000000 0.066772 0.861359
0.005280 0.031250 0.859283
0.355438 0.000000 0.772217
0.501373 0.000000 0.708679
0.551086 0.000000 0.682617
0.000000 0.204651 0.833557
0.000793 0.195465 0.857849
0.284424 0.091919 0.868835
0.524689 0.022919 0.772156
0.589996 0.005981 0.731628
0.000000 0.488617 0.882202
0.005615 0.498077 0.888702
0.172028 0.535492 0.932526
0.616486 0.522430 0.902161
0.777527 0.470490 0.870667
0.000000 0.722809 0.807617
0.012604 0.736053 0.819580
0.316528 0.793701 0.870789
0.816833 0.881073 0.915741
0.984650 0.899475 0.902374
0.000000 0.757019 0.705811
0.000732 0.777191 0.718475
0.227203 0.858551 0.776764
0.823059 0.955780 0.879913
0.972412 0.985596 0.923889
