public/venom.cube
# Created by Benjamin (IWLTBAP): https://luts.iwltbap.com
# Copyright: (C) Copyright 2018 Triune Films and IWLTBAP SAS
# Cannot be resold, shared or otherwise redistributed
TITLE "Triune Films Cinematic LUTs V3 (RED REDlogFilm)"
LUT_3D_SIZE 5
0.000000 0.000000 0.000000
0.110199 0.005463 0.000000
0.407257 0.060028 0.026917
0.669220 0.150391 0.034180
0.765259 0.181580 0.039429
0.000793 0.060699 0.001526
0.108917 0.087463 0.000854
0.534637 0.176788 0.049713
0.811096 0.234985 0.050079
0.908569 0.258026 0.049500
0.000793 0.362762 0.187927
0.000793 0.402588 0.212585
0.583160 0.478210 0.006409
0.822144 0.541046 0.110931
0.943848 0.543671 0.125000
0.000000 0.549011 0.264282
0.000000 0.583862 0.283813
0.471375 0.655914 0.085663
0.882294 0.758850 0.006348
0.971863 0.816284 0.010529
0.000000 0.636078 0.259766
0.006958 0.684448 0.295441
0.454041 0.766144 0.240143
0.842560 0.835693 0.122314
0.931305 0.869934 0.185242
0.000000 0.006897 0.077484
0.086700 0.007751 0.089844
0.424713 0.053619 0.033875
0.731049 0.123322 0.037598
0.849365 0.153198 0.037415
0.014557 0.097137 0.116791
0.072937 0.116180 0.116516
0.510498 0.174347 0.073730
0.808441 0.223175 0.072113
0.921509 0.245056 0.068085
0.000000 0.398041 0.291046
0.000000 0.441406 0.332123
0.561066 0.477936 0.036041
0.823456 0.543854 0.180023
0.949402 0.547333 0.187500
0.000000 0.578827 0.351135
0.000000 0.618347 0.383820
0.457855 0.677887 0.223541
0.878723 0.764496 0.017029
0.972046 0.823212 0.032379
0.000000 0.665833 0.336334
0.007812 0.718231 0.390442
0.477722 0.796082 0.355927
0.844269 0.847382 0.304474
0.930573 0.882812 0.384888
0.006409 0.101593 0.308746
0.018127 0.121613 0.385681
0.308777 0.099915 0.360870
0.624023 0.127533 0.271576
0.736115 0.150940 0.230560
0.070312 0.248901 0.429810
0.069641 0.252380 0.444244
0.380493 0.223358 0.434723
0.707062 0.237213 0.338104
0.821442 0.256561 0.305634
0.162811 0.488068 0.574585
0.177551 0.524963 0.619446
0.435577 0.519409 0.536316
0.828949 0.549072 0.499146
0.948181 0.560669 0.479645
0.154480 0.670380 0.656921
0.167816 0.704071 0.693176
0.373840 0.781128 0.667511
0.829498 0.793396 0.548462
0.938049 0.834351 0.525421
0.009003 0.759674 0.658722
0.041565 0.791962 0.700562
0.445099 0.868347 0.708954
0.823303 0.885895 0.670013
0.917236 0.905365 0.732635
0.020264 0.190918 0.455322
0.037903 0.261108 0.601959
0.022552 0.209534 0.603821
0.553802 0.177246 0.553741
0.671783 0.179749 0.514496
0.068939 0.321625 0.612061
0.085327 0.353760 0.657257
0.053589 0.310883 0.663452
0.628387 0.289185 0.633789
0.748352 0.294769 0.599030
0.195129 0.525360 0.728760
0.203918 0.552979 0.760162
0.218353 0.568817 0.747772
0.730469 0.584229 0.755951
0.848572 0.584686 0.725494
0.236237 0.676422 0.807312
0.248077 0.703064 0.828613
0.282654 0.769653 0.844269
0.758728 0.816681 0.833771
0.887390 0.837463 0.829193
0.246582 0.759705 0.820374
0.252869 0.785248 0.838745
0.436798 0.863861 0.868927
0.814301 0.904938 0.884674
0.930542 0.924988 0.920532
0.027618 0.222260 0.507660
0.045959 0.290863 0.652985
0.029175 0.245758 0.695709
0.483032 0.212799 0.663086
0.634491 0.207428 0.623962
0.066833 0.338226 0.668701
0.078400 0.370697 0.719940
0.055756 0.333466 0.739471
0.562622 0.320435 0.741882
0.711304 0.321350 0.710754
0.233612 0.531128 0.777802
0.235840 0.558075 0.806335
0.223480 0.581390 0.811096
0.677704 0.612610 0.848419
0.819000 0.603424 0.829834
0.236115 0.676910 0.843079
0.247345 0.705139 0.867401
0.303833 0.765472 0.891602
0.741180 0.825592 0.891205
0.857544 0.839722 0.900635
0.274719 0.760986 0.871948
0.285736 0.784607 0.886383
0.454346 0.861816 0.911224
0.851013 0.908661 0.926208
0.950378 0.934937 0.949158
