public/venom.cube
# Created by Benjamin (IWLTBAP): https://luts.iwltbap.com
# Copyright: (C) Copyright 2018 Triune Films and IWLTBAP SAS
# Cannot be resold, shared or otherwise redistributed
TITLE "Triune Films Cinematic LUTs V3 (RED REDlogFilm)"
LUT_3D_SIZE 9
0.000000 0.000000 0.000000
0.034821 0.001678 0.000793
0.110199 0.005463 0.000000
0.244293 0.020172 0.011017
0.407257 0.060028 0.026917
0.565674 0.114868 0.031555
0.669220 0.150391 0.034180
0.729736 0.170044 0.037750
0.765259 0.181580 0.039429
0.001587 0.021057 0.000793
0.033752 0.024445 0.002380
0.117004 0.030762 0.007721
0.281128 0.049561 0.023468
0.470825 0.098450 0.033539
0.629944 0.147766 0.035126
0.730682 0.178314 0.039215
0.790619 0.196014 0.041107
0.826050 0.206573 0.041962
0.000793 0.060699 0.001526
0.014160 0.073853 0.002167
0.108917 0.087463 0.000854
0.318481 0.128082 0.057465
0.534637 0.176788 0.049713
0.705994 0.212250 0.048645
0.811096 0.234985 0.050079
0.873352 0.249390 0.049438
0.908569 0.258026 0.049500
0.000000 0.182770 0.048218
0.000000 0.204071 0.070251
0.061066 0.213898 0.011566
0.312653 0.260345 0.001099
0.542603 0.320435 0.085266
0.722015 0.335602 0.093262
0.847992 0.351929 0.083252
0.918671 0.361755 0.077240
0.956543 0.367188 0.073273
0.000793 0.362762 0.187927
0.000793 0.376526 0.196289
0.000793 0.402588 0.212585
0.257629 0.391937 0.000000
0.583160 0.478210 0.006409
0.759949 0.530670 0.100098
0.822144 0.541046 0.110931
0.895233 0.542542 0.120117
0.943848 0.543671 0.125000
0.000000 0.482788 0.245789
0.000000 0.494720 0.251007
0.000000 0.516876 0.262970
0.126587 0.531586 0.169525
0.538727 0.584015 0.000000
0.797638 0.654694 0.015350
0.921234 0.696014 0.084106
0.947693 0.729767 0.089996
0.958374 0.743073 0.091309
0.000000 0.549011 0.264282
0.000000 0.561005 0.271179
0.000000 0.583862 0.283813
0.002289 0.630524 0.298584
0.471375 0.655914 0.085663
0.755768 0.718506 0.002747
0.882294 0.758850 0.006348
0.940491 0.792511 0.009644
0.971863 0.816284 0.010529
0.000000 0.593475 0.268311
0.000000 0.611115 0.272919
0.001373 0.645477 0.279297
0.010437 0.703186 0.319031
0.422607 0.725708 0.140076
0.715790 0.777679 0.006531
0.851349 0.813477 0.011017
0.913635 0.834564 0.014465
0.948090 0.853790 0.016724
0.000000 0.636078 0.259766
0.000214 0.656097 0.263550
0.006958 0.684448 0.295441
0.030579 0.745270 0.369781
0.454041 0.766144 0.240143
0.714020 0.805573 0.144287
0.842560 0.835693 0.122314
0.900909 0.854584 0.150604
0.931305 0.869934 0.185242
0.000000 0.001678 0.025421
0.032013 0.002472 0.026337
0.105774 0.005463 0.013123
0.253052 0.018646 0.014343
0.445435 0.053589 0.027100
0.604126 0.109894 0.029358
0.699097 0.147552 0.033081
0.754181 0.169067 0.036652
0.786987 0.181610 0.038330
0.002563 0.023956 0.028412
0.025024 0.029083 0.028412
0.108154 0.035065 0.021088
0.275543 0.052429 0.030396
0.485901 0.095886 0.035828
0.656219 0.143585 0.035461
0.755890 0.175873 0.038544
0.813049 0.195190 0.040314
0.846954 0.206635 0.041016
0.000885 0.072205 0.037292
0.003723 0.085968 0.040649
0.100647 0.096863 0.015778
0.311615 0.132263 0.067596
0.530365 0.177032 0.059387
0.709717 0.211792 0.054901
0.823608 0.235016 0.052338
0.890350 0.249512 0.049377
0.923981 0.258728 0.048553
0.000000 0.198059 0.094452
0.000000 0.219299 0.116638
0.043213 0.228363 0.068909
0.307098 0.265930 0.000244
0.542084 0.322266 0.098694
0.724243 0.338745 0.102783
0.851166 0.355743 0.090057
0.922119 0.366089 0.082581
0.959930 0.371765 0.077698
0.000793 0.371246 0.208466
0.000793 0.385315 0.218079
0.000793 0.411346 0.236389
0.256012 0.400696 0.015228
0.585388 0.481720 0.005432
0.764252 0.535034 0.103882
0.826843 0.546692 0.114929
0.899750 0.548492 0.123474
0.948181 0.549652 0.128143
0.000000 0.488068 0.252991
0.000000 0.500183 0.259094
0.000000 0.522766 0.271606
0.130157 0.538116 0.180878
0.544464 0.589386 0.000763
0.802246 0.658691 0.015656
0.924713 0.700867 0.083496
0.951202 0.735565 0.089813
0.962250 0.749176 0.091248
0.000000 0.553528 0.267609
0.000000 0.565613 0.274567
0.000000 0.589142 0.287170
0.002472 0.637817 0.301880
0.477783 0.662140 0.093140
0.759766 0.723785 0.003418
0.884796 0.763763 0.007416
0.942596 0.797577 0.010529
0.974091 0.821442 0.012207
0.000000 0.599548 0.269165
0.000000 0.617798 0.273132
0.002106 0.652252 0.281006
0.011353 0.710571 0.326324
0.432800 0.732239 0.148315
0.721008 0.782959 0.008209
0.854614 0.817535 0.014221
0.916077 0.838898 0.018982
0.950378 0.858429 0.021332
0.000000 0.643494 0.259918
0.001892 0.661804 0.267944
0.008636 0.690765 0.301941
0.065948 0.752930 0.382202
0.471130 0.772614 0.257721
0.722992 0.810028 0.178772
0.846771 0.839325 0.182159
0.903259 0.859009 0.222076
0.932739 0.874756 0.260315
0.000000 0.006897 0.077484
0.007843 0.009918 0.089355
0.086700 0.007751 0.089844
0.227417 0.026703 0.032379
0.424713 0.053619 0.033875
0.607666 0.094452 0.036072
0.731049 0.123322 0.037598
0.805237 0.141907 0.038330
0.849365 0.153198 0.037415
0.002045 0.036316 0.090729
0.009338 0.042053 0.095367
0.080750 0.043213 0.098694
0.247925 0.061615 0.052765
0.459839 0.093658 0.043945
0.640228 0.129578 0.046753
0.761047 0.155182 0.048737
0.834442 0.172241 0.048676
0.877686 0.182770 0.047821
0.014557 0.097137 0.116791
0.019653 0.110840 0.129456
0.072937 0.116180 0.116516
0.281219 0.141479 0.100342
0.510498 0.174347 0.073730
0.688690 0.202454 0.073395
0.808441 0.223175 0.072113
0.880524 0.236877 0.069794
0.921509 0.245056 0.068085
0.000580 0.232758 0.196411
0.003113 0.253662 0.218994
0.000000 0.259369 0.201172
0.277588 0.277252 0.106506
0.526733 0.319855 0.144653
0.717285 0.337250 0.138306
0.845459 0.354095 0.122894
0.917297 0.364227 0.114990
0.955383 0.369812 0.109894
0.000000 0.398041 0.291046
0.000000 0.413391 0.304932
0.000000 0.441406 0.332123
0.217529 0.427124 0.189056
0.561066 0.477936 0.036041
0.749908 0.531921 0.137268
0.823456 0.543854 0.180023
0.900757 0.545410 0.188843
0.949402 0.547333 0.187500
0.000793 0.513763 0.335449
0.000183 0.527222 0.347717
0.000000 0.552185 0.371399
0.059967 0.572083 0.311737
0.519562 0.597321 0.161499
0.787079 0.655151 0.008728
0.918182 0.698914 0.103271
0.946503 0.734711 0.119690
0.959473 0.748810 0.133026
0.000000 0.578827 0.351135
0.000000 0.592285 0.362518
0.000000 0.618347 0.383820
0.000763 0.670715 0.411163
0.457855 0.677887 0.223541
0.744751 0.724731 0.067780
0.878723 0.764496 0.017029
0.939636 0.799103 0.023651
0.972046 0.823212 0.032379
0.000000 0.623810 0.349274
0.000000 0.643036 0.356567
0.000702 0.679138 0.371643
0.010071 0.741333 0.426270
0.419403 0.750885 0.255341
0.707672 0.787598 0.124664
0.849365 0.820618 0.047943
0.913910 0.842804 0.041260
0.949097 0.862732 0.042847
0.000000 0.665833 0.336334
0.001068 0.685486 0.347473
0.007812 0.718231 0.390442
0.050385 0.782135 0.469818
0.477722 0.796082 0.355927
0.720490 0.820526 0.288757
0.844269 0.847382 0.304474
0.901276 0.867340 0.346527
0.930573 0.882812 0.384888
0.000458 0.039459 0.187927
0.007355 0.052704 0.220978
0.018585 0.044678 0.220734
0.160797 0.043152 0.215485
0.374329 0.069458 0.146179
0.555359 0.092682 0.062469
0.678925 0.117371 0.044159
0.755310 0.133362 0.051697
0.801086 0.142670 0.054413
0.006317 0.087250 0.224976
0.010651 0.098328 0.238617
0.018433 0.088531 0.235138
0.174194 0.087677 0.237579
0.407501 0.108185 0.173859
0.589996 0.125793 0.097046
0.711823 0.148285 0.057098
0.787415 0.163849 0.060394
0.832855 0.173706 0.063751
0.049469 0.164001 0.256805
0.054352 0.181274 0.275146
0.055969 0.170044 0.262543
0.184021 0.175903 0.267212
0.455505 0.190369 0.213104
0.645111 0.200165 0.148804
0.767090 0.219025 0.086639
0.841766 0.233093 0.082458
0.885590 0.241760 0.084534
0.085602 0.293915 0.344727
0.093201 0.312408 0.365662
0.099823 0.315643 0.364441
0.204895 0.305786 0.318085
0.498230 0.325378 0.287689
0.703369 0.341888 0.236908
0.831818 0.358765 0.169128
0.903961 0.369720 0.149017
0.942841 0.375732 0.143372
0.078125 0.444305 0.426208
0.085327 0.459930 0.443634
0.098083 0.487854 0.475098
0.092041 0.475922 0.411255
0.515930 0.487823 0.309113
0.718475 0.530396 0.310913
0.822876 0.539398 0.324677
0.905518 0.542969 0.309448
0.950775 0.547546 0.294342
0.001526 0.562653 0.475342
0.002991 0.577362 0.492340
0.007782 0.603760 0.522888
0.001526 0.629272 0.514923
0.486206 0.635559 0.389313
0.755829 0.660248 0.310059
0.895630 0.700195 0.241486
0.926849 0.735718 0.216644
0.945251 0.748230 0.248627
0.000000 0.630707 0.495667
0.000000 0.645386 0.512238
0.000000 0.672455 0.540985
0.003174 0.722382 0.579559
0.439575 0.731628 0.445190
0.716583 0.742401 0.352539
0.857666 0.772125 0.295441
0.924164 0.804199 0.243042
0.958923 0.826141 0.201874
0.000000 0.677155 0.499084
0.000153 0.696411 0.511841
0.002594 0.731812 0.534210
0.015594 0.784058 0.589935
0.412292 0.804443 0.469574
0.683472 0.811066 0.375763
0.828430 0.831940 0.336334
0.899078 0.852264 0.320892
0.936920 0.869965 0.306427
0.000000 0.717438 0.491821
0.000366 0.737183 0.507721
0.009521 0.766754 0.554382
0.027740 0.815186 0.619873
0.478546 0.841248 0.540039
0.709167 0.849518 0.483276
0.831268 0.865814 0.498474
0.890259 0.881989 0.536682
0.920654 0.894623 0.570648
0.006409 0.101593 0.308746
0.012238 0.141815 0.382080
0.018127 0.121613 0.385681
0.020538 0.104797 0.371155
0.308777 0.099915 0.360870
0.512238 0.109467 0.308868
0.624023 0.127533 0.271576
0.692505 0.143311 0.246674
0.736115 0.150940 0.230560
0.016205 0.163025 0.369507
0.023041 0.189178 0.406830
0.024292 0.168854 0.405823
0.022430 0.150848 0.396698
0.339752 0.141754 0.390839
0.544647 0.146240 0.334808
0.655640 0.161621 0.297333
0.724060 0.176025 0.274017
0.767242 0.184113 0.259094
0.070312 0.248901 0.429810
0.081146 0.265106 0.448517
0.069641 0.252380 0.444244
0.053253 0.234863 0.433197
0.380493 0.223358 0.434723
0.592865 0.223755 0.373077
0.707062 0.237213 0.338104
0.777161 0.249634 0.317871
0.821442 0.256561 0.305634
0.119812 0.362183 0.491669
0.125885 0.375305 0.507263
0.132965 0.384949 0.519257
0.128265 0.357574 0.482086
0.402679 0.356903 0.473755
0.647583 0.364471 0.422089
0.777527 0.380035 0.395691
0.856079 0.387878 0.382660
0.901154 0.392273 0.374756
0.162811 0.488068 0.574585
0.167969 0.501312 0.590698
0.177551 0.524963 0.619446
0.193451 0.514709 0.585846
0.435577 0.519409 0.536316
0.682922 0.539642 0.509949
0.828949 0.549072 0.499146
0.906952 0.556427 0.487213
0.948181 0.560669 0.479645
0.173401 0.600433 0.631500
0.179565 0.613098 0.646851
0.189575 0.635071 0.672974
0.184509 0.662598 0.683411
0.406586 0.684723 0.628662
0.711029 0.684631 0.544098
0.863922 0.704102 0.545593
0.906128 0.736572 0.535889
0.940277 0.744904 0.541290
0.154480 0.670380 0.656921
0.160065 0.682404 0.670715
0.167816 0.704071 0.693176
0.169983 0.743805 0.722168
0.373840 0.781128 0.667511
0.683533 0.783630 0.582428
0.829498 0.793396 0.548462
0.900238 0.816711 0.534882
0.938049 0.834351 0.525421
0.107788 0.719238 0.662628
0.102570 0.735229 0.673706
0.090057 0.763611 0.692200
0.113861 0.798431 0.726257
0.359802 0.845428 0.675049
0.662994 0.854401 0.603668
0.807861 0.858490 0.571289
0.880310 0.870819 0.569031
0.920044 0.884033 0.568756
0.009003 0.759674 0.658722
0.011078 0.774689 0.671143
0.041565 0.791962 0.700562
0.106140 0.818787 0.739105
0.445099 0.868347 0.708954
0.696594 0.880707 0.664368
0.823303 0.885895 0.670013
0.885284 0.895905 0.701996
0.917236 0.905365 0.732635
0.013824 0.155212 0.396301
0.020844 0.195038 0.470367
0.026520 0.206573 0.521942
0.025085 0.172272 0.518799
0.122375 0.166718 0.504150
0.462555 0.147278 0.480713
0.594086 0.148254 0.438232
0.658813 0.154663 0.414673
0.695129 0.160126 0.401825
0.027496 0.216492 0.474243
0.034973 0.243805 0.522064
0.036804 0.245972 0.544464
0.029144 0.212555 0.545715
0.154877 0.205597 0.535065
0.491547 0.184723 0.508789
0.622925 0.185455 0.465515
0.687958 0.191895 0.442322
0.724152 0.197449 0.429779
0.072906 0.298859 0.548218
0.081207 0.312012 0.564056
0.081055 0.317932 0.578888
0.049774 0.286713 0.580688
0.191711 0.279663 0.576111
0.534973 0.259888 0.553986
0.670410 0.261688 0.511810
0.737061 0.268250 0.490082
0.773926 0.273499 0.478516
0.171082 0.395782 0.601440
0.177643 0.406891 0.614899
0.187958 0.426849 0.639771
0.158478 0.396729 0.621552
0.247772 0.400024 0.611206
0.585968 0.395691 0.613037
0.731781 0.400391 0.576294
0.802582 0.406708 0.557739
0.841583 0.411224 0.548065
0.189117 0.513428 0.669281
0.194366 0.524597 0.682983
0.203308 0.544189 0.706421
0.213318 0.541870 0.695343
0.321747 0.550629 0.667236
0.620544 0.562439 0.669098
0.771820 0.565796 0.637970
0.846161 0.571930 0.624359
0.887054 0.576324 0.618286
0.211792 0.614899 0.736450
0.215851 0.625092 0.747833
0.222900 0.642426 0.766418
0.233185 0.665649 0.782227
0.357330 0.688202 0.751221
0.641144 0.706360 0.727142
0.791992 0.717896 0.704865
0.873688 0.737885 0.707794
0.921661 0.743439 0.707764
0.235291 0.675598 0.760651
0.238129 0.685120 0.769714
0.242004 0.703094 0.784241
0.245178 0.739197 0.806030
0.301605 0.778748 0.791443
0.617798 0.808533 0.768951
0.788971 0.810730 0.718781
0.872803 0.821289 0.721466
0.916290 0.833679 0.730743
0.220734 0.723083 0.765015
0.220825 0.736542 0.772827
0.220825 0.760834 0.786438
0.226349 0.793060 0.808807
0.271973 0.843323 0.803741
0.612915 0.875885 0.780792
0.774719 0.879761 0.741455
0.863129 0.884186 0.735718
0.906494 0.893280 0.741150
0.200714 0.761780 0.765198
0.201935 0.773834 0.773376
0.210236 0.787933 0.788849
0.220123 0.815338 0.812103
0.422668 0.868317 0.818573
0.673309 0.893005 0.803253
0.810394 0.899231 0.794159
0.892944 0.905457 0.816956
0.928101 0.914185 0.851166
0.020264 0.190918 0.455322
0.027771 0.224121 0.520630
0.037903 0.261108 0.601959
0.027740 0.218292 0.612671
0.022552 0.209534 0.603821
0.377258 0.189880 0.593140
0.553802 0.177246 0.553741
0.631592 0.177216 0.528259
0.671783 0.179749 0.514496
0.034729 0.246490 0.535339
0.041992 0.270874 0.583466
0.050018 0.294403 0.623810
0.033722 0.252686 0.635468
0.030457 0.244598 0.630859
0.405304 0.224976 0.620850
0.581787 0.213989 0.582764
0.659790 0.215027 0.558289
0.699921 0.217560 0.544983
0.068939 0.321625 0.612061
0.074921 0.335022 0.632812
0.085327 0.353760 0.657257
0.055481 0.315582 0.666046
0.053589 0.310883 0.663452
0.448364 0.297180 0.665283
0.628387 0.289185 0.633789
0.707672 0.291809 0.611237
0.748352 0.294769 0.599030
0.151184 0.413971 0.669006
0.157501 0.424286 0.682190
0.169220 0.442932 0.705292
0.141327 0.419556 0.702118
0.151337 0.422913 0.695038
0.505035 0.432678 0.721710
0.690826 0.427277 0.704468
0.771545 0.429474 0.683655
0.812714 0.431580 0.672058
0.195129 0.525360 0.728760
0.198425 0.535370 0.740265
0.203918 0.552979 0.760162
0.205200 0.554565 0.759796
0.218353 0.568817 0.747772
0.552338 0.592896 0.759979
0.730469 0.584229 0.755951
0.808380 0.583740 0.735901
0.848572 0.584686 0.725494
0.222961 0.618958 0.780396
0.225128 0.627930 0.789581
0.228729 0.643402 0.805145
0.237274 0.665741 0.823944
0.297302 0.688202 0.805176
0.600159 0.717957 0.793030
0.741333 0.722839 0.788116
0.821228 0.726135 0.782959
0.863892 0.730957 0.780365
0.236237 0.676422 0.807312
0.240173 0.685425 0.814819
0.248077 0.703064 0.828613
0.265442 0.738190 0.853210
0.282654 0.769653 0.844269
0.615112 0.806458 0.841644
0.758728 0.816681 0.833771
0.841736 0.824127 0.827026
0.887390 0.837463 0.829193
0.255066 0.721466 0.816711
0.257446 0.734589 0.824615
0.260803 0.758545 0.838806
0.265778 0.790680 0.858215
0.277954 0.834625 0.861176
0.609802 0.873474 0.863312
0.750824 0.887115 0.857361
0.841309 0.894073 0.846832
0.904266 0.897919 0.845215
0.246582 0.759705 0.820374
0.248016 0.771179 0.827545
0.252869 0.785248 0.838745
0.258820 0.813751 0.856262
0.436798 0.863861 0.868927
0.689941 0.891998 0.871368
0.814301 0.904938 0.884674
0.898529 0.913940 0.902374
0.930542 0.924988 0.920532
0.024353 0.210938 0.490173
0.032532 0.240967 0.550171
0.043701 0.283478 0.640594
0.030334 0.244537 0.658905
0.026703 0.232910 0.663086
0.289642 0.221710 0.645142
0.513489 0.199097 0.623138
0.605072 0.195679 0.597382
0.650482 0.196259 0.583405
0.039337 0.262512 0.569214
0.045807 0.284851 0.615479
0.054718 0.313507 0.665497
0.037323 0.274170 0.682404
0.034332 0.264832 0.686829
0.321960 0.254211 0.671875
0.542114 0.234680 0.652283
0.633087 0.233032 0.628052
0.678436 0.234131 0.614807
0.066193 0.332611 0.647736
0.070679 0.345734 0.672424
0.079834 0.364929 0.695831
0.057678 0.330719 0.710449
0.054962 0.325836 0.714294
0.373230 0.321777 0.715149
0.590271 0.308289 0.703766
0.681305 0.309143 0.682159
0.726868 0.311035 0.670135
0.142792 0.422516 0.706512
0.148773 0.432678 0.718994
0.159790 0.450745 0.740906
0.136292 0.431061 0.741791
0.142212 0.434937 0.738373
0.446472 0.452789 0.771881
0.657532 0.444702 0.774414
0.747864 0.445282 0.754669
0.792938 0.446381 0.743042
0.215759 0.530029 0.760406
0.217651 0.539734 0.771393
0.221313 0.556824 0.790436
0.222626 0.561157 0.795380
0.213623 0.577484 0.790009
0.516449 0.607178 0.809753
0.699371 0.601318 0.817535
0.787720 0.596527 0.802917
0.830261 0.595764 0.791199
0.224487 0.620819 0.804932
0.226379 0.629272 0.813446
0.229675 0.644043 0.828064
0.236115 0.666626 0.848633
0.273560 0.689514 0.837311
0.563324 0.725464 0.834930
0.713776 0.732697 0.834015
0.801361 0.729797 0.837952
0.845245 0.731232 0.833160
0.235657 0.676849 0.830719
0.239410 0.686096 0.838593
0.247192 0.704376 0.853333
0.263184 0.739075 0.879486
0.302948 0.766083 0.874298
0.597076 0.807709 0.875641
0.750000 0.821655 0.867493
0.822632 0.830444 0.867035
0.863770 0.837769 0.872253
0.257263 0.722961 0.844391
0.263489 0.735901 0.853607
0.274353 0.759216 0.869781
0.286346 0.790314 0.888611
0.296173 0.831451 0.895874
0.611359 0.871643 0.900970
0.767975 0.886475 0.900818
0.846741 0.897003 0.905273
0.891235 0.905640 0.907532
0.268921 0.759888 0.853058
0.270538 0.770874 0.859894
0.273895 0.784668 0.868378
0.278656 0.813477 0.882751
0.447388 0.862274 0.895844
0.708618 0.891602 0.901367
0.839691 0.906097 0.912720
0.907776 0.920929 0.926208
0.940338 0.931366 0.941620
0.027618 0.222260 0.507660
0.035126 0.250580 0.565735
0.045959 0.290863 0.652985
0.032166 0.258270 0.685577
0.029175 0.245758 0.695709
0.216431 0.238098 0.673431
0.483032 0.212799 0.663086
0.584534 0.208069 0.638031
0.634491 0.207428 0.623962
0.041870 0.271423 0.586395
0.047943 0.292664 0.632172
0.054932 0.320587 0.691437
0.039642 0.285706 0.708344
0.036011 0.275696 0.718750
0.257233 0.269318 0.699524
0.512695 0.247772 0.691956
0.612885 0.244965 0.668549
0.662445 0.245148 0.655487
0.066833 0.338226 0.668701
0.070343 0.351654 0.697021
0.078400 0.370697 0.719940
0.058594 0.339294 0.735413
0.055756 0.333466 0.739471
0.320099 0.334351 0.742157
0.562622 0.320435 0.741882
0.662079 0.320068 0.722412
0.711304 0.321350 0.710754
0.138641 0.427368 0.727753
0.144501 0.437317 0.739502
0.155060 0.455292 0.761871
0.133606 0.437744 0.764252
0.138428 0.441254 0.762421
0.409027 0.463135 0.799133
0.632294 0.456848 0.808868
0.731262 0.454865 0.794464
0.779449 0.455414 0.782867
0.233612 0.531128 0.777802
0.235413 0.540771 0.788452
0.235840 0.558075 0.806335
0.239929 0.564148 0.815155
0.223480 0.581390 0.811096
0.494263 0.614471 0.838165
0.677704 0.612610 0.848419
0.774048 0.604980 0.841888
0.819000 0.603424 0.829834
0.221924 0.621796 0.820068
0.224304 0.630096 0.828400
0.228729 0.644592 0.842712
0.235596 0.665619 0.855438
0.260712 0.690125 0.856842
0.539032 0.729645 0.859711
0.698883 0.738708 0.861389
0.786713 0.735901 0.867462
0.835205 0.734344 0.866974
0.236115 0.676910 0.843079
0.239777 0.686340 0.851379
0.247345 0.705139 0.867401
0.259979 0.732086 0.882111
0.303833 0.765472 0.891602
0.579346 0.809570 0.896393
0.741180 0.825592 0.891205
0.815613 0.834106 0.893341
0.857544 0.839722 0.900635
0.256012 0.724487 0.860687
0.262177 0.737549 0.870483
0.273621 0.760773 0.887512
0.288696 0.786713 0.901062
0.312378 0.828674 0.913330
0.608582 0.871277 0.922943
0.771362 0.888306 0.923798
0.848114 0.900818 0.926239
0.889221 0.910278 0.928711
0.274719 0.760986 0.871948
0.280670 0.771271 0.879120
0.285736 0.784607 0.886383
0.289673 0.813416 0.898468
0.454346 0.861816 0.911224
0.719269 0.892120 0.917694
0.851013 0.908661 0.926208
0.916077 0.924805 0.936523
0.950378 0.934937 0.949158
