public/venom.cube
# Created by Benjamin (IWLTBAP): https://luts.iwltbap.com
# Copyright: (C) Copyright 2018 Triune Films and IWLTBAP SAS
# Cannot be resold, shared or otherwise redistributed
TITLE "Triune Films Cinematic LUTs V3 (RED REDlogFilm)"
LUT_3D_SIZE 33
0.000000 0.000000 0.000000
0.005920 0.000305 0.000305
0.013916 0.000732 0.000732
0.022980 0.001160 0.000793
0.034821 0.001678 0.000793
0.047363 0.002197 0.000793
0.066071 0.002960 0.000793
0.087280 0.004486 0.000122
0.110199 0.005463 0.000000
0.140076 0.007751 0.000000
0.171967 0.011932 0.000610
0.206726 0.016754 0.003998
0.244293 0.020172 0.011017
0.283020 0.025574 0.016724
0.325439 0.033997 0.020752
0.367493 0.046906 0.023987
0.407257 0.060028 0.026917
0.453491 0.075439 0.029419
0.493622 0.089447 0.030914
0.530182 0.102600 0.031555
0.565674 0.114868 0.031555
0.594177 0.125061 0.032349
0.622345 0.134521 0.032349
0.647400 0.143097 0.033234
0.669220 0.150391 0.034180
0.685730 0.155823 0.035187
0.702057 0.161102 0.036469
0.715851 0.165649 0.037109
0.729736 0.170044 0.037750
0.738861 0.172974 0.038177
0.750336 0.176636 0.038696
0.758911 0.179474 0.039124
0.765259 0.181580 0.039429
0.000305 0.004059 0.000305
0.006226 0.004364 0.000610
0.014252 0.004791 0.001038
0.023621 0.004883 0.001740
0.035492 0.005432 0.001831
0.048126 0.005951 0.002045
0.066681 0.007019 0.002045
0.088135 0.008514 0.001373
0.111298 0.009827 0.001251
0.141968 0.012665 0.001160
0.175232 0.016907 0.002167
0.212128 0.021118 0.006195
0.251404 0.024994 0.013031
0.291656 0.031097 0.018585
0.335419 0.040588 0.022308
0.378723 0.053467 0.025543
0.419189 0.066803 0.028137
0.465851 0.082031 0.030121
0.506073 0.095978 0.031372
0.542542 0.108856 0.031860
0.577789 0.120819 0.032166
0.606232 0.130615 0.032867
0.634155 0.139923 0.033264
0.658997 0.148193 0.034149
0.680634 0.155304 0.035126
0.697113 0.160645 0.035858
0.713409 0.165894 0.037079
0.727173 0.170380 0.037720
0.740997 0.174652 0.038361
0.750122 0.177521 0.038788
0.761566 0.181152 0.039276
0.770111 0.183868 0.039429
0.776459 0.185974 0.039734
0.000732 0.009521 0.000732
0.006653 0.009857 0.001038
0.014648 0.010254 0.001465
0.024078 0.010315 0.002258
0.036316 0.010468 0.003082
0.049133 0.011017 0.003632
0.067596 0.012360 0.003723
0.089203 0.014008 0.003052
0.112793 0.015717 0.002930
0.143860 0.018982 0.002411
0.179230 0.023651 0.004150
0.218231 0.027435 0.009155
0.260315 0.031311 0.015991
0.303101 0.038269 0.021118
0.348572 0.049438 0.024414
0.393585 0.062439 0.027649
0.435211 0.075836 0.029846
0.482574 0.091309 0.031372
0.522919 0.104889 0.032227
0.559235 0.117279 0.032288
0.594238 0.128937 0.033020
0.622589 0.138123 0.033295
0.650208 0.147308 0.034393
0.674774 0.155212 0.035431
0.696167 0.162048 0.036377
0.712524 0.167297 0.037140
0.728790 0.172424 0.037933
0.742493 0.176819 0.038574
0.756256 0.180908 0.039215
0.765350 0.183746 0.039642
0.776764 0.187286 0.040100
0.785309 0.189941 0.040100
0.791626 0.191925 0.040161
0.001160 0.014618 0.000793
0.005829 0.015228 0.001099
0.013641 0.015717 0.001526
0.023041 0.016510 0.001923
0.035492 0.016510 0.003113
0.048645 0.016754 0.004150
0.068207 0.017731 0.005402
0.090668 0.020172 0.005096
0.114685 0.022247 0.004974
0.146759 0.026215 0.005005
0.183533 0.030731 0.007294
0.225403 0.034729 0.012787
0.269928 0.039215 0.019135
0.315033 0.047333 0.023651
0.362183 0.059143 0.026886
0.408813 0.072327 0.029572
0.451202 0.085724 0.031433
0.499115 0.100922 0.032623
0.539429 0.114105 0.033051
0.575592 0.126099 0.033417
0.610229 0.137146 0.033844
0.638458 0.146057 0.034424
0.665924 0.154846 0.035614
0.690277 0.162537 0.036682
0.711609 0.169098 0.037628
0.727905 0.174225 0.038391
0.744141 0.179230 0.038940
0.757843 0.183502 0.039398
0.771606 0.187531 0.040039
0.780701 0.190186 0.040466
0.792084 0.193726 0.040924
0.800659 0.196411 0.040924
0.806976 0.198364 0.040924
0.001587 0.021057 0.000793
0.005951 0.021790 0.001099
0.012268 0.022644 0.001526
0.021240 0.023468 0.001831
0.033752 0.024445 0.002380
0.047272 0.024445 0.003967
0.067841 0.025116 0.006409
0.091980 0.027863 0.007629
0.117004 0.030762 0.007721
0.150208 0.035400 0.008392
0.188721 0.040283 0.011475
0.232971 0.044220 0.017212
0.281128 0.049561 0.023468
0.329498 0.059448 0.026947
0.378845 0.071594 0.029938
0.427368 0.085083 0.032135
0.470825 0.098450 0.033539
0.519318 0.113159 0.034210
0.559601 0.125793 0.034332
0.595581 0.137268 0.035004
0.629944 0.147766 0.035126
0.657898 0.156311 0.036133
0.685242 0.164581 0.037292
0.709442 0.171906 0.038269
0.730682 0.178314 0.039215
0.746948 0.183136 0.039886
0.763184 0.187988 0.040527
0.776886 0.192047 0.040527
0.790619 0.196014 0.041107
0.799713 0.198608 0.041504
0.811127 0.201935 0.041962
0.819702 0.204590 0.041962
0.826050 0.206573 0.041962
0.001587 0.027954 0.000793
0.005310 0.028900 0.001099
0.010681 0.030060 0.001526
0.019135 0.030884 0.001587
0.031128 0.031860 0.001831
0.045013 0.032379 0.002380
0.066071 0.033569 0.005798
0.092255 0.035797 0.010284
0.118774 0.039703 0.010895
0.153320 0.045563 0.012634
0.194153 0.051178 0.016205
0.239960 0.055481 0.022522
0.290100 0.061523 0.028717
0.340973 0.072510 0.031189
0.392975 0.085297 0.033112
0.443481 0.098572 0.034729
0.488129 0.111359 0.035645
0.537079 0.125793 0.035797
0.577332 0.137817 0.035980
0.613251 0.148499 0.036591
0.647400 0.158478 0.037231
0.675323 0.166565 0.038239
0.702545 0.174377 0.039429
0.726776 0.181427 0.039856
0.748077 0.187622 0.040802
0.764465 0.192291 0.041321
0.780670 0.196899 0.041656
0.794434 0.200745 0.042053
0.808167 0.204620 0.042114
0.817291 0.207184 0.042511
0.828735 0.210449 0.042969
0.837341 0.212982 0.042969
0.843719 0.214905 0.042969
0.000977 0.037079 0.000793
0.003784 0.038574 0.001099
0.007996 0.040375 0.001526
0.015930 0.041565 0.001587
0.027344 0.042877 0.001465
0.041016 0.044220 0.001038
0.062164 0.045441 0.002380
0.089355 0.048035 0.009094
0.118378 0.052490 0.014130
0.156921 0.060181 0.019043
0.200714 0.067352 0.024567
0.248352 0.073303 0.030853
0.300171 0.080322 0.037231
0.353271 0.091888 0.038269
0.408600 0.105164 0.038513
0.461823 0.118408 0.038452
0.508514 0.130646 0.038635
0.558319 0.144135 0.038055
0.598785 0.155212 0.038818
0.634735 0.164978 0.040009
0.669037 0.174194 0.040222
0.696991 0.181610 0.041199
0.724365 0.188904 0.042328
0.748749 0.195435 0.042603
0.770294 0.201202 0.043274
0.786835 0.205627 0.043457
0.803192 0.209991 0.043640
0.817017 0.213623 0.044189
0.830872 0.217377 0.044189
0.839966 0.219849 0.044189
0.851410 0.223022 0.044434
0.860077 0.225372 0.044800
0.866455 0.227173 0.044922
0.000793 0.048004 0.000793
0.002045 0.050323 0.001740
0.004089 0.053284 0.002838
0.010773 0.055267 0.002533
0.021210 0.057251 0.002136
0.035492 0.058441 0.001587
0.057678 0.061035 0.000854
0.083282 0.064301 0.001709
0.114258 0.068268 0.012573
0.157898 0.076202 0.024811
0.206543 0.086731 0.033142
0.256622 0.095428 0.041321
0.309845 0.103607 0.047424
0.363800 0.115540 0.046906
0.420532 0.129150 0.045685
0.476074 0.142151 0.044159
0.525421 0.153595 0.042633
0.577057 0.165833 0.042511
0.618408 0.175781 0.043243
0.654877 0.184570 0.044128
0.689728 0.192810 0.044128
0.718018 0.199554 0.045044
0.745789 0.206146 0.045563
0.770508 0.212280 0.046295
0.792419 0.217682 0.046417
0.809265 0.221771 0.046417
0.825928 0.225891 0.046417
0.839905 0.229431 0.046570
0.853821 0.232910 0.047119
0.862946 0.235260 0.047119
0.874359 0.238220 0.047119
0.882904 0.240417 0.047119
0.889252 0.242096 0.047241
0.000793 0.060699 0.001526
0.000793 0.063812 0.002441
0.000824 0.067963 0.003723
0.005768 0.070770 0.003143
0.014160 0.073853 0.002167
0.027374 0.075867 0.001099
0.050964 0.078186 0.000854
0.079102 0.081543 0.000793
0.108917 0.087463 0.000854
0.152832 0.094604 0.018494
0.206909 0.104919 0.035706
0.263062 0.117767 0.049255
0.318481 0.128082 0.057465
0.372986 0.140106 0.056030
0.429596 0.153381 0.052917
0.485229 0.166046 0.050446
0.534637 0.176788 0.049713
0.587830 0.188049 0.049164
0.631927 0.196838 0.048584
0.670288 0.204803 0.048645
0.705994 0.212250 0.048645
0.735138 0.218323 0.049347
0.763489 0.224487 0.049408
0.788727 0.230011 0.050079
0.811096 0.234985 0.050079
0.828247 0.238922 0.050079
0.845123 0.242737 0.049927
0.859283 0.246033 0.049438
0.873352 0.249390 0.049438
0.882477 0.251556 0.049500
0.893860 0.254303 0.049500
0.902313 0.256439 0.049500
0.908569 0.258026 0.049500
0.000000 0.082001 0.003021
0.000000 0.085419 0.005127
0.000000 0.089966 0.007660
0.001434 0.094025 0.008148
0.005981 0.098114 0.006592
0.016388 0.100464 0.004089
0.039368 0.102936 0.001190
0.071503 0.106262 0.000793
0.103271 0.111938 0.000275
0.145966 0.121185 0.001801
0.200317 0.131500 0.020874
0.263245 0.145020 0.042236
0.323608 0.160828 0.058777
0.381561 0.171783 0.066040
0.437683 0.183929 0.064423
0.491821 0.195648 0.061218
0.540741 0.205536 0.060455
0.594482 0.215851 0.059601
0.639465 0.223846 0.058258
0.679565 0.231049 0.057465
0.718048 0.237640 0.056671
0.749878 0.242981 0.055725
0.779785 0.248627 0.055084
0.806183 0.253510 0.054901
0.829437 0.258057 0.054718
0.847046 0.261536 0.054565
0.864197 0.265198 0.054382
0.878540 0.268219 0.053864
0.892700 0.271240 0.053345
0.901794 0.273224 0.053253
0.913147 0.275757 0.053223
0.921387 0.277649 0.052856
0.927521 0.279114 0.052612
0.000000 0.108856 0.008423
0.000305 0.112457 0.011230
0.000610 0.117279 0.014801
0.000244 0.122131 0.016998
0.001190 0.127594 0.017792
0.005524 0.131348 0.013550
0.023865 0.133698 0.004761
0.059326 0.135529 0.000183
0.095215 0.140198 0.000793
0.140442 0.149536 0.000397
0.192871 0.161957 0.002380
0.257599 0.175018 0.025177
0.326141 0.192017 0.048950
0.385223 0.209442 0.062836
0.441559 0.220428 0.072540
0.495605 0.228943 0.075470
0.543793 0.237244 0.074371
0.597382 0.246643 0.071991
0.642700 0.253967 0.070099
0.683746 0.260376 0.068329
0.723663 0.266602 0.066528
0.756744 0.271667 0.064941
0.789185 0.276520 0.063812
0.817535 0.281097 0.062531
0.842468 0.285248 0.061554
0.861084 0.288361 0.060822
0.879089 0.291504 0.059998
0.893982 0.294128 0.059479
0.908508 0.296722 0.058533
0.917664 0.298492 0.058228
0.929016 0.300781 0.057953
0.937164 0.302521 0.057617
0.943207 0.303833 0.057373
0.000000 0.142181 0.022308
0.000000 0.145935 0.025726
0.000000 0.151031 0.029968
0.000000 0.156433 0.035187
0.000000 0.162872 0.039185
0.000610 0.167816 0.038055
0.010132 0.171417 0.026642
0.039948 0.171509 0.006927
0.082001 0.173706 0.000793
0.132294 0.180786 0.000000
0.187347 0.192932 0.000000
0.249115 0.208832 0.000458
0.324036 0.223938 0.030212
0.392700 0.243164 0.052338
0.446106 0.261230 0.069122
0.495514 0.269623 0.080780
0.543427 0.274292 0.087067
0.597137 0.280701 0.087341
0.642334 0.287292 0.083954
0.683868 0.293335 0.081177
0.724609 0.299103 0.078430
0.758606 0.303864 0.076355
0.791992 0.308594 0.074554
0.821686 0.312805 0.073090
0.847687 0.316559 0.071228
0.867218 0.319427 0.070190
0.886169 0.322174 0.069031
0.901886 0.324493 0.068024
0.917023 0.326843 0.066498
0.926727 0.328339 0.065613
0.938538 0.330231 0.064453
0.947205 0.331665 0.063660
0.953369 0.332825 0.063202
0.000000 0.182770 0.048218
0.000000 0.186493 0.051819
0.000000 0.191589 0.056580
0.000000 0.197052 0.062500
0.000000 0.204071 0.070251
0.000000 0.210541 0.075439
0.001312 0.216248 0.071045
0.014221 0.216187 0.042725
0.061066 0.213898 0.011566
0.120728 0.216919 0.000000
0.179047 0.226501 0.000000
0.242676 0.241455 0.000000
0.312653 0.260345 0.001099
0.392853 0.277283 0.034332
0.462311 0.296051 0.061920
0.505219 0.313110 0.075928
0.542603 0.320435 0.085266
0.592133 0.323639 0.094757
0.639008 0.325867 0.099701
0.680817 0.330505 0.096954
0.722015 0.335602 0.093262
0.756561 0.339996 0.090240
0.790833 0.344452 0.087524
0.821350 0.348419 0.085022
0.847992 0.351929 0.083252
0.868011 0.354584 0.081787
0.887329 0.357239 0.080017
0.903229 0.359528 0.078827
0.918671 0.361755 0.077240
0.928619 0.363190 0.076202
0.940918 0.364899 0.075165
0.949921 0.366211 0.074066
0.956543 0.367188 0.073273
0.000000 0.229858 0.084137
0.000000 0.233368 0.087738
0.000000 0.238159 0.092743
0.000000 0.243103 0.097626
0.000000 0.249451 0.103912
0.000000 0.255798 0.110718
0.000000 0.263763 0.116730
0.003052 0.268311 0.107422
0.029633 0.262085 0.056488
0.098694 0.259064 0.014252
0.166931 0.263550 0.000763
0.232361 0.275543 0.000000
0.303894 0.293060 0.000000
0.380096 0.314087 0.003082
0.463348 0.332397 0.042145
0.528351 0.350311 0.069519
0.563721 0.365173 0.081848
0.597015 0.373657 0.090271
0.632935 0.376282 0.097717
0.673096 0.377075 0.104248
0.715881 0.378601 0.107788
0.751465 0.381134 0.107330
0.786072 0.384857 0.103821
0.816895 0.388519 0.100220
0.844025 0.391815 0.097565
0.864594 0.394379 0.095428
0.884521 0.396851 0.093689
0.900970 0.398926 0.091980
0.916931 0.401031 0.090210
0.927216 0.402435 0.088898
0.940002 0.404144 0.087128
0.949341 0.405396 0.085907
0.956238 0.406311 0.085022
0.000000 0.278900 0.125366
0.000000 0.282043 0.128174
0.000000 0.286407 0.132416
0.000000 0.290802 0.136169
0.000000 0.296356 0.140900
0.000000 0.301971 0.145813
0.000000 0.309814 0.152924
0.000000 0.317383 0.155365
0.002533 0.316589 0.127075
0.067413 0.307434 0.058716
0.146576 0.304962 0.011536
0.218018 0.311584 0.000000
0.290619 0.326477 0.000000
0.368896 0.347107 0.000000
0.449799 0.370728 0.000671
0.530487 0.388947 0.048157
0.591919 0.404541 0.075165
0.628357 0.420837 0.087921
0.649048 0.428711 0.093536
0.674469 0.431854 0.099182
0.707672 0.432861 0.105133
0.740814 0.433258 0.110168
0.776917 0.433563 0.115173
0.809662 0.434540 0.117554
0.837494 0.436859 0.115479
0.858490 0.439026 0.113251
0.878906 0.441162 0.110535
0.895813 0.443115 0.108398
0.912415 0.445038 0.106201
0.923218 0.446381 0.104767
0.936676 0.448059 0.102997
0.946533 0.449249 0.101532
0.953796 0.450165 0.100464
0.000000 0.324463 0.161102
0.000153 0.327179 0.163025
0.000153 0.330963 0.165802
0.000153 0.334808 0.168579
0.000153 0.339752 0.172150
0.000153 0.344696 0.175812
0.000610 0.351593 0.180847
0.000793 0.359436 0.186218
0.000061 0.366852 0.189789
0.029846 0.358002 0.125946
0.116180 0.348450 0.045715
0.199402 0.349152 0.002289
0.274658 0.359711 0.000000
0.355194 0.378723 0.000000
0.439850 0.402618 0.000000
0.519073 0.426666 0.003021
0.590790 0.443817 0.050385
0.658844 0.460510 0.081238
0.691193 0.473633 0.093048
0.705383 0.482086 0.097107
0.722412 0.486328 0.100708
0.742462 0.488190 0.104492
0.769653 0.488953 0.109070
0.797760 0.489410 0.113037
0.825226 0.489655 0.116486
0.847198 0.490021 0.119171
0.869202 0.490601 0.120911
0.887817 0.491272 0.121765
0.905975 0.492310 0.121796
0.917786 0.493073 0.121429
0.932190 0.494263 0.120026
0.942871 0.495209 0.119110
0.950623 0.496002 0.118195
0.000793 0.362762 0.187927
0.000793 0.365204 0.189392
0.000793 0.368530 0.191528
0.000793 0.372070 0.193604
0.000793 0.376526 0.196289
0.000793 0.381073 0.198822
0.000793 0.387390 0.202423
0.000793 0.394653 0.206726
0.000793 0.402588 0.212585
0.008667 0.403625 0.187714
0.077545 0.391388 0.105560
0.176208 0.385895 0.025452
0.257629 0.391937 0.000000
0.340454 0.407990 0.000000
0.428314 0.431335 0.000000
0.511780 0.456329 0.000000
0.583160 0.478210 0.006409
0.659912 0.496765 0.058777
0.715790 0.510223 0.084778
0.746948 0.521484 0.096313
0.759949 0.530670 0.100098
0.769196 0.535858 0.101898
0.783386 0.538818 0.104675
0.801270 0.540375 0.107574
0.822144 0.541046 0.110931
0.840088 0.541473 0.113373
0.859436 0.541931 0.115997
0.876923 0.542267 0.118225
0.895233 0.542542 0.120117
0.907501 0.542816 0.121460
0.923126 0.543182 0.123199
0.935028 0.543457 0.124237
0.943848 0.543671 0.125000
0.000793 0.401794 0.211609
0.000793 0.404022 0.212677
0.000793 0.407135 0.214172
0.000549 0.410461 0.215607
0.000549 0.414642 0.217529
0.000549 0.418854 0.219360
0.000183 0.424835 0.222046
0.000000 0.431671 0.225433
0.000000 0.438660 0.229614
0.000458 0.446594 0.230865
0.031555 0.441284 0.177338
0.137787 0.429932 0.090057
0.231079 0.431305 0.013733
0.321472 0.442932 0.000000
0.412506 0.463684 0.000000
0.500183 0.488403 0.000000
0.575836 0.511383 0.000000
0.653381 0.535004 0.010437
0.715607 0.550018 0.056396
0.765717 0.561707 0.081879
0.803009 0.572540 0.096680
0.818359 0.581787 0.101868
0.825165 0.589355 0.102936
0.831879 0.594513 0.103912
0.840973 0.597687 0.105133
0.851318 0.599152 0.106903
0.864258 0.600250 0.108978
0.877319 0.600891 0.111267
0.891754 0.601349 0.113556
0.901825 0.601654 0.115051
0.915741 0.601929 0.116882
0.926575 0.602173 0.118317
0.934875 0.602356 0.119385
0.000000 0.432526 0.226471
0.000000 0.434662 0.227295
0.000000 0.437592 0.228485
0.000000 0.440735 0.229828
0.000000 0.444794 0.231567
0.000000 0.448853 0.233368
0.000000 0.454590 0.235748
0.000000 0.461243 0.238800
0.000000 0.467987 0.242432
0.000000 0.476990 0.249054
0.005737 0.480652 0.229950
0.086090 0.469971 0.150604
0.204559 0.466400 0.069641
0.298584 0.475098 0.007599
0.396851 0.492279 0.000000
0.487213 0.515350 0.000000
0.565979 0.537964 0.000000
0.647308 0.562378 0.000153
0.709869 0.580627 0.016113
0.763184 0.593658 0.054169
0.809753 0.605072 0.078674
0.843475 0.614410 0.092926
0.863800 0.624451 0.099884
0.872223 0.633667 0.101868
0.875916 0.640808 0.102051
0.879669 0.645203 0.102356
0.885620 0.648407 0.103119
0.893066 0.650238 0.104645
0.902649 0.651611 0.106415
0.909821 0.652344 0.107727
0.920166 0.652954 0.109680
0.928864 0.653351 0.111420
0.935608 0.653595 0.112671
0.000000 0.458679 0.237518
0.000000 0.460785 0.238251
0.000000 0.463623 0.239288
0.000000 0.466705 0.240601
0.000000 0.470673 0.242310
0.000000 0.474609 0.243988
0.000000 0.480225 0.246582
0.000000 0.486664 0.249725
0.000000 0.493317 0.253265
0.000000 0.501923 0.258698
0.000000 0.510712 0.260925
0.042389 0.506805 0.206055
0.171234 0.499176 0.124573
0.275177 0.505280 0.052643
0.375702 0.520142 0.003296
0.472504 0.540039 0.000000
0.554016 0.561340 0.000000
0.638153 0.585480 0.000000
0.702942 0.604370 0.000702
0.756714 0.619507 0.017365
0.805695 0.631805 0.051758
0.842712 0.641815 0.071991
0.876038 0.651947 0.086761
0.898682 0.662079 0.095062
0.908875 0.672089 0.097839
0.912598 0.679779 0.098328
0.915436 0.686523 0.098328
0.918304 0.691345 0.098389
0.922974 0.694946 0.099030
0.927307 0.696716 0.099915
0.933502 0.698608 0.101288
0.939514 0.699615 0.102722
0.943970 0.700348 0.103790
0.000000 0.482788 0.245789
0.000000 0.484863 0.246643
0.000000 0.487732 0.247742
0.000000 0.490784 0.249176
0.000000 0.494720 0.251007
0.000000 0.498505 0.253021
0.000000 0.503967 0.255859
0.000000 0.510315 0.259308
0.000000 0.516876 0.262970
0.000000 0.525238 0.268005
0.000000 0.534943 0.275208
0.001709 0.539154 0.248688
0.126587 0.531586 0.169525
0.250092 0.534607 0.107910
0.353210 0.547577 0.044830
0.452118 0.565430 0.004333
0.538727 0.584015 0.000000
0.625824 0.606750 0.000000
0.693024 0.625427 0.000000
0.748688 0.640961 0.000702
0.797638 0.654694 0.015350
0.836121 0.664948 0.044403
0.870728 0.675568 0.062531
0.899078 0.685944 0.075226
0.921234 0.696014 0.084106
0.933655 0.704834 0.088287
0.940979 0.714325 0.089874
0.944824 0.722198 0.090302
0.947693 0.729767 0.089996
0.949707 0.733826 0.089996
0.952820 0.738342 0.090240
0.955627 0.741394 0.090698
0.958374 0.743073 0.091309
0.000000 0.501923 0.251678
0.000000 0.503998 0.252655
0.000000 0.506805 0.253876
0.000000 0.509827 0.255371
0.000000 0.513702 0.257385
0.000000 0.517578 0.259277
0.000000 0.523010 0.262146
0.000000 0.529419 0.265594
0.000000 0.535950 0.269165
0.000000 0.544159 0.273987
0.000000 0.553650 0.280548
0.000336 0.563019 0.282349
0.079315 0.558319 0.207092
0.224762 0.558746 0.142365
0.333832 0.569763 0.090027
0.433929 0.585876 0.032288
0.522125 0.603088 0.004700
0.613525 0.623474 0.000000
0.682373 0.641602 0.000000
0.739716 0.657013 0.000000
0.790009 0.670807 0.001770
0.827789 0.681732 0.011993
0.863220 0.692322 0.039246
0.892181 0.702881 0.055389
0.915344 0.713593 0.064148
0.931732 0.722504 0.069733
0.945496 0.732147 0.073761
0.953949 0.740906 0.076080
0.960266 0.749969 0.077118
0.963898 0.755951 0.077393
0.967133 0.763031 0.077362
0.969757 0.767975 0.077087
0.971497 0.771301 0.076904
0.000000 0.519867 0.257050
0.000000 0.522003 0.258118
0.000000 0.524841 0.259491
0.000000 0.527893 0.260956
0.000000 0.531738 0.262817
0.000000 0.535583 0.264832
0.000000 0.541016 0.267883
0.000000 0.547333 0.271637
0.000000 0.553802 0.275543
0.000000 0.562012 0.280487
0.000000 0.571381 0.286835
0.000000 0.581787 0.294342
0.029938 0.583771 0.244476
0.191589 0.582245 0.172516
0.312317 0.591553 0.123932
0.415253 0.605835 0.074921
0.504303 0.621429 0.025513
0.598297 0.640228 0.001465
0.670044 0.657043 0.000000
0.728607 0.672455 0.000000
0.780212 0.686218 0.000610
0.818207 0.697357 0.000946
0.852356 0.708496 0.007812
0.881073 0.719147 0.026031
0.904236 0.729889 0.036591
0.920807 0.739075 0.043030
0.936218 0.748779 0.049011
0.948273 0.757416 0.052582
0.959167 0.766479 0.054749
0.965240 0.772705 0.055573
0.972015 0.780548 0.056183
0.976624 0.786652 0.056183
0.979370 0.790955 0.056061
0.000000 0.535492 0.261261
0.000000 0.537628 0.262390
0.000000 0.540527 0.263855
0.000000 0.543549 0.265411
0.000000 0.547424 0.267365
0.000000 0.551270 0.269379
0.000000 0.556732 0.272461
0.000000 0.563141 0.276306
0.000000 0.569550 0.280334
0.000000 0.577789 0.285370
0.000000 0.587280 0.291443
0.000000 0.598541 0.297913
0.009583 0.606995 0.280121
0.151276 0.603577 0.198547
0.290833 0.611237 0.149384
0.397003 0.623962 0.107178
0.487610 0.638184 0.057343
0.582397 0.656403 0.008301
0.656586 0.672333 0.000092
0.716156 0.687744 0.000092
0.768372 0.702057 0.001495
0.807007 0.713135 0.001984
0.841339 0.724030 0.002075
0.869446 0.734406 0.003479
0.892517 0.744751 0.009125
0.909149 0.753540 0.013367
0.924835 0.763031 0.020264
0.937622 0.771576 0.024475
0.949860 0.780487 0.026276
0.957642 0.786530 0.027100
0.967163 0.794220 0.028046
0.973633 0.800262 0.028046
0.978333 0.804718 0.028046
0.000000 0.549011 0.264282
0.000000 0.551208 0.265503
0.000000 0.554138 0.267090
0.000000 0.557159 0.268951
0.000000 0.561005 0.271179
0.000000 0.564819 0.273499
0.000000 0.570282 0.276825
0.000000 0.576813 0.280426
0.000000 0.583862 0.283813
0.000000 0.593140 0.288361
0.000000 0.603668 0.293823
0.000000 0.616913 0.299194
0.002289 0.630524 0.298584
0.107635 0.626282 0.221161
0.269989 0.631073 0.167999
0.379242 0.642639 0.127930
0.471375 0.655914 0.085663
0.566620 0.673492 0.023376
0.641632 0.689240 0.001709
0.702942 0.704010 0.001068
0.755768 0.718506 0.002747
0.795166 0.729553 0.003937
0.830231 0.739960 0.004486
0.858948 0.749542 0.005402
0.882294 0.758850 0.006348
0.899078 0.766876 0.006592
0.914978 0.775696 0.007843
0.927917 0.783844 0.009003
0.940491 0.792511 0.009644
0.948730 0.798431 0.009766
0.958801 0.806061 0.010315
0.966400 0.811951 0.010529
0.971863 0.816284 0.010529
0.000000 0.559265 0.266510
0.000000 0.561554 0.267731
0.000000 0.564514 0.269379
0.000000 0.567871 0.271027
0.000000 0.571869 0.273315
0.000000 0.575867 0.275635
0.000000 0.581635 0.278931
0.000000 0.588623 0.282471
0.000000 0.596619 0.285370
0.000000 0.607452 0.289062
0.000244 0.619720 0.293427
0.000702 0.634247 0.297943
0.001007 0.650970 0.303192
0.078949 0.648987 0.238190
0.251862 0.649658 0.179932
0.364594 0.660278 0.141235
0.457916 0.672729 0.101990
0.553741 0.689026 0.042236
0.629028 0.704285 0.006744
0.691681 0.718384 0.002289
0.745483 0.732574 0.004242
0.785553 0.743652 0.005432
0.821259 0.753845 0.006226
0.850433 0.762817 0.007019
0.874146 0.771332 0.007843
0.891266 0.778534 0.008606
0.907379 0.786560 0.009338
0.920532 0.794067 0.009979
0.933411 0.802216 0.010620
0.941864 0.807861 0.010956
0.952240 0.815277 0.011017
0.960114 0.821106 0.011444
0.965851 0.825470 0.011749
0.000000 0.569885 0.268829
0.000000 0.572418 0.269928
0.000000 0.575531 0.271576
0.000000 0.579315 0.272888
0.000000 0.584045 0.274628
0.000000 0.588776 0.276337
0.000000 0.595642 0.278717
0.000000 0.603912 0.281586
0.000000 0.612854 0.283875
0.000397 0.624786 0.287170
0.001007 0.638245 0.291016
0.002686 0.653412 0.296051
0.002777 0.671021 0.305511
0.052460 0.674835 0.258301
0.231354 0.670898 0.189606
0.349060 0.679932 0.152344
0.443787 0.691162 0.115631
0.540527 0.706055 0.060333
0.616150 0.720612 0.013062
0.679688 0.734253 0.003540
0.734924 0.748016 0.005341
